%
O00100
(Using high feed G1 F650. instead of G0.)
(T1 D=0.375 CR=0. - ZMIN=-0.775 - flat end mill)
(T2 D=1. CR=0.06 - ZMIN=0. - face mill)
(T3 D=0.1875 CR=0. - ZMIN=-0.78 - flat end mill)
(T4 D=0.75 CR=0. TAPER=45deg - ZMIN=-0.1 - chamfer mill)
(T5 D=0.201 CR=0. TAPER=118deg - ZMIN=-0.8554 - drill)
(T10 D=0.19 CR=0. - ZMIN=-1.25 - right hand tap)
N10 G90 G94 G17
N15 G20
N20 G53 G0 Z0.

(Drill2)
N25 T4 M6
N30 S6000 M3
N35 G54
N40 M8
N45 G1 X-0.0437 Y1.0761 F650.
N50 G0 G43 Z0.8 H4
N55 T5
N60 G0 Z0.4
N65 G98 G81 X-0.0437 Y1.0761 Z-0.1 R0.325 F14.
N70 X0.9563 Y-0.7239
N75 X-1.3437
N80 G80
N85 G0 Z0.8
N90 M9
N95 M5
N100 G53 G0 Z0.

(Drill3)
N105 M1
N110 T5 M6
N115 S5701 M3
N120 G54
N125 M8
N130 G1 X-0.0437 Y1.0761 F650.
N135 G0 G43 Z0.725 H5
N140 T3
N145 G0 Z0.325
N150 G98 G83 X-0.0437 Y1.0761 Z-0.8554 R0.325 Q0.1 F17.189
N155 X0.9563 Y-0.7239
N160 X-1.3437
N165 G80
N170 G0 Z0.725
N175 M9
N180 M5
N185 G53 G0 Z0.

(Drill4)
N190 M1
N195 T3 M6
N200 S5000 M3
N205 G54
N210 M8
N215 G1 X-0.0437 Y1.0761 F650.
N220 G0 G43 Z0.725 H3
N225 T2
N230 G0 Z0.325
N235 Z0.2
N240 G1 Z0.125 F10.
N245 Z0.041
N250 G3 X0.0063 I0.025 J0.
N255 X-0.1249 I-0.0656 J0.
N260 X0.0376 I0.0813 J0.
N265 X-0.1249 I-0.0813 J0.
N270 G1 X-0.0437
N275 Z-0.043
N280 G3 X0.0063 I0.025 J0.
N285 X-0.1249 I-0.0656 J0.
N290 X0.0376 I0.0813 J0.
N295 X-0.1249 I-0.0813 J0.
N300 G1 X-0.0437
N305 Z-0.127
N310 G3 X0.0063 I0.025 J0.
N315 X-0.1249 I-0.0656 J0.
N320 X0.0376 I0.0813 J0.
N325 X-0.1249 I-0.0813 J0.
N330 G1 X-0.0437
N335 Z-0.211
N340 G3 X0.0063 I0.025 J0.
N345 X-0.1249 I-0.0656 J0.
N350 X0.0376 I0.0813 J0.
N355 X-0.1249 I-0.0813 J0.
N360 G1 X-0.0437
N365 Z-0.295
N370 G3 X0.0063 I0.025 J0.
N375 X-0.1249 I-0.0656 J0.
N380 X0.0376 I0.0813 J0.
N385 X-0.1249 I-0.0813 J0.
N390 G1 X-0.0437
N395 Z-0.379
N400 G3 X0.0063 I0.025 J0.
N405 X-0.1249 I-0.0656 J0.
N410 X0.0376 I0.0813 J0.
N415 X-0.1249 I-0.0813 J0.
N420 G1 X-0.0437
N425 Z-0.463
N430 G3 X0.0063 I0.025 J0.
N435 X-0.1249 I-0.0656 J0.
N440 X0.0376 I0.0813 J0.
N445 X-0.1249 I-0.0813 J0.
N450 G1 X-0.0437
N455 Z-0.5
N460 G3 X0.0063 I0.025 J0.
N465 X-0.1249 I-0.0656 J0.
N470 X0.0376 I0.0813 J0.
N475 X-0.1249 I-0.0813 J0.
N480 G1 X-0.0437
N485 G0 Z0.325
N490 G1 X0.9563 Y-0.7239 F650.
N495 G0 Z0.2
N500 G1 Z0.125 F10.
N505 Z0.041
N510 G3 X1.0063 I0.025 J0.
N515 X0.8751 I-0.0656 J0.
N520 X1.0376 I0.0813 J0.
N525 X0.8751 I-0.0813 J0.
N530 G1 X0.9563
N535 Z-0.043
N540 G3 X1.0063 I0.025 J0.
N545 X0.8751 I-0.0656 J0.
N550 X1.0376 I0.0813 J0.
N555 X0.8751 I-0.0813 J0.
N560 G1 X0.9563
N565 Z-0.127
N570 G3 X1.0063 I0.025 J0.
N575 X0.8751 I-0.0656 J0.
N580 X1.0376 I0.0813 J0.
N585 X0.8751 I-0.0813 J0.
N590 G1 X0.9563
N595 Z-0.211
N600 G3 X1.0063 I0.025 J0.
N605 X0.8751 I-0.0656 J0.
N610 X1.0376 I0.0813 J0.
N615 X0.8751 I-0.0813 J0.
N620 G1 X0.9563
N625 Z-0.295
N630 G3 X1.0063 I0.025 J0.
N635 X0.8751 I-0.0656 J0.
N640 X1.0376 I0.0813 J0.
N645 X0.8751 I-0.0813 J0.
N650 G1 X0.9563
N655 Z-0.379
N660 G3 X1.0063 I0.025 J0.
N665 X0.8751 I-0.0656 J0.
N670 X1.0376 I0.0813 J0.
N675 X0.8751 I-0.0813 J0.
N680 G1 X0.9563
N685 Z-0.463
N690 G3 X1.0063 I0.025 J0.
N695 X0.8751 I-0.0656 J0.
N700 X1.0376 I0.0813 J0.
N705 X0.8751 I-0.0813 J0.
N710 G1 X0.9563
N715 Z-0.5
N720 G3 X1.0063 I0.025 J0.
N725 X0.8751 I-0.0656 J0.
N730 X1.0376 I0.0813 J0.
N735 X0.8751 I-0.0813 J0.
N740 G1 X0.9563
N745 G0 Z0.325
N750 X-1.3437
N755 Z0.2
N760 G1 Z0.125 F10.
N765 Z0.041
N770 G3 X-1.2937 I0.025 J0.
N775 X-1.4249 I-0.0656 J0.
N780 X-1.2624 I0.0813 J0.
N785 X-1.4249 I-0.0813 J0.
N790 G1 X-1.3437
N795 Z-0.043
N800 G3 X-1.2937 I0.025 J0.
N805 X-1.4249 I-0.0656 J0.
N810 X-1.2624 I0.0813 J0.
N815 X-1.4249 I-0.0813 J0.
N820 G1 X-1.3437
N825 Z-0.127
N830 G3 X-1.2937 I0.025 J0.
N835 X-1.4249 I-0.0656 J0.
N840 X-1.2624 I0.0813 J0.
N845 X-1.4249 I-0.0813 J0.
N850 G1 X-1.3437
N855 Z-0.211
N860 G3 X-1.2937 I0.025 J0.
N865 X-1.4249 I-0.0656 J0.
N870 X-1.2624 I0.0813 J0.
N875 X-1.4249 I-0.0813 J0.
N880 G1 X-1.3437
N885 Z-0.295
N890 G3 X-1.2937 I0.025 J0.
N895 X-1.4249 I-0.0656 J0.
N900 X-1.2624 I0.0813 J0.
N905 X-1.4249 I-0.0813 J0.
N910 G1 X-1.3437
N915 Z-0.379
N920 G3 X-1.2937 I0.025 J0.
N925 X-1.4249 I-0.0656 J0.
N930 X-1.2624 I0.0813 J0.
N935 X-1.4249 I-0.0813 J0.
N940 G1 X-1.3437
N945 Z-0.463
N950 G3 X-1.2937 I0.025 J0.
N955 X-1.4249 I-0.0656 J0.
N960 X-1.2624 I0.0813 J0.
N965 X-1.4249 I-0.0813 J0.
N970 G1 X-1.3437
N975 Z-0.5
N980 G3 X-1.2937 I0.025 J0.
N985 X-1.4249 I-0.0656 J0.
N990 X-1.2624 I0.0813 J0.
N995 X-1.4249 I-0.0813 J0.
N1000 G1 X-1.3437
N1005 G0 Z0.325
N1010 Z0.725
N1015 M9
N1020 M5
N1025 G53 G0 Z0.

(Face1)
N1030 M1
N1035 T2 M6
N1040 S6000 M3
N1045 G54
N1050 M8
N1055 G1 X4.0085 Y-2.5241 F650.
N1060 G0 G43 Z0.725 H2
N1065 T1
N1070 G0 Z0.325
N1075 G1 Z0.19 F40.
N1080 G18 G3 X3.9085 Z0.09 I-0.1 K0.
N1085 G1 X3.3585
N1090 X-3.3585
N1095 G17 G2 Y-1.698 I0. J0.413
N1100 G1 X3.3585
N1105 G3 Y-0.872 I0. J0.413
N1110 G1 X-3.3585
N1115 G2 Y-0.046 I0. J0.413
N1120 G1 X3.3585
N1125 G3 Y0.78 I0. J0.413
N1130 G1 X-3.3585
N1135 G2 Y1.6061 I0. J0.413
N1140 G1 X3.3585
N1145 G3 Y2.4321 I0. J0.413
N1150 G1 X-3.3585
N1155 G18 G3 X-3.4585 Z0.19 I0. K0.1
N1160 G0 Z0.325
N1165 G1 X-4.0085 Y-2.5241 F650.
N1170 Z0.15 F40.
N1175 G2 X-3.9085 Z0.05 I0.1 K0.
N1180 G1 X-3.3585
N1185 X3.3585
N1190 G17 G3 Y-1.698 I0. J0.413
N1195 G1 X-3.3585
N1200 G2 Y-0.872 I0. J0.413
N1205 G1 X3.3585
N1210 G3 Y-0.046 I0. J0.413
N1215 G1 X-3.3585
N1220 G2 Y0.78 I0. J0.413
N1225 G1 X3.3585
N1230 G3 Y1.6061 I0. J0.413
N1235 G1 X-3.3585
N1240 G2 Y2.4321 I0. J0.413
N1245 G1 X3.3585
N1250 G18 G2 X3.4585 Z0.15 I0. K0.1
N1255 G0 Z0.325
N1260 G1 X4.0085 Y-2.5241 F650.
N1265 Z0.11 F40.
N1270 G3 X3.9085 Z0.01 I-0.1 K0.
N1275 G1 X3.3585
N1280 X-3.3585
N1285 G17 G2 Y-1.698 I0. J0.413
N1290 G1 X3.3585
N1295 G3 Y-0.872 I0. J0.413
N1300 G1 X-3.3585
N1305 G2 Y-0.046 I0. J0.413
N1310 G1 X3.3585
N1315 G3 Y0.78 I0. J0.413
N1320 G1 X-3.3585
N1325 G2 Y1.6061 I0. J0.413
N1330 G1 X3.3585
N1335 G3 Y2.4321 I0. J0.413
N1340 G1 X-3.3585
N1345 G18 G3 X-3.4585 Z0.11 I0. K0.1
N1350 G0 Z0.325
N1355 G1 X-4.0085 Y-2.5241 F650.
N1360 Z0.1 F40.
N1365 G2 X-3.9085 Z0. I0.1 K0.
N1370 G1 X-3.3585
N1375 X3.3585
N1380 G17 G3 Y-1.698 I0. J0.413
N1385 G1 X-3.3585
N1390 G2 Y-0.872 I0. J0.413
N1395 G1 X3.3585
N1400 G3 Y-0.046 I0. J0.413
N1405 G1 X-3.3585
N1410 G2 Y0.78 I0. J0.413
N1415 G1 X3.3585
N1420 G3 Y1.6061 I0. J0.413
N1425 G1 X-3.3585
N1430 G2 Y2.4321 I0. J0.413
N1435 G1 X3.3585
N1440 G18 G2 X3.4585 Z0.1 I0. K0.1
N1445 G0 Z0.725
N1450 M9
N1455 M5
N1460 G53 G0 Z0.

(2D Pocket1)
N1465 M1
N1470 T1 M6
N1475 S8000 M3
N1480 G54
N1485 M8
N1490 G17
N1495 G1 X0.2151 Y-2.4366 F650.
N1500 G0 G43 Z0.725 H1
N1505 T3
N1510 G0 Z0.2394
N1515 G1 Z0.1375 F35.
N1520 Y-2.4364 Z0.1336 F10.
N1525 X0.2149 Y-2.4359 Z0.1299
N1530 X0.2146 Y-2.4349 Z0.1261
N1535 X0.2143 Y-2.4337 Z0.1225
N1540 X0.2138 Y-2.432 Z0.1191
N1545 X0.2132 Y-2.4301 Z0.1159
N1550 X0.2125 Y-2.4278 Z0.1128
N1555 X0.2116 Y-2.4253 Z0.1101
N1560 X0.2107 Y-2.4225 Z0.1076
N1565 X0.2096 Y-2.4195 Z0.1054
N1570 X0.2083 Y-2.4164 Z0.1036
N1575 X0.207 Y-2.4131 Z0.1021
N1580 X0.2055 Y-2.4097 Z0.101
N1585 X0.2039 Y-2.4063 Z0.1003
N1590 X0.2023 Y-2.4029 Z0.1
N1595 G3 X0.2086 Y-2.4171 Z0.0615 I-0.1592 J-0.0799
N1600 X0.2137 Y-2.4317 Z0.0229 I-0.1655 J-0.0657
N1605 X0.2175 Y-2.4468 Z-0.0156 I-0.1706 J-0.0511
N1610 X0.22 Y-2.4621 Z-0.0542 I-0.1745 J-0.036
N1615 X0.2211 Y-2.4776 Z-0.0927 I-0.1769 J-0.0207
N1620 X0.2209 Y-2.4932 Z-0.1312 I-0.1781 J-0.0052
N1625 X0.2193 Y-2.5086 Z-0.1698 I-0.1778 J0.0104
N1630 X0.0431 Y-2.6609 Z-0.2 I-0.1762 J0.0258
N1635 Y-2.3792 I0. J0.1408
N1640 G1 X-1.2326 Y-2.3793 F30.
N1645 X-2.9433 Y-2.379
N1650 G2 X-2.9678 Y-2.3774 I0. J0.1873
N1655 X-2.9922 Y-2.3741 I0.4486 J3.3905
N1660 G3 X-3.0044 Y-2.3847 I-0.0015 J-0.0106
N1665 G1 Y-2.4917
N1670 G3 X-2.9917 Y-2.5044 I0.0128 J0.
N1675 G1 X0.9024 Y-2.5026
N1680 X2.9917 Y-2.5044
N1685 G3 X3.0044 Y-2.4917 I0. J0.0128
N1690 G1 Y-2.3848
N1695 G3 X2.9922 Y-2.3741 I-0.0107 J0.
N1700 G2 X2.9679 Y-2.3774 I-0.4885 J3.5125
N1705 X2.9435 Y-2.379 I-0.0245 J0.1853
N1710 G1 X0.0431 Y-2.3792
N1715 G2 X-0.0155 Y-2.3402 I0. J0.0635
N1720 G3 X-0.0741 Y-2.3011 I-0.0586 J-0.0244
N1725 G1 X-2.9433
N1730 G2 X-3.0095 Y-2.2922 I0. J0.2503
N1735 X-3.0717 Y-2.2676 I0.082 J0.2986
N1740 G3 X-3.0826 Y-2.2742 I-0.0035 J-0.0066
N1745 G1 Y-2.5701
N1750 G3 X-3.0701 Y-2.5826 I0.0125 J0.
N1755 G1 X0.9024 Y-2.5808
N1760 X3.0701 Y-2.5826
N1765 G3 X3.0826 Y-2.5701 I0. J0.0125
N1770 G1 Y-2.2743
N1775 G3 X3.0717 Y-2.2677 I-0.0074 J0.
N1780 G2 X3.0096 Y-2.2922 I-0.144 J0.2743
N1785 X2.9435 Y-2.3011 I-0.0661 J0.2413
N1790 G1 X-0.0741
N1795 X-0.0778 Y-2.3013 Z-0.1998 F35.
N1800 X-0.0814 Y-2.3018 Z-0.1993
N1805 X-0.0848 Y-2.3027 Z-0.1984
N1810 X-0.0881 Y-2.3038 Z-0.1971
N1815 X-0.0911 Y-2.3052 Z-0.1956
N1820 X-0.0939 Y-2.3068 Z-0.1937
N1825 X-0.0963 Y-2.3084 Z-0.1915
N1830 X-0.0985 Y-2.3101 Z-0.189
N1835 X-0.1003 Y-2.3118 Z-0.1863
N1840 X-0.1018 Y-2.3133 Z-0.1833
N1845 X-0.1031 Y-2.3148 Z-0.1802
N1850 X-0.104 Y-2.316 Z-0.1769
N1855 X-0.1048 Y-2.317 Z-0.1734
N1860 X-0.1053 Y-2.3177 Z-0.1698
N1865 X-0.1056 Y-2.3182 Z-0.1662
N1870 X-0.1057 Y-2.3184 Z-0.1625
N1875 G0 Z0.325
N1880 G1 X-2.8361 Y-0.6918 F650.
N1885 G0 Z0.2394
N1890 G1 Z0.1375 F35.
N1895 X-2.8363 Z0.1336 F10.
N1900 X-2.8369 Y-0.692 Z0.1299
N1905 X-2.8378 Y-0.6922 Z0.1261
N1910 X-2.8391 Y-0.6926 Z0.1225
N1915 X-2.8408 Y-0.6931 Z0.1191
N1920 X-2.8427 Y-0.6937 Z0.1159
N1925 X-2.845 Y-0.6944 Z0.1128
N1930 X-2.8475 Y-0.6952 Z0.1101
N1935 X-2.8503 Y-0.6962 Z0.1076
N1940 X-2.8533 Y-0.6973 Z0.1054
N1945 X-2.8564 Y-0.6985 Z0.1036
N1950 X-2.8597 Y-0.6999 Z0.1021
N1955 X-2.863 Y-0.7014 Z0.101
N1960 X-2.8665 Y-0.703 Z0.1003
N1965 X-2.8699 Y-0.7046 Z0.1
N1970 G3 X-2.8557 Y-0.6983 Z0.0615 I0.0799 J-0.1592
N1975 X-2.841 Y-0.6932 Z0.0229 I0.0657 J-0.1656
N1980 X-2.826 Y-0.6894 Z-0.0156 I0.0511 J-0.1707
N1985 X-2.8106 Y-0.6869 Z-0.0542 I0.036 J-0.1745
N1990 X-2.7951 Y-0.6858 Z-0.0927 I0.0206 J-0.1769
N1995 X-2.7796 Y-0.686 Z-0.1312 I0.0051 J-0.1781
N2000 X-2.7641 Y-0.6876 Z-0.1698 I-0.0104 J-0.1778
N2005 X-2.6119 Y-0.8638 Z-0.2 I-0.0259 J-0.1762
N2010 X-2.9263 I-0.1572 J0.
N2015 G1 Y-0.891 F30.
N2020 G3 X-2.9135 Y-0.9038 I0.0128 J0.
N2025 G1 X-2.8592
N2030 G3 X-2.8464 Y-0.891 I0. J0.0128
N2035 G1 Y0.8912
N2040 G3 X-2.8592 Y0.904 I-0.0128 J0.
N2045 G1 X-2.9135
N2050 G3 X-2.9263 Y0.8912 I0. J-0.0128
N2055 G1 Y-0.8638
N2060 G2 X-2.9613 Y-0.918 I-0.0594 J0.
N2065 G3 X-2.9458 Y-0.9807 I0.0135 J-0.0299
N2070 G2 X-2.8867 Y-0.98 I0.0368 J-0.6004
N2075 G3 X-2.781 Y-0.9819 I0.1057 J2.8422
N2080 X-2.7683 Y-0.9691 I0. J0.0128
N2085 G1 Y0.9693
N2090 G3 X-2.781 Y0.9821 I-0.0128 J0.
N2095 X-2.8867 Y0.9802 I0. J-2.8442
N2100 G2 X-2.9922 Y0.9855 I-0.0223 J0.6011
N2105 G3 X-3.0044 Y0.9749 I-0.0015 J-0.0106
N2110 G1 Y-0.9747
N2115 G3 X-2.9922 Y-0.9853 I0.0107 J0.
N2120 G2 X-2.9458 Y-0.9807 I0.0832 J-0.5957
N2125 X-2.8844 Y-1.0188 I0.0038 J-0.0624
N2130 G3 X-2.8244 Y-1.0592 I0.0609 J0.0257
N2135 G1 X-2.8229
N2140 G3 X-2.7026 Y-1.0601 I0.1203 J8.2067
N2145 X-2.6901 Y-1.0476 I0. J0.0125
N2150 G1 Y1.0478
N2155 G3 X-2.7026 Y1.0603 I-0.0125 J0.
N2160 X-2.8229 Y1.0594 I0. J-8.2076
N2165 G2 X-2.9433 Y1.0585 I-0.1203 J8.2067
N2170 X-3.0095 Y1.0674 I0. J0.2503
N2175 X-3.0717 Y1.092 I0.082 J0.2986
N2180 G3 X-3.0826 Y1.0854 I-0.0035 J-0.0066
N2185 G1 Y-1.0852
N2190 G3 X-3.0717 Y-1.0918 I0.0074 J0.
N2195 G2 X-3.0095 Y-1.0672 I0.1442 J-0.2741
N2200 X-2.9433 Y-1.0583 I0.0663 J-0.2413
N2205 X-2.8244 Y-1.0592 I0. J-8.2076
N2210 G1 X-2.8207 Y-1.059 Z-0.1998 F35.
N2215 X-2.8171 Y-1.0585 Z-0.1993
N2220 X-2.8137 Y-1.0576 Z-0.1984
N2225 X-2.8104 Y-1.0565 Z-0.1971
N2230 X-2.8074 Y-1.0551 Z-0.1956
N2235 X-2.8046 Y-1.0535 Z-0.1937
N2240 X-2.8022 Y-1.0519 Z-0.1915
N2245 X-2.8 Y-1.0502 Z-0.189
N2250 X-2.7982 Y-1.0485 Z-0.1863
N2255 X-2.7967 Y-1.0469 Z-0.1833
N2260 X-2.7954 Y-1.0455 Z-0.1802
N2265 X-2.7945 Y-1.0443 Z-0.1769
N2270 X-2.7937 Y-1.0433 Z-0.1734
N2275 X-2.7932 Y-1.0425 Z-0.1698
N2280 X-2.7929 Y-1.0421 Z-0.1662
N2285 X-2.7928 Y-1.0419 Z-0.1625
N2290 G0 Z0.325
N2295 G1 X-1.0797 Y2.4363 F650.
N2300 G0 Z0.2394
N2305 G1 Z0.1375 F35.
N2310 X-1.0796 Y2.4361 Z0.1336 F10.
N2315 X-1.0795 Y2.4355 Z0.1299
N2320 X-1.0792 Y2.4346 Z0.1261
N2325 X-1.0788 Y2.4333 Z0.1225
N2330 X-1.0784 Y2.4316 Z0.1191
N2335 X-1.0778 Y2.4297 Z0.1159
N2340 X-1.077 Y2.4274 Z0.1128
N2345 X-1.0762 Y2.4249 Z0.1101
N2350 X-1.0752 Y2.4221 Z0.1076
N2355 X-1.0741 Y2.4191 Z0.1054
N2360 X-1.0729 Y2.416 Z0.1036
N2365 X-1.0715 Y2.4127 Z0.1021
N2370 X-1.0701 Y2.4094 Z0.101
N2375 X-1.0685 Y2.4059 Z0.1003
N2380 X-1.0668 Y2.4025 Z0.1
N2385 G3 X-1.0732 Y2.4167 Z0.0615 I0.1592 J0.0799
N2390 X-1.0783 Y2.4314 Z0.0229 I0.1656 J0.0657
N2395 X-1.0821 Y2.4464 Z-0.0156 I0.1707 J0.0511
N2400 X-1.0845 Y2.4618 Z-0.0542 I0.1745 J0.036
N2405 X-1.0857 Y2.4773 Z-0.0927 I0.1769 J0.0206
N2410 X-1.0854 Y2.4928 Z-0.1312 I0.1781 J0.0051
N2415 X-1.0839 Y2.5083 Z-0.1698 I0.1778 J-0.0104
N2420 X-0.9076 Y2.6605 Z-0.2 I0.1762 J-0.0259
N2425 Y2.3792 I0. J-0.1406
N2430 G1 X2.9435 F30.
N2435 G2 X2.9679 Y2.3776 I0. J-0.1869
N2440 X2.9922 Y2.3743 I-0.4642 J-3.5158
N2445 G3 X3.0044 Y2.385 I0.0015 J0.0106
N2450 G1 Y2.4917
N2455 G3 X2.9917 Y2.5044 I-0.0128 J0.
N2460 G1 X-2.9917
N2465 G3 X-3.0044 Y2.4917 I0. J-0.0128
N2470 G1 Y2.3849
N2475 G3 X-2.9922 Y2.3743 I0.0107 J0.
N2480 G2 X-2.9678 Y2.3776 I0.473 J-3.3872
N2485 X-2.9433 Y2.3792 I0.0246 J-0.1857
N2490 G1 X-0.9076
N2495 G2 X-0.8492 Y2.3403 I0. J-0.0633
N2500 G3 X-0.7907 Y2.3013 I0.0584 J0.0244
N2505 G1 X2.9435
N2510 G2 X3.0096 Y2.2924 I0. J-0.2502
N2515 X3.0717 Y2.2679 I-0.0819 J-0.2988
N2520 G3 X3.0826 Y2.2745 I0.0035 J0.0066
N2525 G1 Y2.5701
N2530 G3 X3.0701 Y2.5826 I-0.0125 J0.
N2535 G1 X-3.0701
N2540 G3 X-3.0826 Y2.5701 I0. J-0.0125
N2545 G1 Y2.2744
N2550 G3 X-3.0717 Y2.2678 I0.0074 J0.
N2555 G2 X-3.0095 Y2.2924 I0.1442 J-0.2741
N2560 X-2.9433 Y2.3013 I0.0663 J-0.2413
N2565 G1 X-0.7907
N2570 X-0.7871 Y2.3015 Z-0.1998 F35.
N2575 X-0.7835 Y2.302 Z-0.1993
N2580 X-0.78 Y2.3029 Z-0.1984
N2585 X-0.7767 Y2.304 Z-0.1971
N2590 X-0.7737 Y2.3054 Z-0.1956
N2595 X-0.771 Y2.3069 Z-0.1937
N2600 X-0.7685 Y2.3086 Z-0.1915
N2605 X-0.7664 Y2.3103 Z-0.189
N2610 X-0.7645 Y2.312 Z-0.1863
N2615 X-0.763 Y2.3135 Z-0.1833
N2620 X-0.7618 Y2.315 Z-0.1802
N2625 X-0.7608 Y2.3162 Z-0.1769
N2630 X-0.7601 Y2.3172 Z-0.1734
N2635 X-0.7596 Y2.3179 Z-0.1698
N2640 X-0.7593 Y2.3184 Z-0.1662
N2645 X-0.7592 Y2.3185 Z-0.1625
N2650 G0 Z0.325
N2655 G1 X2.9366 Y1.0389 F650.
N2660 G0 Z0.2394
N2665 G1 Z0.1375 F35.
N2670 X2.9364 Y1.0388 Z0.1336 F10.
N2675 X2.9358 Y1.0386 Z0.1299
N2680 X2.9349 Y1.0384 Z0.1261
N2685 X2.9336 Y1.038 Z0.1225
N2690 X2.932 Y1.0375 Z0.1191
N2695 X2.93 Y1.0369 Z0.1159
N2700 X2.9278 Y1.0362 Z0.1128
N2705 X2.9252 Y1.0354 Z0.1101
N2710 X2.9225 Y1.0344 Z0.1076
N2715 X2.9195 Y1.0333 Z0.1054
N2720 X2.9163 Y1.0321 Z0.1036
N2725 X2.9131 Y1.0307 Z0.1021
N2730 X2.9097 Y1.0293 Z0.101
N2735 X2.9063 Y1.0277 Z0.1003
N2740 X2.9028 Y1.026 Z0.1
N2745 G3 X2.917 Y1.0324 Z0.0615 I0.0799 J-0.1592
N2750 X2.9317 Y1.0375 Z0.0229 I0.0657 J-0.1656
N2755 X2.9468 Y1.0413 Z-0.0156 I0.0511 J-0.1707
N2760 X2.9621 Y1.0437 Z-0.0542 I0.036 J-0.1745
N2765 X2.9776 Y1.0449 Z-0.0927 I0.0206 J-0.1769
N2770 X2.9931 Y1.0446 Z-0.1312 I0.0051 J-0.1781
N2775 X3.0086 Y1.043 Z-0.1698 I-0.0104 J-0.1778
N2780 X3.1609 Y0.8668 Z-0.2 I-0.0259 J-0.1762
N2785 X2.852 I-0.1544 J0.
N2790 G1 Y-0.891 F30.
N2795 G3 X2.8647 Y-0.9038 I0.0128 J0.
N2800 G1 X2.9135
N2805 G3 X2.9263 Y-0.891 I0. J0.0128
N2810 G1 Y0.8912
N2815 G3 X2.9135 Y0.904 I-0.0128 J0.
N2820 G1 X2.8647
N2825 G3 X2.852 Y0.8912 I0. J-0.0128
N2830 G1 Y0.8668
N2835 G2 X2.8129 Y0.8082 I-0.0635 J0.
N2840 G3 X2.7738 Y0.7496 I0.0244 J-0.0586
N2845 G1 Y-0.9691
N2850 G3 X2.7866 Y-0.9819 I0.0128 J0.
N2855 X2.8895 Y-0.9801 I0. J2.8369
N2860 G2 X2.9922 Y-0.9853 I0.0214 J-0.5901
N2865 G3 X3.0044 Y-0.9747 I0.0015 J0.0106
N2870 G1 Y0.9749
N2875 G3 X2.9922 Y0.9855 I-0.0107 J0.
N2880 G2 X2.8895 Y0.9802 I-0.0813 J0.5849
N2885 G3 X2.7866 Y0.9821 I-0.1029 J-2.835
N2890 X2.7738 Y0.9693 I0. J-0.0128
N2895 G1 Y0.7496
N2900 G2 X2.7347 Y0.691 I-0.0635 J0.
N2905 G3 X2.6957 Y0.6323 I0.0244 J-0.0586
N2910 G1 Y-1.0476
N2915 G3 X2.7082 Y-1.0601 I0.0125 J0.
N2920 X2.8258 Y-1.0592 I0. J7.8454
N2925 G2 X2.9435 Y-1.0583 I0.1176 J-7.8445
N2930 X3.0096 Y-1.0672 I0. J-0.2502
N2935 X3.0717 Y-1.0917 I-0.0819 J-0.2988
N2940 G3 X3.0826 Y-1.0851 I0.0035 J0.0066
N2945 G1 Y1.0853
N2950 G3 X3.0717 Y1.0919 I-0.0074 J0.
N2955 G2 X3.0096 Y1.0674 I-0.144 J0.2743
N2960 X2.9435 Y1.0585 I-0.0661 J0.2413
N2965 X2.8258 Y1.0594 I0. J7.8454
N2970 G3 X2.7082 Y1.0603 I-0.1176 J-7.8445
N2975 X2.6957 Y1.0478 I0. J-0.0125
N2980 G1 Y0.6323
N2985 G2 X2.6565 Y0.5736 I-0.0637 J0.
N2990 G3 X2.6173 Y0.5148 I0.0245 J-0.0588
N2995 G1 Y-1.1385
N3000 X2.9435
N3005 G2 X3.141 Y-1.336 I0. J-0.1975
N3010 G1 Y-2.0235
N3015 G2 X2.9435 Y-2.221 I-0.1975 J0.
N3020 G1 X0.9024
N3025 X0.0431
N3030 X-2.9433
N3035 G2 X-3.1408 Y-2.0235 I0. J0.1975
N3040 G1 Y-1.336
N3045 G2 X-2.9433 Y-1.1385 I0.1975 J0.
N3050 G1 X-2.6117
N3055 Y1.1387
N3060 X-2.9433
N3065 G2 X-3.1408 Y1.3362 I0. J0.1975
N3070 G1 Y2.0237
N3075 G2 X-2.9433 Y2.2212 I0.1975 J0.
N3080 G1 X-0.9076
N3085 X2.9435
N3090 G2 X3.141 Y2.0237 I0. J-0.1975
N3095 G1 Y1.3362
N3100 G2 X2.9435 Y1.1387 I-0.1975 J0.
N3105 G1 X2.6173
N3110 Y0.5148
N3115 X2.6176 Y0.5115
N3120 X2.6184 Y0.5083
N3125 X3.1246 Y-0.8731
N3130 G3 X3.161 Y-0.8667 I0.0176 J0.0065
N3135 G1 Y2.661
N3140 X-3.161
N3145 Y-2.661
N3150 X3.161
N3155 Y-0.8667
N3160 Y-0.8661
N3165 X3.1098 Y0.7339
N3170 G2 X3.1146 Y0.7471 I0.0187 J0.0006
N3175 G3 X3.1037 Y0.736 Z-0.2385 I-0.1319 J0.1197 F10.
N3180 X3.0918 Y0.726 Z-0.2771 I-0.121 J0.1308
N3185 X3.0792 Y0.717 Z-0.3156 I-0.1091 J0.1408
N3190 X3.0657 Y0.7092 Z-0.3542 I-0.0964 J0.1498
N3195 X3.0517 Y0.7026 Z-0.3927 I-0.083 J0.1576
N3200 X3.1609 Y0.8668 Z-0.4 I-0.0689 J0.1642
N3205 X2.852 I-0.1544 J0.
N3210 G1 Y-0.891 F30.
N3215 G3 X2.8647 Y-0.9038 I0.0128 J0.
N3220 G1 X2.9135
N3225 G3 X2.9263 Y-0.891 I0. J0.0128
N3230 G1 Y0.8912
N3235 G3 X2.9135 Y0.904 I-0.0128 J0.
N3240 G1 X2.8647
N3245 G3 X2.852 Y0.8912 I0. J-0.0128
N3250 G1 Y0.8668
N3255 G2 X2.8129 Y0.8082 I-0.0635 J0.
N3260 G3 X2.7738 Y0.7496 I0.0244 J-0.0586
N3265 G1 Y-0.9691
N3270 G3 X2.7866 Y-0.9819 I0.0128 J0.
N3275 X2.8895 Y-0.9801 I0. J2.8369
N3280 G2 X2.9922 Y-0.9853 I0.0214 J-0.5901
N3285 G3 X3.0044 Y-0.9747 I0.0015 J0.0106
N3290 G1 Y0.9749
N3295 G3 X2.9922 Y0.9855 I-0.0107 J0.
N3300 G2 X2.8895 Y0.9802 I-0.0813 J0.5849
N3305 G3 X2.7866 Y0.9821 I-0.1029 J-2.835
N3310 X2.7738 Y0.9693 I0. J-0.0128
N3315 G1 Y0.7496
N3320 G2 X2.7347 Y0.691 I-0.0635 J0.
N3325 G3 X2.6957 Y0.6323 I0.0244 J-0.0586
N3330 G1 Y-1.0476
N3335 G3 X2.7082 Y-1.0601 I0.0125 J0.
N3340 X2.8258 Y-1.0592 I0. J7.8454
N3345 G2 X2.9435 Y-1.0583 I0.1176 J-7.8445
N3350 X3.0096 Y-1.0672 I0. J-0.2502
N3355 X3.0717 Y-1.0917 I-0.0819 J-0.2988
N3360 G3 X3.0826 Y-1.0851 I0.0035 J0.0066
N3365 G1 Y1.0853
N3370 G3 X3.0717 Y1.0919 I-0.0074 J0.
N3375 G2 X3.0096 Y1.0674 I-0.144 J0.2743
N3380 X2.9435 Y1.0585 I-0.0661 J0.2413
N3385 X2.8258 Y1.0594 I0. J7.8454
N3390 G3 X2.7082 Y1.0603 I-0.1176 J-7.8445
N3395 X2.6957 Y1.0478 I0. J-0.0125
N3400 G1 Y0.6323
N3405 X2.6958 Y0.6287 Z-0.3998 F35.
N3410 X2.6964 Y0.6251 Z-0.3993
N3415 X2.6972 Y0.6216 Z-0.3984
N3420 X2.6984 Y0.6183 Z-0.3971
N3425 X2.6998 Y0.6153 Z-0.3956
N3430 X2.7013 Y0.6126 Z-0.3937
N3435 X2.703 Y0.6101 Z-0.3915
N3440 X2.7047 Y0.608 Z-0.389
N3445 X2.7063 Y0.6062 Z-0.3863
N3450 X2.7079 Y0.6046 Z-0.3833
N3455 X2.7093 Y0.6034 Z-0.3802
N3460 X2.7106 Y0.6024 Z-0.3769
N3465 X2.7116 Y0.6017 Z-0.3734
N3470 X2.7123 Y0.6012 Z-0.3698
N3475 X2.7128 Y0.6009 Z-0.3662
N3480 X2.7129 Y0.6008 Z-0.3625
N3485 G0 Z0.325
N3490 G1 X0.7035 Y2.4363 F650.
N3495 G0 Z0.2394
N3500 G1 Z-0.0625 F35.
N3505 X0.7036 Y2.4361 Z-0.0664 F10.
N3510 X0.7037 Y2.4355 Z-0.0701
N3515 X0.704 Y2.4346 Z-0.0739
N3520 X0.7044 Y2.4333 Z-0.0775
N3525 X0.7048 Y2.4316 Z-0.0809
N3530 X0.7054 Y2.4297 Z-0.0841
N3535 X0.7062 Y2.4274 Z-0.0872
N3540 X0.707 Y2.4249 Z-0.0899
N3545 X0.708 Y2.4221 Z-0.0924
N3550 X0.7091 Y2.4191 Z-0.0946
N3555 X0.7103 Y2.416 Z-0.0964
N3560 X0.7117 Y2.4127 Z-0.0979
N3565 X0.7131 Y2.4094 Z-0.099
N3570 X0.7147 Y2.4059 Z-0.0997
N3575 X0.7164 Y2.4025 Z-0.1
N3580 G3 X0.71 Y2.4167 Z-0.1385 I0.1592 J0.0799
N3585 X0.7049 Y2.4314 Z-0.1771 I0.1656 J0.0657
N3590 X0.7011 Y2.4464 Z-0.2156 I0.1707 J0.0511
N3595 X0.6987 Y2.4618 Z-0.2542 I0.1745 J0.036
N3600 X0.6975 Y2.4773 Z-0.2927 I0.1769 J0.0206
N3605 X0.6978 Y2.4928 Z-0.3312 I0.1781 J0.0051
N3610 X0.6993 Y2.5083 Z-0.3698 I0.1778 J-0.0104
N3615 X0.8756 Y2.6605 Z-0.4 I0.1762 J-0.0259
N3620 Y2.3792 I0. J-0.1406
N3625 G1 X0.8759 F30.
N3630 X2.9435
N3635 G2 X2.9679 Y2.3776 I0. J-0.1869
N3640 X2.9922 Y2.3743 I-0.4642 J-3.5158
N3645 G3 X3.0044 Y2.385 I0.0015 J0.0106
N3650 G1 Y2.4917
N3655 G3 X2.9917 Y2.5044 I-0.0128 J0.
N3660 G1 X-2.9917
N3665 G3 X-3.0044 Y2.4917 I0. J-0.0128
N3670 G1 Y2.3849
N3675 G3 X-2.9922 Y2.3743 I0.0107 J0.
N3680 G2 X-2.9678 Y2.3776 I0.473 J-3.3872
N3685 X-2.9433 Y2.3792 I0.0246 J-0.1857
N3690 G1 X0.8756
N3695 G2 X0.934 Y2.3403 I0. J-0.0633
N3700 G3 X0.9925 Y2.3013 I0.0584 J0.0244
N3705 G1 X2.9435
N3710 G2 X3.0096 Y2.2924 I0. J-0.2502
N3715 X3.0717 Y2.2679 I-0.0819 J-0.2988
N3720 G3 X3.0826 Y2.2745 I0.0035 J0.0066
N3725 G1 Y2.5701
N3730 G3 X3.0701 Y2.5826 I-0.0125 J0.
N3735 G1 X-3.0701
N3740 G3 X-3.0826 Y2.5701 I0. J-0.0125
N3745 G1 Y2.2744
N3750 G3 X-3.0717 Y2.2678 I0.0074 J0.
N3755 G2 X-3.0095 Y2.2924 I0.1442 J-0.2741
N3760 X-2.9433 Y2.3013 I0.0663 J-0.2413
N3765 G1 X0.9925
N3770 X0.9961 Y2.3015 Z-0.3998 F35.
N3775 X0.9997 Y2.302 Z-0.3993
N3780 X1.0032 Y2.3029 Z-0.3984
N3785 X1.0065 Y2.304 Z-0.3971
N3790 X1.0095 Y2.3054 Z-0.3956
N3795 X1.0122 Y2.3069 Z-0.3937
N3800 X1.0147 Y2.3086 Z-0.3915
N3805 X1.0168 Y2.3103 Z-0.389
N3810 X1.0187 Y2.312 Z-0.3863
N3815 X1.0202 Y2.3135 Z-0.3833
N3820 X1.0214 Y2.315 Z-0.3802
N3825 X1.0224 Y2.3162 Z-0.3769
N3830 X1.0231 Y2.3172 Z-0.3734
N3835 X1.0236 Y2.3179 Z-0.3698
N3840 X1.0239 Y2.3184 Z-0.3662
N3845 X1.024 Y2.3185 Z-0.3625
N3850 G0 Z0.325
N3855 G1 X-2.8361 Y-0.6918 F650.
N3860 G0 Z0.2394
N3865 G1 Z-0.0625 F35.
N3870 X-2.8363 Z-0.0664 F10.
N3875 X-2.8369 Y-0.692 Z-0.0701
N3880 X-2.8378 Y-0.6922 Z-0.0739
N3885 X-2.8391 Y-0.6926 Z-0.0775
N3890 X-2.8408 Y-0.6931 Z-0.0809
N3895 X-2.8427 Y-0.6937 Z-0.0841
N3900 X-2.845 Y-0.6944 Z-0.0872
N3905 X-2.8475 Y-0.6952 Z-0.0899
N3910 X-2.8503 Y-0.6962 Z-0.0924
N3915 X-2.8533 Y-0.6973 Z-0.0946
N3920 X-2.8564 Y-0.6985 Z-0.0964
N3925 X-2.8597 Y-0.6999 Z-0.0979
N3930 X-2.863 Y-0.7014 Z-0.099
N3935 X-2.8665 Y-0.703 Z-0.0997
N3940 X-2.8699 Y-0.7046 Z-0.1
N3945 G3 X-2.8557 Y-0.6983 Z-0.1385 I0.0799 J-0.1592
N3950 X-2.841 Y-0.6932 Z-0.1771 I0.0657 J-0.1656
N3955 X-2.826 Y-0.6894 Z-0.2156 I0.0511 J-0.1707
N3960 X-2.8106 Y-0.6869 Z-0.2542 I0.036 J-0.1745
N3965 X-2.7951 Y-0.6858 Z-0.2927 I0.0206 J-0.1769
N3970 X-2.7796 Y-0.686 Z-0.3312 I0.0051 J-0.1781
N3975 X-2.7641 Y-0.6876 Z-0.3698 I-0.0104 J-0.1778
N3980 X-2.6119 Y-0.8638 Z-0.4 I-0.0259 J-0.1762
N3985 X-2.9263 I-0.1572 J0.
N3990 G1 Y-0.891 F30.
N3995 G3 X-2.9135 Y-0.9038 I0.0128 J0.
N4000 G1 X-2.8592
N4005 G3 X-2.8464 Y-0.891 I0. J0.0128
N4010 G1 Y0.8912
N4015 G3 X-2.8592 Y0.904 I-0.0128 J0.
N4020 G1 X-2.9135
N4025 G3 X-2.9263 Y0.8912 I0. J-0.0128
N4030 G1 Y-0.8638
N4035 G2 X-2.9613 Y-0.918 I-0.0594 J0.
N4040 G3 X-2.9458 Y-0.9807 I0.0135 J-0.0299
N4045 G2 X-2.8867 Y-0.98 I0.0368 J-0.6004
N4050 G3 X-2.781 Y-0.9819 I0.1057 J2.8422
N4055 X-2.7683 Y-0.9691 I0. J0.0128
N4060 G1 Y0.9693
N4065 G3 X-2.781 Y0.9821 I-0.0128 J0.
N4070 X-2.8867 Y0.9802 I0. J-2.8442
N4075 G2 X-2.9922 Y0.9855 I-0.0223 J0.6011
N4080 G3 X-3.0044 Y0.9749 I-0.0015 J-0.0106
N4085 G1 Y-0.9747
N4090 G3 X-2.9922 Y-0.9853 I0.0107 J0.
N4095 G2 X-2.9458 Y-0.9807 I0.0832 J-0.5957
N4100 X-2.8844 Y-1.0188 I0.0038 J-0.0624
N4105 G3 X-2.8244 Y-1.0592 I0.0609 J0.0257
N4110 G1 X-2.8229
N4115 G3 X-2.7026 Y-1.0601 I0.1203 J8.2067
N4120 X-2.6901 Y-1.0476 I0. J0.0125
N4125 G1 Y1.0478
N4130 G3 X-2.7026 Y1.0603 I-0.0125 J0.
N4135 X-2.8229 Y1.0594 I0. J-8.2076
N4140 G2 X-2.9433 Y1.0585 I-0.1203 J8.2067
N4145 X-3.0095 Y1.0674 I0. J0.2503
N4150 X-3.0717 Y1.092 I0.082 J0.2986
N4155 G3 X-3.0826 Y1.0854 I-0.0035 J-0.0066
N4160 G1 Y-1.0852
N4165 G3 X-3.0717 Y-1.0918 I0.0074 J0.
N4170 G2 X-3.0095 Y-1.0672 I0.1442 J-0.2741
N4175 X-2.9433 Y-1.0583 I0.0663 J-0.2413
N4180 X-2.8244 Y-1.0592 I0. J-8.2076
N4185 G1 X-2.8207 Y-1.059 Z-0.3998 F35.
N4190 X-2.8171 Y-1.0585 Z-0.3993
N4195 X-2.8137 Y-1.0576 Z-0.3984
N4200 X-2.8104 Y-1.0565 Z-0.3971
N4205 X-2.8074 Y-1.0551 Z-0.3956
N4210 X-2.8046 Y-1.0535 Z-0.3937
N4215 X-2.8022 Y-1.0519 Z-0.3915
N4220 X-2.8 Y-1.0502 Z-0.389
N4225 X-2.7982 Y-1.0485 Z-0.3863
N4230 X-2.7967 Y-1.0469 Z-0.3833
N4235 X-2.7954 Y-1.0455 Z-0.3802
N4240 X-2.7945 Y-1.0443 Z-0.3769
N4245 X-2.7937 Y-1.0433 Z-0.3734
N4250 X-2.7932 Y-1.0425 Z-0.3698
N4255 X-2.7929 Y-1.0421 Z-0.3662
N4260 X-2.7928 Y-1.0419 Z-0.3625
N4265 G0 Z0.325
N4270 G1 X-1.0605 Y-2.4367 F650.
N4275 G0 Z0.2394
N4280 G1 Z-0.0625 F35.
N4285 X-1.0606 Y-2.4365 Z-0.0664 F10.
N4290 X-1.0607 Y-2.436 Z-0.0701
N4295 X-1.061 Y-2.435 Z-0.0739
N4300 X-1.0614 Y-2.4337 Z-0.0775
N4305 X-1.0618 Y-2.4321 Z-0.0809
N4310 X-1.0624 Y-2.4301 Z-0.0841
N4315 X-1.0631 Y-2.4279 Z-0.0872
N4320 X-1.064 Y-2.4253 Z-0.0899
N4325 X-1.065 Y-2.4226 Z-0.0924
N4330 X-1.0661 Y-2.4196 Z-0.0946
N4335 X-1.0673 Y-2.4164 Z-0.0964
N4340 X-1.0686 Y-2.4132 Z-0.0979
N4345 X-1.0701 Y-2.4098 Z-0.099
N4350 X-1.0717 Y-2.4064 Z-0.0997
N4355 X-1.0734 Y-2.4029 Z-0.1
N4360 G3 X-1.067 Y-2.4171 Z-0.1385 I-0.1592 J-0.0799
N4365 X-1.0619 Y-2.4318 Z-0.1771 I-0.1656 J-0.0657
N4370 X-1.0581 Y-2.4469 Z-0.2156 I-0.1707 J-0.051
N4375 X-1.0556 Y-2.4622 Z-0.2542 I-0.1745 J-0.036
N4380 X-1.0545 Y-2.4777 Z-0.2927 I-0.1769 J-0.0206
N4385 X-1.0548 Y-2.4932 Z-0.3312 I-0.1781 J-0.0051
N4390 X-1.0563 Y-2.5087 Z-0.3698 I-0.1778 J0.0104
N4395 X-1.2326 Y-2.6609 Z-0.4 I-0.1762 J0.0259
N4400 Y-2.3793 I0. J0.1408
N4405 G1 X-1.2328 F30.
N4410 X-2.9433 Y-2.379
N4415 G2 X-2.9678 Y-2.3774 I0. J0.1873
N4420 X-2.9922 Y-2.3741 I0.4486 J3.3905
N4425 G3 X-3.0044 Y-2.3847 I-0.0015 J-0.0106
N4430 G1 Y-2.4917
N4435 G3 X-2.9917 Y-2.5044 I0.0128 J0.
N4440 G1 X0.9024 Y-2.5026
N4445 X2.9917 Y-2.5044
N4450 G3 X3.0044 Y-2.4917 I0. J0.0128
N4455 G1 Y-2.3848
N4460 G3 X2.9922 Y-2.3741 I-0.0107 J0.
N4465 G2 X2.9679 Y-2.3774 I-0.4885 J3.5125
N4470 X2.9435 Y-2.379 I-0.0245 J0.1853
N4475 G1 X-1.2326 Y-2.3793
N4480 G2 X-1.2912 Y-2.3402 I0. J0.0635
N4485 G3 X-1.3499 Y-2.3011 I-0.0586 J-0.0244
N4490 G1 X-2.9433
N4495 G2 X-3.0095 Y-2.2922 I0. J0.2503
N4500 X-3.0717 Y-2.2676 I0.082 J0.2986
N4505 G3 X-3.0826 Y-2.2742 I-0.0035 J-0.0066
N4510 G1 Y-2.5701
N4515 G3 X-3.0701 Y-2.5826 I0.0125 J0.
N4520 G1 X0.9024 Y-2.5808
N4525 X3.0701 Y-2.5826
N4530 G3 X3.0826 Y-2.5701 I0. J0.0125
N4535 G1 Y-2.2743
N4540 G3 X3.0717 Y-2.2677 I-0.0074 J0.
N4545 G2 X3.0096 Y-2.2922 I-0.144 J0.2743
N4550 X2.9435 Y-2.3011 I-0.0661 J0.2413
N4555 G1 X-1.2326
N4560 X-1.3499
N4565 G2 X-1.41 Y-2.261 I0. J0.0651
N4570 G3 X-1.4701 Y-2.221 I-0.0601 J-0.025
N4575 G1 X-2.9433
N4580 G2 X-3.1408 Y-2.0235 I0. J0.1975
N4585 G1 Y-1.336
N4590 G2 X-2.9433 Y-1.1385 I0.1975 J0.
N4595 G1 X-2.6117
N4600 Y1.1387
N4605 X-2.9433
N4610 G2 X-3.1408 Y1.3362 I0. J0.1975
N4615 G1 Y2.0237
N4620 G2 X-2.9433 Y2.2212 I0.1975 J0.
N4625 G1 X-0.9076
N4630 X2.9435
N4635 G2 X3.141 Y2.0237 I0. J-0.1975
N4640 G1 Y1.3362
N4645 G2 X2.9435 Y1.1387 I-0.1975 J0.
N4650 G1 X2.6173
N4655 Y-1.1385
N4660 X2.9435
N4665 G2 X3.141 Y-1.336 I0. J-0.1975
N4670 G1 Y-2.0235
N4675 G2 X2.9435 Y-2.221 I-0.1975 J0.
N4680 G1 X0.9024
N4685 X0.0431
N4690 X-1.2326
N4695 X-1.4701
N4700 G3 X-1.4862 Y-2.2492 I0. J-0.0187
N4705 G1 X-1.249 Y-2.6517
N4710 G3 X-1.2328 Y-2.661 I0.0162 J0.0095
N4715 G1 X3.161
N4720 Y2.661
N4725 X-3.161
N4730 Y-2.661
N4735 X-1.2328
N4740 G3 X-1.2261 Y-2.6247 I0. J0.0187
N4745 G1 X-1.3329 Y-2.5833
N4750 G3 X-1.3523 Y-2.6147 I-0.0068 J-0.0175
N4755 X-1.3634 Y-2.6038 Z-0.4385 I0.1197 J0.1319 F10.
N4760 X-1.3734 Y-2.5919 Z-0.4771 I0.1308 J0.1209
N4765 X-1.3824 Y-2.5792 Z-0.5156 I0.1408 J0.1091
N4770 X-1.3902 Y-2.5658 Z-0.5542 I0.1498 J0.0964
N4775 X-1.3968 Y-2.5517 Z-0.5927 I0.1576 J0.083
N4780 X-1.2326 Y-2.6609 Z-0.6 I0.1643 J0.0689
N4785 Y-2.3793 I0. J0.1408
N4790 G1 X-2.9433 Y-2.379 F30.
N4795 G2 X-2.9678 Y-2.3774 I0. J0.1873
N4800 X-2.9922 Y-2.3741 I0.4486 J3.3905
N4805 G3 X-3.0044 Y-2.3847 I-0.0015 J-0.0106
N4810 G1 Y-2.4917
N4815 G3 X-2.9917 Y-2.5044 I0.0128 J0.
N4820 G1 X0.9024 Y-2.5026
N4825 X2.9917 Y-2.5044
N4830 G3 X3.0044 Y-2.4917 I0. J0.0128
N4835 G1 Y-2.3848
N4840 G3 X2.9922 Y-2.3741 I-0.0107 J0.
N4845 G2 X2.9679 Y-2.3774 I-0.4885 J3.5125
N4850 X2.9435 Y-2.379 I-0.0245 J0.1853
N4855 G1 X-1.2326 Y-2.3793
N4860 G2 X-1.2912 Y-2.3402 I0. J0.0635
N4865 G3 X-1.3499 Y-2.3011 I-0.0586 J-0.0244
N4870 G1 X-2.9433
N4875 G2 X-3.0095 Y-2.2922 I0. J0.2503
N4880 X-3.0717 Y-2.2676 I0.082 J0.2986
N4885 G3 X-3.0826 Y-2.2742 I-0.0035 J-0.0066
N4890 G1 Y-2.5701
N4895 G3 X-3.0701 Y-2.5826 I0.0125 J0.
N4900 G1 X0.9024 Y-2.5808
N4905 X3.0701 Y-2.5826
N4910 G3 X3.0826 Y-2.5701 I0. J0.0125
N4915 G1 Y-2.2743
N4920 G3 X3.0717 Y-2.2677 I-0.0074 J0.
N4925 G2 X3.0096 Y-2.2922 I-0.144 J0.2743
N4930 X2.9435 Y-2.3011 I-0.0661 J0.2413
N4935 G1 X-1.2326
N4940 X-1.3499
N4945 X-1.3535 Y-2.3013 Z-0.5998 F35.
N4950 X-1.3571 Y-2.3018 Z-0.5993
N4955 X-1.3606 Y-2.3027 Z-0.5984
N4960 X-1.3639 Y-2.3038 Z-0.5971
N4965 X-1.3669 Y-2.3052 Z-0.5956
N4970 X-1.3696 Y-2.3068 Z-0.5937
N4975 X-1.3721 Y-2.3084 Z-0.5915
N4980 X-1.3742 Y-2.3101 Z-0.589
N4985 X-1.376 Y-2.3118 Z-0.5863
N4990 X-1.3776 Y-2.3133 Z-0.5833
N4995 X-1.3788 Y-2.3148 Z-0.5802
N5000 X-1.3798 Y-2.316 Z-0.5769
N5005 X-1.3805 Y-2.317 Z-0.5734
N5010 X-1.381 Y-2.3177 Z-0.5698
N5015 X-1.3813 Y-2.3182 Z-0.5662
N5020 X-1.3814 Y-2.3184 Z-0.5625
N5025 G0 Z0.325
N5030 G1 X-2.8361 Y-0.6918 F650.
N5035 G0 Z0.2394
N5040 G1 Z-0.2625 F35.
N5045 X-2.8363 Z-0.2664 F10.
N5050 X-2.8369 Y-0.692 Z-0.2701
N5055 X-2.8378 Y-0.6922 Z-0.2739
N5060 X-2.8391 Y-0.6926 Z-0.2775
N5065 X-2.8408 Y-0.6931 Z-0.2809
N5070 X-2.8427 Y-0.6937 Z-0.2841
N5075 X-2.845 Y-0.6944 Z-0.2872
N5080 X-2.8475 Y-0.6952 Z-0.2899
N5085 X-2.8503 Y-0.6962 Z-0.2924
N5090 X-2.8533 Y-0.6973 Z-0.2946
N5095 X-2.8564 Y-0.6985 Z-0.2964
N5100 X-2.8597 Y-0.6999 Z-0.2979
N5105 X-2.863 Y-0.7014 Z-0.299
N5110 X-2.8665 Y-0.703 Z-0.2997
N5115 X-2.8699 Y-0.7046 Z-0.3
N5120 G3 X-2.8557 Y-0.6983 Z-0.3385 I0.0799 J-0.1592
N5125 X-2.841 Y-0.6932 Z-0.3771 I0.0657 J-0.1656
N5130 X-2.826 Y-0.6894 Z-0.4156 I0.0511 J-0.1707
N5135 X-2.8106 Y-0.6869 Z-0.4542 I0.036 J-0.1745
N5140 X-2.7951 Y-0.6858 Z-0.4927 I0.0206 J-0.1769
N5145 X-2.7796 Y-0.686 Z-0.5312 I0.0051 J-0.1781
N5150 X-2.7641 Y-0.6876 Z-0.5698 I-0.0104 J-0.1778
N5155 X-2.6119 Y-0.8638 Z-0.6 I-0.0259 J-0.1762
N5160 X-2.9263 I-0.1572 J0.
N5165 G1 Y-0.891 F30.
N5170 G3 X-2.9135 Y-0.9038 I0.0128 J0.
N5175 G1 X-2.8592
N5180 G3 X-2.8464 Y-0.891 I0. J0.0128
N5185 G1 Y0.8912
N5190 G3 X-2.8592 Y0.904 I-0.0128 J0.
N5195 G1 X-2.9135
N5200 G3 X-2.9263 Y0.8912 I0. J-0.0128
N5205 G1 Y-0.8638
N5210 G2 X-2.9613 Y-0.918 I-0.0594 J0.
N5215 G3 X-2.9458 Y-0.9807 I0.0135 J-0.0299
N5220 G2 X-2.8867 Y-0.98 I0.0368 J-0.6004
N5225 G3 X-2.781 Y-0.9819 I0.1057 J2.8422
N5230 X-2.7683 Y-0.9691 I0. J0.0128
N5235 G1 Y0.9693
N5240 G3 X-2.781 Y0.9821 I-0.0128 J0.
N5245 X-2.8867 Y0.9802 I0. J-2.8442
N5250 G2 X-2.9922 Y0.9855 I-0.0223 J0.6011
N5255 G3 X-3.0044 Y0.9749 I-0.0015 J-0.0106
N5260 G1 Y-0.9747
N5265 G3 X-2.9922 Y-0.9853 I0.0107 J0.
N5270 G2 X-2.9458 Y-0.9807 I0.0832 J-0.5957
N5275 X-2.8844 Y-1.0188 I0.0038 J-0.0624
N5280 G3 X-2.8244 Y-1.0592 I0.0609 J0.0257
N5285 G1 X-2.8229
N5290 G3 X-2.7026 Y-1.0601 I0.1203 J8.2067
N5295 X-2.6901 Y-1.0476 I0. J0.0125
N5300 G1 Y1.0478
N5305 G3 X-2.7026 Y1.0603 I-0.0125 J0.
N5310 X-2.8229 Y1.0594 I0. J-8.2076
N5315 G2 X-2.9433 Y1.0585 I-0.1203 J8.2067
N5320 X-3.0095 Y1.0674 I0. J0.2503
N5325 X-3.0717 Y1.092 I0.082 J0.2986
N5330 G3 X-3.0826 Y1.0854 I-0.0035 J-0.0066
N5335 G1 Y-1.0852
N5340 G3 X-3.0717 Y-1.0918 I0.0074 J0.
N5345 G2 X-3.0095 Y-1.0672 I0.1442 J-0.2741
N5350 X-2.9433 Y-1.0583 I0.0663 J-0.2413
N5355 X-2.8244 Y-1.0592 I0. J-8.2076
N5360 G1 X-2.8207 Y-1.059 Z-0.5998 F35.
N5365 X-2.8171 Y-1.0585 Z-0.5993
N5370 X-2.8137 Y-1.0576 Z-0.5984
N5375 X-2.8104 Y-1.0565 Z-0.5971
N5380 X-2.8074 Y-1.0551 Z-0.5956
N5385 X-2.8046 Y-1.0535 Z-0.5937
N5390 X-2.8022 Y-1.0519 Z-0.5915
N5395 X-2.8 Y-1.0502 Z-0.589
N5400 X-2.7982 Y-1.0485 Z-0.5863
N5405 X-2.7967 Y-1.0469 Z-0.5833
N5410 X-2.7954 Y-1.0455 Z-0.5802
N5415 X-2.7945 Y-1.0443 Z-0.5769
N5420 X-2.7937 Y-1.0433 Z-0.5734
N5425 X-2.7932 Y-1.0425 Z-0.5698
N5430 X-2.7929 Y-1.0421 Z-0.5662
N5435 X-2.7928 Y-1.0419 Z-0.5625
N5440 G0 Z0.325
N5445 G1 X-1.0797 Y2.4363 F650.
N5450 G0 Z0.2394
N5455 G1 Z-0.2625 F35.
N5460 X-1.0796 Y2.4361 Z-0.2664 F10.
N5465 X-1.0795 Y2.4355 Z-0.2701
N5470 X-1.0792 Y2.4346 Z-0.2739
N5475 X-1.0788 Y2.4333 Z-0.2775
N5480 X-1.0784 Y2.4316 Z-0.2809
N5485 X-1.0778 Y2.4297 Z-0.2841
N5490 X-1.077 Y2.4274 Z-0.2872
N5495 X-1.0762 Y2.4249 Z-0.2899
N5500 X-1.0752 Y2.4221 Z-0.2924
N5505 X-1.0741 Y2.4191 Z-0.2946
N5510 X-1.0729 Y2.416 Z-0.2964
N5515 X-1.0715 Y2.4127 Z-0.2979
N5520 X-1.0701 Y2.4094 Z-0.299
N5525 X-1.0685 Y2.4059 Z-0.2997
N5530 X-1.0668 Y2.4025 Z-0.3
N5535 G3 X-1.0732 Y2.4167 Z-0.3385 I0.1592 J0.0799
N5540 X-1.0783 Y2.4314 Z-0.3771 I0.1656 J0.0657
N5545 X-1.0821 Y2.4464 Z-0.4156 I0.1707 J0.0511
N5550 X-1.0845 Y2.4618 Z-0.4542 I0.1745 J0.036
N5555 X-1.0857 Y2.4773 Z-0.4927 I0.1769 J0.0206
N5560 X-1.0854 Y2.4928 Z-0.5312 I0.1781 J0.0051
N5565 X-1.0839 Y2.5083 Z-0.5698 I0.1778 J-0.0104
N5570 X-0.9076 Y2.6605 Z-0.6 I0.1762 J-0.0259
N5575 Y2.3792 I0. J-0.1406
N5580 G1 X2.9435 F30.
N5585 G2 X2.9679 Y2.3776 I0. J-0.1869
N5590 X2.9922 Y2.3743 I-0.4642 J-3.5158
N5595 G3 X3.0044 Y2.385 I0.0015 J0.0106
N5600 G1 Y2.4917
N5605 G3 X2.9917 Y2.5044 I-0.0128 J0.
N5610 G1 X-2.9917
N5615 G3 X-3.0044 Y2.4917 I0. J-0.0128
N5620 G1 Y2.3849
N5625 G3 X-2.9922 Y2.3743 I0.0107 J0.
N5630 G2 X-2.9678 Y2.3776 I0.473 J-3.3872
N5635 X-2.9433 Y2.3792 I0.0246 J-0.1857
N5640 G1 X-0.9076
N5645 G2 X-0.8492 Y2.3403 I0. J-0.0633
N5650 G3 X-0.7907 Y2.3013 I0.0584 J0.0244
N5655 G1 X2.9435
N5660 G2 X3.0096 Y2.2924 I0. J-0.2502
N5665 X3.0717 Y2.2679 I-0.0819 J-0.2988
N5670 G3 X3.0826 Y2.2745 I0.0035 J0.0066
N5675 G1 Y2.5701
N5680 G3 X3.0701 Y2.5826 I-0.0125 J0.
N5685 G1 X-3.0701
N5690 G3 X-3.0826 Y2.5701 I0. J-0.0125
N5695 G1 Y2.2744
N5700 G3 X-3.0717 Y2.2678 I0.0074 J0.
N5705 G2 X-3.0095 Y2.2924 I0.1442 J-0.2741
N5710 X-2.9433 Y2.3013 I0.0663 J-0.2413
N5715 G1 X-0.7907
N5720 X-0.7871 Y2.3015 Z-0.5998 F35.
N5725 X-0.7835 Y2.302 Z-0.5993
N5730 X-0.78 Y2.3029 Z-0.5984
N5735 X-0.7767 Y2.304 Z-0.5971
N5740 X-0.7737 Y2.3054 Z-0.5956
N5745 X-0.771 Y2.3069 Z-0.5937
N5750 X-0.7685 Y2.3086 Z-0.5915
N5755 X-0.7664 Y2.3103 Z-0.589
N5760 X-0.7645 Y2.312 Z-0.5863
N5765 X-0.763 Y2.3135 Z-0.5833
N5770 X-0.7618 Y2.315 Z-0.5802
N5775 X-0.7608 Y2.3162 Z-0.5769
N5780 X-0.7601 Y2.3172 Z-0.5734
N5785 X-0.7596 Y2.3179 Z-0.5698
N5790 X-0.7593 Y2.3184 Z-0.5662
N5795 X-0.7592 Y2.3185 Z-0.5625
N5800 G0 Z0.325
N5805 G1 X2.9366 Y1.0389 F650.
N5810 G0 Z0.2394
N5815 G1 Z-0.2625 F35.
N5820 X2.9364 Y1.0388 Z-0.2664 F10.
N5825 X2.9358 Y1.0386 Z-0.2701
N5830 X2.9349 Y1.0384 Z-0.2739
N5835 X2.9336 Y1.038 Z-0.2775
N5840 X2.932 Y1.0375 Z-0.2809
N5845 X2.93 Y1.0369 Z-0.2841
N5850 X2.9278 Y1.0362 Z-0.2872
N5855 X2.9252 Y1.0354 Z-0.2899
N5860 X2.9225 Y1.0344 Z-0.2924
N5865 X2.9195 Y1.0333 Z-0.2946
N5870 X2.9163 Y1.0321 Z-0.2964
N5875 X2.9131 Y1.0307 Z-0.2979
N5880 X2.9097 Y1.0293 Z-0.299
N5885 X2.9063 Y1.0277 Z-0.2997
N5890 X2.9028 Y1.026 Z-0.3
N5895 G3 X2.917 Y1.0324 Z-0.3385 I0.0799 J-0.1592
N5900 X2.9317 Y1.0375 Z-0.3771 I0.0657 J-0.1656
N5905 X2.9468 Y1.0413 Z-0.4156 I0.0511 J-0.1707
N5910 X2.9621 Y1.0437 Z-0.4542 I0.036 J-0.1745
N5915 X2.9776 Y1.0449 Z-0.4927 I0.0206 J-0.1769
N5920 X2.9931 Y1.0446 Z-0.5312 I0.0051 J-0.1781
N5925 X3.0086 Y1.043 Z-0.5698 I-0.0104 J-0.1778
N5930 X3.1609 Y0.8668 Z-0.6 I-0.0259 J-0.1762
N5935 X2.852 I-0.1544 J0.
N5940 G1 Y-0.891 F30.
N5945 G3 X2.8647 Y-0.9038 I0.0128 J0.
N5950 G1 X2.9135
N5955 G3 X2.9263 Y-0.891 I0. J0.0128
N5960 G1 Y0.8912
N5965 G3 X2.9135 Y0.904 I-0.0128 J0.
N5970 G1 X2.8647
N5975 G3 X2.852 Y0.8912 I0. J-0.0128
N5980 G1 Y0.8668
N5985 G2 X2.8129 Y0.8082 I-0.0635 J0.
N5990 G3 X2.7738 Y0.7496 I0.0244 J-0.0586
N5995 G1 Y-0.9691
N6000 G3 X2.7866 Y-0.9819 I0.0128 J0.
N6005 X2.8895 Y-0.9801 I0. J2.8369
N6010 G2 X2.9922 Y-0.9853 I0.0214 J-0.5901
N6015 G3 X3.0044 Y-0.9747 I0.0015 J0.0106
N6020 G1 Y0.9749
N6025 G3 X2.9922 Y0.9855 I-0.0107 J0.
N6030 G2 X2.8895 Y0.9802 I-0.0813 J0.5849
N6035 G3 X2.7866 Y0.9821 I-0.1029 J-2.835
N6040 X2.7738 Y0.9693 I0. J-0.0128
N6045 G1 Y0.7496
N6050 G2 X2.7347 Y0.691 I-0.0635 J0.
N6055 G3 X2.6957 Y0.6323 I0.0244 J-0.0586
N6060 G1 Y-1.0476
N6065 G3 X2.7082 Y-1.0601 I0.0125 J0.
N6070 X2.8258 Y-1.0592 I0. J7.8454
N6075 G2 X2.9435 Y-1.0583 I0.1176 J-7.8445
N6080 X3.0096 Y-1.0672 I0. J-0.2502
N6085 X3.0717 Y-1.0917 I-0.0819 J-0.2988
N6090 G3 X3.0826 Y-1.0851 I0.0035 J0.0066
N6095 G1 Y1.0853
N6100 G3 X3.0717 Y1.0919 I-0.0074 J0.
N6105 G2 X3.0096 Y1.0674 I-0.144 J0.2743
N6110 X2.9435 Y1.0585 I-0.0661 J0.2413
N6115 X2.8258 Y1.0594 I0. J7.8454
N6120 G3 X2.7082 Y1.0603 I-0.1176 J-7.8445
N6125 X2.6957 Y1.0478 I0. J-0.0125
N6130 G1 Y0.6323
N6135 G2 X2.6565 Y0.5736 I-0.0637 J0.
N6140 G3 X2.6173 Y0.5148 I0.0245 J-0.0588
N6145 G1 Y-1.1385
N6150 X2.9435
N6155 G2 X3.141 Y-1.336 I0. J-0.1975
N6160 G1 Y-2.0235
N6165 G2 X2.9435 Y-2.221 I-0.1975 J0.
N6170 G1 X0.9024
N6175 X0.0431
N6180 X-2.9433
N6185 G2 X-3.1408 Y-2.0235 I0. J0.1975
N6190 G1 Y-1.336
N6195 G2 X-2.9433 Y-1.1385 I0.1975 J0.
N6200 G1 X-2.6117
N6205 Y1.1387
N6210 X-2.9433
N6215 G2 X-3.1408 Y1.3362 I0. J0.1975
N6220 G1 Y2.0237
N6225 G2 X-2.9433 Y2.2212 I0.1975 J0.
N6230 G1 X-0.9076
N6235 X2.9435
N6240 G2 X3.141 Y2.0237 I0. J-0.1975
N6245 G1 Y1.3362
N6250 G2 X2.9435 Y1.1387 I-0.1975 J0.
N6255 G1 X2.6173
N6260 Y0.5148
N6265 X2.6176 Y0.5115
N6270 X2.6184 Y0.5083
N6275 X3.1246 Y-0.8731
N6280 G3 X3.161 Y-0.8667 I0.0176 J0.0065
N6285 G1 Y2.661
N6290 X-3.161
N6295 Y-2.661
N6300 X3.161
N6305 Y-0.8667
N6310 G3 X3.1409 Y-0.848 I-0.0187 J0.
N6315 G1 X2.8337 Y-0.8702
N6320 G3 X2.8165 Y-0.8915 I0.0014 J-0.0187
N6325 X2.815 Y-0.8761 Z-0.6385 I0.1764 J0.0249 F10.
N6330 X2.8148 Y-0.8605 Z-0.6771 I0.1779 J0.0095
N6335 X2.816 Y-0.8451 Z-0.7156 I0.178 J-0.0061
N6340 X2.8186 Y-0.8297 Z-0.7542 I0.1768 J-0.0216
N6345 X3.171 Y-0.8666 Z-0.775 I0.1743 J-0.0369
N6350 G1 Y2.671 F20.
N6355 X-3.171
N6360 Y-2.671
N6365 X3.171
N6370 Y-0.8666
N6375 G3 X3.1343 Y-0.861 I-0.0187 J0. F30.
N6380 G1 X3.0706 Y-1.0655
N6385 G3 X3.0724 Y-1.0807 I0.0179 J-0.0056
N6390 G2 X3.1112 Y-1.1574 I-0.5192 J-0.3104
N6395 X3.1395 Y-1.2386 I-0.658 J-0.2756
N6400 X3.1472 Y-1.287 I-0.1981 J-0.0561
N6405 G3 X3.151 Y-1.336 I0.616 J0.0229
N6410 G2 X3.1649 Y-1.6993 I-2.307 J-0.2707
N6415 G1 X3.16 Y-1.8204
N6420 X3.1547 Y-1.9415
N6425 X3.1491 Y-2.0626
N6430 G2 X3.1276 Y-2.1654 I-0.331 J0.0156
N6435 X3.0832 Y-2.2605 I-0.6839 J0.2615
N6440 X3.0584 Y-2.2681 I-0.0164 J0.0091
N6445 G1 X2.949 Y-2.213
N6450 X2.9463 Y-2.2119
N6455 X2.9435 Y-2.2112
N6460 X2.9406 Y-2.211
N6465 X0.9024 F20.
N6470 X0.0431
N6475 X-2.9433
N6480 G2 X-3.1308 Y-2.0235 I0. J0.1875
N6485 G1 Y-1.336
N6490 G2 X-2.9433 Y-1.1485 I0.1875 J0.
N6495 G1 X-2.6017
N6500 Y1.1487
N6505 X-2.9433
N6510 G2 X-3.1308 Y1.3362 I0. J0.1875
N6515 G1 Y2.0237
N6520 G2 X-2.9433 Y2.2112 I0.1875 J0.
N6525 G1 X-0.9076
N6530 X2.9435
N6535 G2 X3.131 Y2.0237 I0. J-0.1875
N6540 G1 Y1.3362
N6545 G2 X2.9435 Y1.1487 I-0.1875 J0.
N6550 G1 X2.6073
N6555 Y-1.1485
N6560 X2.9435
N6565 G2 X3.131 Y-1.336 I0. J-0.1875
N6570 G1 Y-2.0235
N6575 G2 X2.9435 Y-2.211 I-0.1875 J0.
N6580 G1 X2.9406
N6585 X2.9369 Y-2.2111 Z-0.7748 F35.
N6590 X2.9333 Y-2.2117 Z-0.7743
N6595 X2.9298 Y-2.2125 Z-0.7734
N6600 X2.9266 Y-2.2137 Z-0.7721
N6605 X2.9235 Y-2.2151 Z-0.7706
N6610 X2.9208 Y-2.2166 Z-0.7687
N6615 X2.9184 Y-2.2183 Z-0.7665
N6620 X2.9162 Y-2.22 Z-0.764
N6625 X2.9144 Y-2.2216 Z-0.7613
N6630 X2.9129 Y-2.2232 Z-0.7583
N6635 X2.9116 Y-2.2246 Z-0.7552
N6640 X2.9107 Y-2.2259 Z-0.7519
N6645 X2.9099 Y-2.2269 Z-0.7484
N6650 X2.9094 Y-2.2276 Z-0.7448
N6655 X2.9091 Y-2.228 Z-0.7412
N6660 X2.909 Y-2.2282 Z-0.7375
N6665 G0 Z0.725

(2D Pocket3)
N6670 G1 X-0.0476 Y0.7037 F650.
N6675 G0 Z0.725
N6680 Z0.2394
N6685 G1 Z0.1375 F30.
N6690 X-0.0478 Z0.1336 F10.
N6695 X-0.0484 Z0.1299
N6700 X-0.0494 Z0.1261
N6705 X-0.0507 Z0.1225
N6710 X-0.0524 Z0.1191
N6715 X-0.0545 Y0.7038 Z0.1159
N6720 X-0.0569 Y0.7039 Z0.1128
N6725 X-0.0595 Y0.704 Z0.1101
N6730 X-0.0624 Y0.7041 Z0.1076
N6735 X-0.0656 Y0.7043 Z0.1054
N6740 X-0.069 Y0.7045 Z0.1036
N6745 X-0.0725 Y0.7048 Z0.1021
N6750 X-0.0762 Y0.7051 Z0.101
N6755 X-0.0799 Y0.7054 Z0.1003
N6760 X-0.0837 Y0.7058 Z0.1
N6765 G2 X-0.1324 Y0.7144 Z0.0983 I0.0401 J0.3703
N6770 G3 X-0.1544 Y0.7059 Z0.0974 I-0.0049 J-0.02
N6775 G1 X-0.1802 Y0.6676 Z0.0958
N6780 G3 X-0.1824 Y0.6488 Z0.0951 I0.0171 J-0.0115
N6785 G1 X-0.0952 Y0.4158 Z0.0864
N6790 G3 X-0.06 Y0.3913 Z0.0848 I0.0353 J0.0132
N6795 G1 X0.0201 Y0.3911 Z0.082
N6800 G3 X0.0554 Y0.4154 Z0.0804 I0.0001 J0.0376
N6805 G1 X0.1435 Y0.6481 Z0.0717
N6810 G3 X0.1403 Y0.6717 Z0.0709 I-0.0233 J0.0088
N6815 G1 X0.108 Y0.7158 Z0.069
N6820 G3 X0.0796 Y0.7246 Z0.0679 I-0.0201 J-0.0147
N6825 G2 X-0.0437 Y0.7036 Z0.0635 I-0.1233 J0.3515
N6830 X-0.1324 Y0.7144 Z0.0603 I0. J0.3725
N6835 G3 X-0.1544 Y0.7059 Z0.0595 I-0.0049 J-0.02
N6840 G1 X-0.1802 Y0.6676 Z0.0578
N6845 G3 X-0.1824 Y0.6488 Z0.0572 I0.0171 J-0.0115
N6850 G1 X-0.0952 Y0.4158 Z0.0485
N6855 G3 X-0.06 Y0.3913 Z0.0469 I0.0353 J0.0132
N6860 G1 X0.0201 Y0.3911 Z0.0441
N6865 G3 X0.0554 Y0.4154 Z0.0425 I0.0001 J0.0376
N6870 G1 X0.1435 Y0.6481 Z0.0338
N6875 G3 X0.1403 Y0.6717 Z0.0329 I-0.0233 J0.0088
N6880 G1 X0.108 Y0.7158 Z0.031
N6885 G3 X0.0796 Y0.7246 Z0.0299 I-0.0201 J-0.0147
N6890 G2 X-0.0437 Y0.7036 Z0.0255 I-0.1233 J0.3515
N6895 X-0.1324 Y0.7144 Z0.0224 I0. J0.3725
N6900 G3 X-0.1544 Y0.7059 Z0.0215 I-0.0049 J-0.02
N6905 G1 X-0.1802 Y0.6676 Z0.0199
N6910 G3 X-0.1824 Y0.6488 Z0.0192 I0.0171 J-0.0115
N6915 G1 X-0.0952 Y0.4158 Z0.0105
N6920 G3 X-0.06 Y0.3913 Z0.009 I0.0353 J0.0132
N6925 G1 X0.0201 Y0.3911 Z0.0062
N6930 G3 X0.0554 Y0.4154 Z0.0046 I0.0001 J0.0376
N6935 G1 X0.1435 Y0.6481 Z-0.0041
N6940 G3 X0.1403 Y0.6717 Z-0.005 I-0.0233 J0.0088
N6945 G1 X0.108 Y0.7158 Z-0.0069
N6950 G3 X0.0796 Y0.7246 Z-0.008 I-0.0201 J-0.0147
N6955 G2 X-0.0437 Y0.7036 Z-0.0124 I-0.1233 J0.3515
N6960 X-0.1324 Y0.7144 Z-0.0155 I0. J0.3725
N6965 G3 X-0.1544 Y0.7059 Z-0.0164 I-0.0049 J-0.02
N6970 G1 X-0.1802 Y0.6676 Z-0.018
N6975 G3 X-0.1824 Y0.6488 Z-0.0187 I0.0171 J-0.0115
N6980 G1 X-0.0952 Y0.4158 Z-0.0274
N6985 G3 X-0.06 Y0.3913 Z-0.029 I0.0353 J0.0132
N6990 G1 X0.0201 Y0.3911 Z-0.0318
N6995 G3 X0.0554 Y0.4154 Z-0.0334 I0.0001 J0.0376
N7000 G1 X0.1435 Y0.6481 Z-0.0421
N7005 G3 X0.1403 Y0.6717 Z-0.0429 I-0.0233 J0.0088
N7010 G1 X0.108 Y0.7158 Z-0.0448
N7015 G3 X0.0796 Y0.7246 Z-0.0459 I-0.0201 J-0.0147
N7020 G2 X-0.0437 Y0.7036 Z-0.0503 I-0.1233 J0.3515
N7025 X-0.1324 Y0.7144 Z-0.0535 I0. J0.3725
N7030 G3 X-0.1544 Y0.7059 Z-0.0543 I-0.0049 J-0.02
N7035 G1 X-0.1802 Y0.6676 Z-0.056
N7040 G3 X-0.1824 Y0.6488 Z-0.0566 I0.0171 J-0.0115
N7045 G1 X-0.0952 Y0.4158 Z-0.0653
N7050 G3 X-0.06 Y0.3913 Z-0.0669 I0.0353 J0.0132
N7055 G1 X0.0201 Y0.3911 Z-0.0697
N7060 G3 X0.0554 Y0.4154 Z-0.0713 I0.0001 J0.0376
N7065 G1 X0.1435 Y0.6481 Z-0.08
N7070 G3 X0.1403 Y0.6717 Z-0.0809 I-0.0233 J0.0088
N7075 G1 X0.108 Y0.7158 Z-0.0828
N7080 G3 X0.0796 Y0.7246 Z-0.0839 I-0.0201 J-0.0147
N7085 G2 X-0.0437 Y0.7036 Z-0.0883 I-0.1233 J0.3515
N7090 X-0.1324 Y0.7144 Z-0.0914 I0. J0.3725
N7095 G3 X-0.1544 Y0.7059 Z-0.0923 I-0.0049 J-0.02
N7100 G1 X-0.1802 Y0.6676 Z-0.0939
N7105 G3 X-0.1824 Y0.6488 Z-0.0946 I0.0171 J-0.0115
N7110 G1 X-0.0952 Y0.4158 Z-0.1033
N7115 G3 X-0.06 Y0.3913 Z-0.1049 I0.0353 J0.0132
N7120 G1 X0.0201 Y0.3911 Z-0.1077
N7125 G3 X0.0554 Y0.4154 Z-0.1092 I0.0001 J0.0376
N7130 G1 X0.1435 Y0.6481 Z-0.1179
N7135 G3 X0.1403 Y0.6717 Z-0.1188 I-0.0233 J0.0088
N7140 G1 X0.108 Y0.7158 Z-0.1207
N7145 G3 X0.0796 Y0.7246 Z-0.1218 I-0.0201 J-0.0147
N7150 G2 X-0.0437 Y0.7036 Z-0.1262 I-0.1233 J0.3515
N7155 X-0.1324 Y0.7144 Z-0.1293 I0. J0.3725
N7160 G3 X-0.1544 Y0.7059 Z-0.1302 I-0.0049 J-0.02
N7165 G1 X-0.1802 Y0.6676 Z-0.1318
N7170 G3 X-0.1824 Y0.6488 Z-0.1325 I0.0171 J-0.0115
N7175 G1 X-0.0952 Y0.4158 Z-0.1412
N7180 G3 X-0.06 Y0.3913 Z-0.1428 I0.0353 J0.0132
N7185 G1 X0.0201 Y0.3911 Z-0.1456
N7190 G3 X0.0554 Y0.4154 Z-0.1472 I0.0001 J0.0376
N7195 G1 X0.1435 Y0.6481 Z-0.1559
N7200 G3 X0.1403 Y0.6717 Z-0.1567 I-0.0233 J0.0088
N7205 G1 X0.108 Y0.7158 Z-0.1586
N7210 G3 X0.0796 Y0.7246 Z-0.1598 I-0.0201 J-0.0147
N7215 G2 X-0.0437 Y0.7036 Z-0.1641 I-0.1233 J0.3515
N7220 X-0.1324 Y0.7144 Z-0.1673 I0. J0.3725
N7225 G3 X-0.1544 Y0.7059 Z-0.1681 I-0.0049 J-0.02
N7230 G1 X-0.1802 Y0.6676 Z-0.1698
N7235 G3 X-0.1824 Y0.6488 Z-0.1704 I0.0171 J-0.0115
N7240 G1 X-0.0952 Y0.4158 Z-0.1791
N7245 G3 X-0.06 Y0.3913 Z-0.1807 I0.0353 J0.0132
N7250 G1 X0.0201 Y0.3911 Z-0.1835
N7255 G3 X0.0554 Y0.4154 Z-0.1851 I0.0001 J0.0376
N7260 G1 X0.1435 Y0.6481 Z-0.1938
N7265 G3 X0.1403 Y0.6717 Z-0.1947 I-0.0233 J0.0088
N7270 G1 X0.108 Y0.7158 Z-0.1966
N7275 G3 X0.0796 Y0.7246 Z-0.1977 I-0.0201 J-0.0147
N7280 G2 X0.0156 Y0.7084 Z-0.2 I-0.1233 J0.3515
N7285 G3 X-0.0655 Y0.5899 I0.0157 J-0.0977 F30.
N7290 X-0.0251 Y0.4521 I0.9609 J0.2067
N7295 X-0.0145 I0.0053 J0.002
N7300 G1 X0.0506 Y0.624
N7305 G3 X0.0425 Y0.6336 I-0.0067 J0.0025
N7310 G2 X-0.0783 Y0.6266 I-0.0857 J0.4351
N7315 G3 X-0.0864 Y0.6159 I-0.0006 J-0.0079
N7320 G1 X-0.0251 Y0.4521
N7325 G2 X-0.0412 Y0.3834 I-0.0596 J-0.0223
N7330 G3 X-0.0573 Y0.3146 I0.0435 J-0.0465
N7335 G1 X-0.0203 Y0.2156
N7340 X0.1984 Y0.793
N7345 G2 X-0.0437 Y0.7036 I-0.242 J0.2832
N7350 X-0.2193 Y0.7477 I0. J0.3725
N7355 G1 X-0.0573 Y0.3146
N7360 X-0.0569 Y0.3128
N7365 X-0.0568 Y0.3109
N7370 X-0.0573 Y0.309
N7375 X-0.0581 Y0.3073
N7380 X-0.0594 Y0.3058
N7385 X-0.0606 Y0.3044
N7390 X-0.0614 Y0.3027
N7395 X-0.0619 Y0.3008
N7400 Y0.2989
N7405 X-0.0614 Y0.2971
N7410 X-0.0203 Y0.1872 F15.
N7415 X0.2235 Y0.8311
N7420 G2 X-0.0437 Y0.7136 I-0.2672 J0.245
N7425 X-0.2386 Y0.7705 I0. J0.3625
N7430 G1 X-0.0614 Y0.2971
N7435 G3 X-0.0273 Y0.2948 I0.0176 J0.0066 F30.
N7440 G1 X0.1007 Y0.5354
N7445 X0.1017 Y0.5376
N7450 X0.1435 Y0.6481 Z-0.2041 F10.
N7455 G3 X0.1403 Y0.6717 Z-0.205 I-0.0233 J0.0088
N7460 G1 X0.108 Y0.7158 Z-0.2069
N7465 G3 X0.0796 Y0.7246 Z-0.208 I-0.0201 J-0.0147
N7470 G2 X-0.0437 Y0.7036 Z-0.2124 I-0.1233 J0.3515
N7475 X-0.1324 Y0.7144 Z-0.2155 I0. J0.3725
N7480 G3 X-0.1544 Y0.7059 Z-0.2164 I-0.0049 J-0.02
N7485 G1 X-0.1802 Y0.6676 Z-0.218
N7490 G3 X-0.1824 Y0.6488 Z-0.2187 I0.0171 J-0.0115
N7495 G1 X-0.0952 Y0.4158 Z-0.2274
N7500 G3 X-0.06 Y0.3913 Z-0.229 I0.0353 J0.0132
N7505 G1 X0.0201 Y0.3911 Z-0.2318
N7510 G3 X0.0554 Y0.4154 Z-0.2334 I0.0001 J0.0376
N7515 G1 X0.1435 Y0.6481 Z-0.2421
N7520 G3 X0.1403 Y0.6717 Z-0.2429 I-0.0233 J0.0088
N7525 G1 X0.108 Y0.7158 Z-0.2448
N7530 G3 X0.0796 Y0.7246 Z-0.2459 I-0.0201 J-0.0147
N7535 G2 X-0.0437 Y0.7036 Z-0.2503 I-0.1233 J0.3515
N7540 X-0.1324 Y0.7144 Z-0.2535 I0. J0.3725
N7545 G3 X-0.1544 Y0.7059 Z-0.2543 I-0.0049 J-0.02
N7550 G1 X-0.1802 Y0.6676 Z-0.256
N7555 G3 X-0.1824 Y0.6488 Z-0.2566 I0.0171 J-0.0115
N7560 G1 X-0.0952 Y0.4158 Z-0.2653
N7565 G3 X-0.06 Y0.3913 Z-0.2669 I0.0353 J0.0132
N7570 G1 X0.0201 Y0.3911 Z-0.2697
N7575 G3 X0.0554 Y0.4154 Z-0.2713 I0.0001 J0.0376
N7580 G1 X0.1435 Y0.6481 Z-0.28
N7585 G3 X0.1403 Y0.6717 Z-0.2809 I-0.0233 J0.0088
N7590 G1 X0.108 Y0.7158 Z-0.2828
N7595 G3 X0.0796 Y0.7246 Z-0.2839 I-0.0201 J-0.0147
N7600 G2 X-0.0437 Y0.7036 Z-0.2883 I-0.1233 J0.3515
N7605 X-0.1324 Y0.7144 Z-0.2914 I0. J0.3725
N7610 G3 X-0.1544 Y0.7059 Z-0.2923 I-0.0049 J-0.02
N7615 G1 X-0.1802 Y0.6676 Z-0.2939
N7620 G3 X-0.1824 Y0.6488 Z-0.2946 I0.0171 J-0.0115
N7625 G1 X-0.0952 Y0.4158 Z-0.3033
N7630 G3 X-0.06 Y0.3913 Z-0.3049 I0.0353 J0.0132
N7635 G1 X0.0201 Y0.3911 Z-0.3077
N7640 G3 X0.0554 Y0.4154 Z-0.3092 I0.0001 J0.0376
N7645 G1 X0.1435 Y0.6481 Z-0.3179
N7650 G3 X0.1403 Y0.6717 Z-0.3188 I-0.0233 J0.0088
N7655 G1 X0.108 Y0.7158 Z-0.3207
N7660 G3 X0.0796 Y0.7246 Z-0.3218 I-0.0201 J-0.0147
N7665 G2 X-0.0437 Y0.7036 Z-0.3262 I-0.1233 J0.3515
N7670 X-0.1324 Y0.7144 Z-0.3293 I0. J0.3725
N7675 G3 X-0.1544 Y0.7059 Z-0.3302 I-0.0049 J-0.02
N7680 G1 X-0.1802 Y0.6676 Z-0.3318
N7685 G3 X-0.1824 Y0.6488 Z-0.3325 I0.0171 J-0.0115
N7690 G1 X-0.0952 Y0.4158 Z-0.3412
N7695 G3 X-0.06 Y0.3913 Z-0.3428 I0.0353 J0.0132
N7700 G1 X0.0201 Y0.3911 Z-0.3456
N7705 G3 X0.0554 Y0.4154 Z-0.3472 I0.0001 J0.0376
N7710 G1 X0.1435 Y0.6481 Z-0.3559
N7715 G3 X0.1403 Y0.6717 Z-0.3567 I-0.0233 J0.0088
N7720 G1 X0.108 Y0.7158 Z-0.3586
N7725 G3 X0.0796 Y0.7246 Z-0.3598 I-0.0201 J-0.0147
N7730 G2 X-0.0437 Y0.7036 Z-0.3641 I-0.1233 J0.3515
N7735 X-0.1324 Y0.7144 Z-0.3673 I0. J0.3725
N7740 G3 X-0.1544 Y0.7059 Z-0.3681 I-0.0049 J-0.02
N7745 G1 X-0.1802 Y0.6676 Z-0.3698
N7750 G3 X-0.1824 Y0.6488 Z-0.3704 I0.0171 J-0.0115
N7755 G1 X-0.0952 Y0.4158 Z-0.3791
N7760 G3 X-0.06 Y0.3913 Z-0.3807 I0.0353 J0.0132
N7765 G1 X0.0201 Y0.3911 Z-0.3835
N7770 G3 X0.0554 Y0.4154 Z-0.3851 I0.0001 J0.0376
N7775 G1 X0.1435 Y0.6481 Z-0.3938
N7780 G3 X0.1403 Y0.6717 Z-0.3947 I-0.0233 J0.0088
N7785 G1 X0.108 Y0.7158 Z-0.3966
N7790 G3 X0.0796 Y0.7246 Z-0.3977 I-0.0201 J-0.0147
N7795 G2 X0.0156 Y0.7084 Z-0.4 I-0.1233 J0.3515
N7800 G3 X-0.0655 Y0.5899 I0.0157 J-0.0977 F30.
N7805 X-0.0251 Y0.4521 I0.9609 J0.2067
N7810 X-0.0145 I0.0053 J0.002
N7815 G1 X0.0506 Y0.624
N7820 G3 X0.0425 Y0.6336 I-0.0067 J0.0025
N7825 G2 X-0.0783 Y0.6266 I-0.0857 J0.4351
N7830 G3 X-0.0864 Y0.6159 I-0.0006 J-0.0079
N7835 G1 X-0.0251 Y0.4521
N7840 G2 X-0.0412 Y0.3834 I-0.0596 J-0.0223
N7845 G3 X-0.0573 Y0.3146 I0.0435 J-0.0465
N7850 G1 X-0.0203 Y0.2156
N7855 X0.1984 Y0.793
N7860 G2 X-0.0437 Y0.7036 I-0.242 J0.2832
N7865 X-0.2193 Y0.7477 I0. J0.3725
N7870 G1 X-0.0573 Y0.3146
N7875 X-0.0569 Y0.3128
N7880 X-0.0568 Y0.3109
N7885 X-0.0573 Y0.309
N7890 X-0.0581 Y0.3073
N7895 X-0.0594 Y0.3058
N7900 X-0.0606 Y0.3044
N7905 X-0.0614 Y0.3027
N7910 X-0.0619 Y0.3008
N7915 Y0.2989
N7920 X-0.0614 Y0.2971
N7925 X-0.0203 Y0.1872 F15.
N7930 X0.2235 Y0.8311
N7935 G2 X-0.0437 Y0.7136 I-0.2672 J0.245
N7940 X-0.2386 Y0.7705 I0. J0.3625
N7945 G1 X-0.0614 Y0.2971
N7950 G3 X-0.0273 Y0.2948 I0.0176 J0.0066 F30.
N7955 G1 X0.1007 Y0.5354
N7960 X0.1017 Y0.5376
N7965 X0.1435 Y0.6481 Z-0.4041 F10.
N7970 G3 X0.1403 Y0.6717 Z-0.405 I-0.0233 J0.0088
N7975 G1 X0.108 Y0.7158 Z-0.4069
N7980 G3 X0.0796 Y0.7246 Z-0.408 I-0.0201 J-0.0147
N7985 G2 X-0.0437 Y0.7036 Z-0.4124 I-0.1233 J0.3515
N7990 X-0.1324 Y0.7144 Z-0.4155 I0. J0.3725
N7995 G3 X-0.1544 Y0.7059 Z-0.4164 I-0.0049 J-0.02
N8000 G1 X-0.1802 Y0.6676 Z-0.418
N8005 G3 X-0.1824 Y0.6488 Z-0.4187 I0.0171 J-0.0115
N8010 G1 X-0.0952 Y0.4158 Z-0.4274
N8015 G3 X-0.06 Y0.3913 Z-0.429 I0.0353 J0.0132
N8020 G1 X0.0201 Y0.3911 Z-0.4318
N8025 G3 X0.0554 Y0.4154 Z-0.4334 I0.0001 J0.0376
N8030 G1 X0.1435 Y0.6481 Z-0.4421
N8035 G3 X0.1403 Y0.6717 Z-0.4429 I-0.0233 J0.0088
N8040 G1 X0.108 Y0.7158 Z-0.4448
N8045 G3 X0.0796 Y0.7246 Z-0.4459 I-0.0201 J-0.0147
N8050 G2 X-0.0437 Y0.7036 Z-0.4503 I-0.1233 J0.3515
N8055 X-0.1324 Y0.7144 Z-0.4535 I0. J0.3725
N8060 G3 X-0.1544 Y0.7059 Z-0.4543 I-0.0049 J-0.02
N8065 G1 X-0.1802 Y0.6676 Z-0.456
N8070 G3 X-0.1824 Y0.6488 Z-0.4566 I0.0171 J-0.0115
N8075 G1 X-0.0952 Y0.4158 Z-0.4653
N8080 G3 X-0.06 Y0.3913 Z-0.4669 I0.0353 J0.0132
N8085 G1 X0.0201 Y0.3911 Z-0.4697
N8090 G3 X0.0554 Y0.4154 Z-0.4713 I0.0001 J0.0376
N8095 G1 X0.1435 Y0.6481 Z-0.48
N8100 G3 X0.1403 Y0.6717 Z-0.4809 I-0.0233 J0.0088
N8105 G1 X0.108 Y0.7158 Z-0.4828
N8110 G3 X0.0796 Y0.7246 Z-0.4839 I-0.0201 J-0.0147
N8115 G2 X-0.0437 Y0.7036 Z-0.4883 I-0.1233 J0.3515
N8120 X-0.1324 Y0.7144 Z-0.4914 I0. J0.3725
N8125 G3 X-0.1544 Y0.7059 Z-0.4923 I-0.0049 J-0.02
N8130 G1 X-0.1802 Y0.6676 Z-0.4939
N8135 G3 X-0.1824 Y0.6488 Z-0.4946 I0.0171 J-0.0115
N8140 G1 X-0.0952 Y0.4158 Z-0.5033
N8145 G3 X-0.06 Y0.3913 Z-0.5049 I0.0353 J0.0132
N8150 G1 X0.0201 Y0.3911 Z-0.5077
N8155 G3 X0.0554 Y0.4154 Z-0.5092 I0.0001 J0.0376
N8160 G1 X0.1435 Y0.6481 Z-0.5179
N8165 G3 X0.1403 Y0.6717 Z-0.5188 I-0.0233 J0.0088
N8170 G1 X0.108 Y0.7158 Z-0.5207
N8175 G3 X0.0796 Y0.7246 Z-0.5218 I-0.0201 J-0.0147
N8180 G2 X-0.0437 Y0.7036 Z-0.5262 I-0.1233 J0.3515
N8185 X-0.1324 Y0.7144 Z-0.5293 I0. J0.3725
N8190 G3 X-0.1544 Y0.7059 Z-0.5302 I-0.0049 J-0.02
N8195 G1 X-0.1802 Y0.6676 Z-0.5318
N8200 G3 X-0.1824 Y0.6488 Z-0.5325 I0.0171 J-0.0115
N8205 G1 X-0.0952 Y0.4158 Z-0.5412
N8210 G3 X-0.06 Y0.3913 Z-0.5428 I0.0353 J0.0132
N8215 G1 X0.0201 Y0.3911 Z-0.5456
N8220 G3 X0.0554 Y0.4154 Z-0.5472 I0.0001 J0.0376
N8225 G1 X0.1435 Y0.6481 Z-0.5559
N8230 G3 X0.1403 Y0.6717 Z-0.5567 I-0.0233 J0.0088
N8235 G1 X0.108 Y0.7158 Z-0.5586
N8240 G3 X0.0796 Y0.7246 Z-0.5598 I-0.0201 J-0.0147
N8245 G2 X-0.0437 Y0.7036 Z-0.5641 I-0.1233 J0.3515
N8250 X-0.1324 Y0.7144 Z-0.5673 I0. J0.3725
N8255 G3 X-0.1544 Y0.7059 Z-0.5681 I-0.0049 J-0.02
N8260 G1 X-0.1802 Y0.6676 Z-0.5698
N8265 G3 X-0.1824 Y0.6488 Z-0.5704 I0.0171 J-0.0115
N8270 G1 X-0.0952 Y0.4158 Z-0.5791
N8275 G3 X-0.06 Y0.3913 Z-0.5807 I0.0353 J0.0132
N8280 G1 X0.0201 Y0.3911 Z-0.5835
N8285 G3 X0.0554 Y0.4154 Z-0.5851 I0.0001 J0.0376
N8290 G1 X0.1435 Y0.6481 Z-0.5938
N8295 G3 X0.1403 Y0.6717 Z-0.5947 I-0.0233 J0.0088
N8300 G1 X0.108 Y0.7158 Z-0.5966
N8305 G3 X0.0796 Y0.7246 Z-0.5977 I-0.0201 J-0.0147
N8310 G2 X0.0156 Y0.7084 Z-0.6 I-0.1233 J0.3515
N8315 G3 X-0.0655 Y0.5899 I0.0157 J-0.0977 F30.
N8320 X-0.0251 Y0.4521 I0.9609 J0.2067
N8325 X-0.0145 I0.0053 J0.002
N8330 G1 X0.0506 Y0.624
N8335 G3 X0.0425 Y0.6336 I-0.0067 J0.0025
N8340 G2 X-0.0783 Y0.6266 I-0.0857 J0.4351
N8345 G3 X-0.0864 Y0.6159 I-0.0006 J-0.0079
N8350 G1 X-0.0251 Y0.4521
N8355 G2 X-0.0412 Y0.3834 I-0.0596 J-0.0223
N8360 G3 X-0.0573 Y0.3146 I0.0435 J-0.0465
N8365 G1 X-0.0203 Y0.2156
N8370 X0.1984 Y0.793
N8375 G2 X-0.0437 Y0.7036 I-0.242 J0.2832
N8380 X-0.2193 Y0.7477 I0. J0.3725
N8385 G1 X-0.0573 Y0.3146
N8390 X-0.0569 Y0.3128
N8395 X-0.0568 Y0.3109
N8400 X-0.0573 Y0.309
N8405 X-0.0581 Y0.3073
N8410 X-0.0594 Y0.3058
N8415 X-0.0606 Y0.3044
N8420 X-0.0614 Y0.3027
N8425 X-0.0619 Y0.3008
N8430 Y0.2989
N8435 X-0.0614 Y0.2971
N8440 X-0.0203 Y0.1872 F15.
N8445 X0.2235 Y0.8311
N8450 G2 X-0.0437 Y0.7136 I-0.2672 J0.245
N8455 X-0.2386 Y0.7705 I0. J0.3625
N8460 G1 X-0.0614 Y0.2971
N8465 G3 X-0.0463 Y0.2961 I0.0078 J0.0029 F30.
N8470 G1 X-0.0295 Y0.328
N8475 X-0.0291 Y0.3289
N8480 X0.0593 Y0.5556
N8485 G2 X0.0728 Y0.567 I0.0172 J-0.0067
N8490 G1 X0.1177 Y0.576
N8495 G3 X0.1313 Y0.5876 I-0.0037 J0.0181
N8500 G1 X0.2235 Y0.8311 Z-0.6091 F10.
N8505 G2 X-0.0437 Y0.7136 Z-0.6196 I-0.2672 J0.245
N8510 X-0.2386 Y0.7705 Z-0.6268 I0. J0.3625
N8515 G1 X-0.0203 Y0.1872 Z-0.6485
N8520 X0.2235 Y0.8311 Z-0.6726
N8525 G2 X-0.0437 Y0.7136 Z-0.683 I-0.2672 J0.245
N8530 X-0.2386 Y0.7705 Z-0.6902 I0. J0.3625
N8535 G1 X-0.0203 Y0.1872 Z-0.712
N8540 X0.1117 Y0.536 Z-0.725
N8545 X0.2235 Y0.8311 F15.
N8550 G2 X-0.0437 Y0.7136 I-0.2672 J0.245
N8555 X-0.2386 Y0.7705 I0. J0.3625
N8560 G1 X-0.0203 Y0.1872
N8565 X0.1117 Y0.536
N8570 X0.1129 Y0.5395 Z-0.7248 F30.
N8575 X0.1137 Y0.5431 Z-0.7243
N8580 X0.1141 Y0.5466 Z-0.7234
N8585 X0.1142 Y0.5501 Z-0.7221
N8590 X0.1139 Y0.5534 Z-0.7206
N8595 X0.1135 Y0.5565 Z-0.7187
N8600 X0.1128 Y0.5594 Z-0.7165
N8605 X0.112 Y0.562 Z-0.714
N8610 X0.111 Y0.5643 Z-0.7113
N8615 X0.1101 Y0.5663 Z-0.7083
N8620 X0.1092 Y0.5679 Z-0.7052
N8625 X0.1084 Y0.5693 Z-0.7019
N8630 X0.1077 Y0.5703 Z-0.6984
N8635 X0.1072 Y0.571 Z-0.6948
N8640 X0.1069 Y0.5715 Z-0.6912
N8645 X0.1068 Y0.5716 Z-0.6875
N8650 G0 Z0.325
N8655 G1 X1.0041 Y-0.0463 F650.
N8660 G0 Z0.2394
N8665 G1 Z0.1375 F30.
N8670 X1.0039 Y-0.0464 Z0.1337 F10.
N8675 X1.0034 Y-0.0467 Z0.1299
N8680 X1.0026 Y-0.0473 Z0.1263
N8685 X1.0015 Y-0.048 Z0.1227
N8690 X1.0002 Y-0.049 Z0.1193
N8695 X0.9986 Y-0.0502 Z0.1161
N8700 X0.9968 Y-0.0517 Z0.1131
N8705 X0.9949 Y-0.0535 Z0.1103
N8710 X0.9929 Y-0.0555 Z0.1078
N8715 X0.9908 Y-0.0579 Z0.1057
N8720 X0.9888 Y-0.0605 Z0.1038
N8725 X0.9868 Y-0.0634 Z0.1023
N8730 X0.985 Y-0.0665 Z0.1012
N8735 X0.9833 Y-0.0698 Z0.1004
N8740 X0.9819 Y-0.0733 Z0.1
N8745 X0.9817 Y-0.0739
N8750 X0.8979 Y-0.2983 Z0.0916
N8755 G3 X0.8989 Y-0.3116 Z0.0912 I0.0149 J-0.0056
N8760 G1 X0.917 Y-0.344 Z0.0899
N8765 G3 X0.9319 Y-0.3522 Z0.0892 I0.0139 J0.0078
N8770 G2 X0.9563 Y-0.3514 Z0.0884 I0.0244 J-0.3717
N8775 X1.132 Y-0.3954 Z0.082 I0. J-0.3725
N8780 G3 X1.1527 Y-0.3935 Z0.0812 I0.0089 J0.0166
N8785 G1 X1.1866 Y-0.3666 Z0.0797
N8790 G3 X1.1937 Y-0.3519 Z0.0791 I-0.0117 J0.0148
N8795 G1 Y-0.1114 Z0.0707
N8800 G3 X1.1494 Y-0.0585 Z0.0681 I-0.0538 J0.
N8805 G1 X1.0418 Y-0.0392 Z0.0643
N8810 G3 X0.9819 Y-0.0733 Z0.0617 I-0.0095 J-0.053
N8815 G1 X0.8979 Y-0.2983 Z0.0533
N8820 G3 X0.8989 Y-0.3116 Z0.0528 I0.0149 J-0.0056
N8825 G1 X0.917 Y-0.344 Z0.0515
N8830 G3 X0.9319 Y-0.3522 Z0.0509 I0.0139 J0.0078
N8835 G2 X0.9563 Y-0.3514 Z0.05 I0.0244 J-0.3717
N8840 X1.132 Y-0.3954 Z0.0436 I0. J-0.3725
N8845 G3 X1.1527 Y-0.3935 Z0.0429 I0.0089 J0.0166
N8850 G1 X1.1866 Y-0.3666 Z0.0414
N8855 G3 X1.1937 Y-0.3519 Z0.0408 I-0.0117 J0.0148
N8860 G1 Y-0.1114 Z0.0324
N8865 G3 X1.1494 Y-0.0585 Z0.0298 I-0.0538 J0.
N8870 G1 X1.0418 Y-0.0392 Z0.0259
N8875 G3 X0.9819 Y-0.0733 Z0.0233 I-0.0095 J-0.053
N8880 G1 X0.8979 Y-0.2983 Z0.0149
N8885 G3 X0.8989 Y-0.3116 Z0.0145 I0.0149 J-0.0056
N8890 G1 X0.917 Y-0.344 Z0.0132
N8895 G3 X0.9319 Y-0.3522 Z0.0125 I0.0139 J0.0078
N8900 G2 X0.9563 Y-0.3514 Z0.0117 I0.0244 J-0.3717
N8905 X1.132 Y-0.3954 Z0.0053 I0. J-0.3725
N8910 G3 X1.1527 Y-0.3935 Z0.0045 I0.0089 J0.0166
N8915 G1 X1.1866 Y-0.3666 Z0.003
N8920 G3 X1.1937 Y-0.3519 Z0.0024 I-0.0117 J0.0148
N8925 G1 Y-0.1114 Z-0.006
N8930 G3 X1.1494 Y-0.0585 Z-0.0086 I-0.0538 J0.
N8935 G1 X1.0418 Y-0.0392 Z-0.0124
N8940 G3 X0.9819 Y-0.0733 Z-0.015 I-0.0095 J-0.053
N8945 G1 X0.8979 Y-0.2983 Z-0.0234
N8950 G3 X0.8989 Y-0.3116 Z-0.0239 I0.0149 J-0.0056
N8955 G1 X0.917 Y-0.344 Z-0.0252
N8960 G3 X0.9319 Y-0.3522 Z-0.0258 I0.0139 J0.0078
N8965 G2 X0.9563 Y-0.3514 Z-0.0267 I0.0244 J-0.3717
N8970 X1.132 Y-0.3954 Z-0.0331 I0. J-0.3725
N8975 G3 X1.1527 Y-0.3935 Z-0.0338 I0.0089 J0.0166
N8980 G1 X1.1866 Y-0.3666 Z-0.0353
N8985 G3 X1.1937 Y-0.3519 Z-0.0359 I-0.0117 J0.0148
N8990 G1 Y-0.1114 Z-0.0443
N8995 G3 X1.1494 Y-0.0585 Z-0.0469 I-0.0538 J0.
N9000 G1 X1.0418 Y-0.0392 Z-0.0508
N9005 G3 X0.9819 Y-0.0733 Z-0.0534 I-0.0095 J-0.053
N9010 G1 X0.8979 Y-0.2983 Z-0.0618
N9015 G3 X0.8989 Y-0.3116 Z-0.0622 I0.0149 J-0.0056
N9020 G1 X0.917 Y-0.344 Z-0.0635
N9025 G3 X0.9319 Y-0.3522 Z-0.0642 I0.0139 J0.0078
N9030 G2 X0.9563 Y-0.3514 Z-0.065 I0.0244 J-0.3717
N9035 X1.132 Y-0.3954 Z-0.0714 I0. J-0.3725
N9040 G3 X1.1527 Y-0.3935 Z-0.0722 I0.0089 J0.0166
N9045 G1 X1.1866 Y-0.3666 Z-0.0737
N9050 G3 X1.1937 Y-0.3519 Z-0.0743 I-0.0117 J0.0148
N9055 G1 Y-0.1114 Z-0.0827
N9060 G3 X1.1494 Y-0.0585 Z-0.0853 I-0.0538 J0.
N9065 G1 X1.0418 Y-0.0392 Z-0.0891
N9070 G3 X0.9819 Y-0.0733 Z-0.0917 I-0.0095 J-0.053
N9075 G1 X0.8979 Y-0.2983 Z-0.1001
N9080 G3 X0.8989 Y-0.3116 Z-0.1006 I0.0149 J-0.0056
N9085 G1 X0.917 Y-0.344 Z-0.1019
N9090 G3 X0.9319 Y-0.3522 Z-0.1025 I0.0139 J0.0078
N9095 G2 X0.9563 Y-0.3514 Z-0.1034 I0.0244 J-0.3717
N9100 X1.132 Y-0.3954 Z-0.1098 I0. J-0.3725
N9105 G3 X1.1527 Y-0.3935 Z-0.1105 I0.0089 J0.0166
N9110 G1 X1.1866 Y-0.3666 Z-0.112
N9115 G3 X1.1937 Y-0.3519 Z-0.1126 I-0.0117 J0.0148
N9120 G1 Y-0.1114 Z-0.121
N9125 G3 X1.1494 Y-0.0585 Z-0.1236 I-0.0538 J0.
N9130 G1 X1.0418 Y-0.0392 Z-0.1275
N9135 G3 X0.9819 Y-0.0733 Z-0.1301 I-0.0095 J-0.053
N9140 G1 X0.8979 Y-0.2983 Z-0.1385
N9145 G3 X0.8989 Y-0.3116 Z-0.1389 I0.0149 J-0.0056
N9150 G1 X0.917 Y-0.344 Z-0.1402
N9155 G3 X0.9319 Y-0.3522 Z-0.1409 I0.0139 J0.0078
N9160 G2 X0.9563 Y-0.3514 Z-0.1417 I0.0244 J-0.3717
N9165 X1.132 Y-0.3954 Z-0.1481 I0. J-0.3725
N9170 G3 X1.1527 Y-0.3935 Z-0.1489 I0.0089 J0.0166
N9175 G1 X1.1866 Y-0.3666 Z-0.1504
N9180 G3 X1.1937 Y-0.3519 Z-0.151 I-0.0117 J0.0148
N9185 G1 Y-0.1114 Z-0.1594
N9190 G3 X1.1494 Y-0.0585 Z-0.162 I-0.0538 J0.
N9195 G1 X1.0418 Y-0.0392 Z-0.1658
N9200 G3 X0.9819 Y-0.0733 Z-0.1684 I-0.0095 J-0.053
N9205 G1 X0.8979 Y-0.2983 Z-0.1768
N9210 G3 X0.8989 Y-0.3116 Z-0.1773 I0.0149 J-0.0056
N9215 G1 X0.917 Y-0.344 Z-0.1786
N9220 G3 X0.9319 Y-0.3522 Z-0.1792 I0.0139 J0.0078
N9225 G2 X0.9563 Y-0.3514 Z-0.1801 I0.0244 J-0.3717
N9230 X1.132 Y-0.3954 Z-0.1864 I0. J-0.3725
N9235 G3 X1.1527 Y-0.3935 Z-0.1872 I0.0089 J0.0166
N9240 G1 X1.1866 Y-0.3666 Z-0.1887
N9245 G3 X1.1937 Y-0.3519 Z-0.1893 I-0.0117 J0.0148
N9250 G1 Y-0.1114 Z-0.1977
N9255 G3 X1.1585 Y-0.061 Z-0.2 I-0.0538 J0.
N9260 G2 X1.1218 Y-0.0194 I0.0203 J0.055 F30.
N9265 X1.1154 Y0.0357 I0.2342 J0.0551
N9270 G1 X1.1151 Y0.0373
N9275 X1.1143 Y0.0386
N9280 X1.1132 Y0.0396
N9285 X1.1117 Y0.0401
N9290 X1.1102
N9295 X1.1088 Y0.0396
N9300 X1.1076 Y0.0386
N9305 X1.1068 Y0.0373
N9310 X0.9948 Y-0.2626
N9315 G3 X1.0027 Y-0.2754 I0.0089 J-0.0033
N9320 G2 X1.1037 Y-0.2978 I-0.0487 J-0.4587
N9325 G3 X1.1154 Y-0.2895 I0.0029 J0.0083
N9330 G1 Y0.0357
N9335 G2 X1.1545 Y0.0945 I0.0637 J0.
N9340 G3 X1.1937 Y0.1533 I-0.0245 J0.0588
N9345 G1 Y0.4942
N9350 X0.8747 Y-0.3604
N9355 G2 X0.9563 Y-0.3514 I0.0816 J-0.3634
N9360 X1.1937 Y-0.4368 I0. J-0.3725
N9365 G1 Y0.1533
N9370 X1.1939 Y0.1552
N9375 X1.1946 Y0.157
N9380 X1.1957 Y0.1585
N9385 X1.1971 Y0.1598
N9390 X1.1987 Y0.1608
N9395 X1.2004 Y0.1617
N9400 X1.2018 Y0.163
N9405 X1.2028 Y0.1646
N9410 X1.2035 Y0.1664
N9415 X1.2037 Y0.1683
N9420 Y0.5495 F15.
N9425 X0.8587 Y-0.3748
N9430 G2 X0.9563 Y-0.3614 I0.0977 J-0.3491
N9435 X1.2037 Y-0.4589 I0. J-0.3625
N9440 G1 Y0.1683
N9445 G3 X1.1662 Y0.1687 I-0.0187 J0. F30.
N9450 G1 X1.1562 Y-0.2821
N9455 G3 X1.1937 Y-0.2825 I0.0187 J-0.0004
N9460 G1 Y-0.1114 Z-0.206 F10.
N9465 G3 X1.1494 Y-0.0585 Z-0.2086 I-0.0538 J0.
N9470 G1 X1.0418 Y-0.0392 Z-0.2124
N9475 G3 X0.9819 Y-0.0733 Z-0.215 I-0.0095 J-0.053
N9480 G1 X0.8979 Y-0.2983 Z-0.2234
N9485 G3 X0.8989 Y-0.3116 Z-0.2239 I0.0149 J-0.0056
N9490 G1 X0.917 Y-0.344 Z-0.2252
N9495 G3 X0.9319 Y-0.3522 Z-0.2258 I0.0139 J0.0078
N9500 G2 X0.9563 Y-0.3514 Z-0.2267 I0.0244 J-0.3717
N9505 X1.132 Y-0.3954 Z-0.2331 I0. J-0.3725
N9510 G3 X1.1527 Y-0.3935 Z-0.2338 I0.0089 J0.0166
N9515 G1 X1.1866 Y-0.3666 Z-0.2353
N9520 G3 X1.1937 Y-0.3519 Z-0.2359 I-0.0117 J0.0148
N9525 G1 Y-0.1114 Z-0.2443
N9530 G3 X1.1494 Y-0.0585 Z-0.2469 I-0.0538 J0.
N9535 G1 X1.0418 Y-0.0392 Z-0.2508
N9540 G3 X0.9819 Y-0.0733 Z-0.2534 I-0.0095 J-0.053
N9545 G1 X0.8979 Y-0.2983 Z-0.2618
N9550 G3 X0.8989 Y-0.3116 Z-0.2622 I0.0149 J-0.0056
N9555 G1 X0.917 Y-0.344 Z-0.2635
N9560 G3 X0.9319 Y-0.3522 Z-0.2642 I0.0139 J0.0078
N9565 G2 X0.9563 Y-0.3514 Z-0.265 I0.0244 J-0.3717
N9570 X1.132 Y-0.3954 Z-0.2714 I0. J-0.3725
N9575 G3 X1.1527 Y-0.3935 Z-0.2722 I0.0089 J0.0166
N9580 G1 X1.1866 Y-0.3666 Z-0.2737
N9585 G3 X1.1937 Y-0.3519 Z-0.2743 I-0.0117 J0.0148
N9590 G1 Y-0.1114 Z-0.2827
N9595 G3 X1.1494 Y-0.0585 Z-0.2853 I-0.0538 J0.
N9600 G1 X1.0418 Y-0.0392 Z-0.2891
N9605 G3 X0.9819 Y-0.0733 Z-0.2917 I-0.0095 J-0.053
N9610 G1 X0.8979 Y-0.2983 Z-0.3001
N9615 G3 X0.8989 Y-0.3116 Z-0.3006 I0.0149 J-0.0056
N9620 G1 X0.917 Y-0.344 Z-0.3019
N9625 G3 X0.9319 Y-0.3522 Z-0.3025 I0.0139 J0.0078
N9630 G2 X0.9563 Y-0.3514 Z-0.3034 I0.0244 J-0.3717
N9635 X1.132 Y-0.3954 Z-0.3098 I0. J-0.3725
N9640 G3 X1.1527 Y-0.3935 Z-0.3105 I0.0089 J0.0166
N9645 G1 X1.1866 Y-0.3666 Z-0.312
N9650 G3 X1.1937 Y-0.3519 Z-0.3126 I-0.0117 J0.0148
N9655 G1 Y-0.1114 Z-0.321
N9660 G3 X1.1494 Y-0.0585 Z-0.3236 I-0.0538 J0.
N9665 G1 X1.0418 Y-0.0392 Z-0.3275
N9670 G3 X0.9819 Y-0.0733 Z-0.3301 I-0.0095 J-0.053
N9675 G1 X0.8979 Y-0.2983 Z-0.3385
N9680 G3 X0.8989 Y-0.3116 Z-0.3389 I0.0149 J-0.0056
N9685 G1 X0.917 Y-0.344 Z-0.3402
N9690 G3 X0.9319 Y-0.3522 Z-0.3409 I0.0139 J0.0078
N9695 G2 X0.9563 Y-0.3514 Z-0.3417 I0.0244 J-0.3717
N9700 X1.132 Y-0.3954 Z-0.3481 I0. J-0.3725
N9705 G3 X1.1527 Y-0.3935 Z-0.3489 I0.0089 J0.0166
N9710 G1 X1.1866 Y-0.3666 Z-0.3504
N9715 G3 X1.1937 Y-0.3519 Z-0.351 I-0.0117 J0.0148
N9720 G1 Y-0.1114 Z-0.3594
N9725 G3 X1.1494 Y-0.0585 Z-0.362 I-0.0538 J0.
N9730 G1 X1.0418 Y-0.0392 Z-0.3658
N9735 G3 X0.9819 Y-0.0733 Z-0.3684 I-0.0095 J-0.053
N9740 G1 X0.8979 Y-0.2983 Z-0.3768
N9745 G3 X0.8989 Y-0.3116 Z-0.3773 I0.0149 J-0.0056
N9750 G1 X0.917 Y-0.344 Z-0.3786
N9755 G3 X0.9319 Y-0.3522 Z-0.3792 I0.0139 J0.0078
N9760 G2 X0.9563 Y-0.3514 Z-0.3801 I0.0244 J-0.3717
N9765 X1.132 Y-0.3954 Z-0.3864 I0. J-0.3725
N9770 G3 X1.1527 Y-0.3935 Z-0.3872 I0.0089 J0.0166
N9775 G1 X1.1866 Y-0.3666 Z-0.3887
N9780 G3 X1.1937 Y-0.3519 Z-0.3893 I-0.0117 J0.0148
N9785 G1 Y-0.1114 Z-0.3977
N9790 G3 X1.1585 Y-0.061 Z-0.4 I-0.0538 J0.
N9795 G2 X1.1218 Y-0.0194 I0.0203 J0.055 F30.
N9800 X1.1154 Y0.0357 I0.2342 J0.0551
N9805 G1 X1.1151 Y0.0373
N9810 X1.1143 Y0.0386
N9815 X1.1132 Y0.0396
N9820 X1.1117 Y0.0401
N9825 X1.1102
N9830 X1.1088 Y0.0396
N9835 X1.1076 Y0.0386
N9840 X1.1068 Y0.0373
N9845 X0.9948 Y-0.2626
N9850 G3 X1.0027 Y-0.2754 I0.0089 J-0.0033
N9855 G2 X1.1037 Y-0.2978 I-0.0487 J-0.4587
N9860 G3 X1.1154 Y-0.2895 I0.0029 J0.0083
N9865 G1 Y0.0357
N9870 G2 X1.1545 Y0.0945 I0.0637 J0.
N9875 G3 X1.1937 Y0.1533 I-0.0245 J0.0588
N9880 G1 Y0.4942
N9885 X0.8747 Y-0.3604
N9890 G2 X0.9563 Y-0.3514 I0.0816 J-0.3634
N9895 X1.1937 Y-0.4368 I0. J-0.3725
N9900 G1 Y0.1533
N9905 X1.1939 Y0.1552
N9910 X1.1946 Y0.157
N9915 X1.1957 Y0.1585
N9920 X1.1971 Y0.1598
N9925 X1.1987 Y0.1608
N9930 X1.2004 Y0.1617
N9935 X1.2018 Y0.163
N9940 X1.2028 Y0.1646
N9945 X1.2035 Y0.1664
N9950 X1.2037 Y0.1683
N9955 Y0.5495 F15.
N9960 X0.8587 Y-0.3748
N9965 G2 X0.9563 Y-0.3614 I0.0977 J-0.3491
N9970 X1.2037 Y-0.4589 I0. J-0.3625
N9975 G1 Y0.1683
N9980 G3 X1.1662 Y0.1687 I-0.0187 J0. F30.
N9985 G1 X1.1562 Y-0.2821
N9990 G3 X1.1937 Y-0.2825 I0.0187 J-0.0004
N9995 G1 Y-0.1114 Z-0.406 F10.
N10000 G3 X1.1494 Y-0.0585 Z-0.4086 I-0.0538 J0.
N10005 G1 X1.0418 Y-0.0392 Z-0.4124
N10010 G3 X0.9819 Y-0.0733 Z-0.415 I-0.0095 J-0.053
N10015 G1 X0.8979 Y-0.2983 Z-0.4234
N10020 G3 X0.8989 Y-0.3116 Z-0.4239 I0.0149 J-0.0056
N10025 G1 X0.917 Y-0.344 Z-0.4252
N10030 G3 X0.9319 Y-0.3522 Z-0.4258 I0.0139 J0.0078
N10035 G2 X0.9563 Y-0.3514 Z-0.4267 I0.0244 J-0.3717
N10040 X1.132 Y-0.3954 Z-0.4331 I0. J-0.3725
N10045 G3 X1.1527 Y-0.3935 Z-0.4338 I0.0089 J0.0166
N10050 G1 X1.1866 Y-0.3666 Z-0.4353
N10055 G3 X1.1937 Y-0.3519 Z-0.4359 I-0.0117 J0.0148
N10060 G1 Y-0.1114 Z-0.4443
N10065 G3 X1.1494 Y-0.0585 Z-0.4469 I-0.0538 J0.
N10070 G1 X1.0418 Y-0.0392 Z-0.4508
N10075 G3 X0.9819 Y-0.0733 Z-0.4534 I-0.0095 J-0.053
N10080 G1 X0.8979 Y-0.2983 Z-0.4618
N10085 G3 X0.8989 Y-0.3116 Z-0.4622 I0.0149 J-0.0056
N10090 G1 X0.917 Y-0.344 Z-0.4635
N10095 G3 X0.9319 Y-0.3522 Z-0.4642 I0.0139 J0.0078
N10100 G2 X0.9563 Y-0.3514 Z-0.465 I0.0244 J-0.3717
N10105 X1.132 Y-0.3954 Z-0.4714 I0. J-0.3725
N10110 G3 X1.1527 Y-0.3935 Z-0.4722 I0.0089 J0.0166
N10115 G1 X1.1866 Y-0.3666 Z-0.4737
N10120 G3 X1.1937 Y-0.3519 Z-0.4743 I-0.0117 J0.0148
N10125 G1 Y-0.1114 Z-0.4827
N10130 G3 X1.1494 Y-0.0585 Z-0.4853 I-0.0538 J0.
N10135 G1 X1.0418 Y-0.0392 Z-0.4891
N10140 G3 X0.9819 Y-0.0733 Z-0.4917 I-0.0095 J-0.053
N10145 G1 X0.8979 Y-0.2983 Z-0.5001
N10150 G3 X0.8989 Y-0.3116 Z-0.5006 I0.0149 J-0.0056
N10155 G1 X0.917 Y-0.344 Z-0.5019
N10160 G3 X0.9319 Y-0.3522 Z-0.5025 I0.0139 J0.0078
N10165 G2 X0.9563 Y-0.3514 Z-0.5034 I0.0244 J-0.3717
N10170 X1.132 Y-0.3954 Z-0.5098 I0. J-0.3725
N10175 G3 X1.1527 Y-0.3935 Z-0.5105 I0.0089 J0.0166
N10180 G1 X1.1866 Y-0.3666 Z-0.512
N10185 G3 X1.1937 Y-0.3519 Z-0.5126 I-0.0117 J0.0148
N10190 G1 Y-0.1114 Z-0.521
N10195 G3 X1.1494 Y-0.0585 Z-0.5236 I-0.0538 J0.
N10200 G1 X1.0418 Y-0.0392 Z-0.5275
N10205 G3 X0.9819 Y-0.0733 Z-0.5301 I-0.0095 J-0.053
N10210 G1 X0.8979 Y-0.2983 Z-0.5385
N10215 G3 X0.8989 Y-0.3116 Z-0.5389 I0.0149 J-0.0056
N10220 G1 X0.917 Y-0.344 Z-0.5402
N10225 G3 X0.9319 Y-0.3522 Z-0.5409 I0.0139 J0.0078
N10230 G2 X0.9563 Y-0.3514 Z-0.5417 I0.0244 J-0.3717
N10235 X1.132 Y-0.3954 Z-0.5481 I0. J-0.3725
N10240 G3 X1.1527 Y-0.3935 Z-0.5489 I0.0089 J0.0166
N10245 G1 X1.1866 Y-0.3666 Z-0.5504
N10250 G3 X1.1937 Y-0.3519 Z-0.551 I-0.0117 J0.0148
N10255 G1 Y-0.1114 Z-0.5594
N10260 G3 X1.1494 Y-0.0585 Z-0.562 I-0.0538 J0.
N10265 G1 X1.0418 Y-0.0392 Z-0.5658
N10270 G3 X0.9819 Y-0.0733 Z-0.5684 I-0.0095 J-0.053
N10275 G1 X0.8979 Y-0.2983 Z-0.5768
N10280 G3 X0.8989 Y-0.3116 Z-0.5773 I0.0149 J-0.0056
N10285 G1 X0.917 Y-0.344 Z-0.5786
N10290 G3 X0.9319 Y-0.3522 Z-0.5792 I0.0139 J0.0078
N10295 G2 X0.9563 Y-0.3514 Z-0.5801 I0.0244 J-0.3717
N10300 X1.132 Y-0.3954 Z-0.5864 I0. J-0.3725
N10305 G3 X1.1527 Y-0.3935 Z-0.5872 I0.0089 J0.0166
N10310 G1 X1.1866 Y-0.3666 Z-0.5887
N10315 G3 X1.1937 Y-0.3519 Z-0.5893 I-0.0117 J0.0148
N10320 G1 Y-0.1114 Z-0.5977
N10325 G3 X1.1585 Y-0.061 Z-0.6 I-0.0538 J0.
N10330 G2 X1.1218 Y-0.0194 I0.0203 J0.055 F30.
N10335 X1.1154 Y0.0357 I0.2342 J0.0551
N10340 G1 X1.1151 Y0.0373
N10345 X1.1143 Y0.0386
N10350 X1.1132 Y0.0396
N10355 X1.1117 Y0.0401
N10360 X1.1102
N10365 X1.1088 Y0.0396
N10370 X1.1076 Y0.0386
N10375 X1.1068 Y0.0373
N10380 X0.9948 Y-0.2626
N10385 G3 X1.0027 Y-0.2754 I0.0089 J-0.0033
N10390 G2 X1.1037 Y-0.2978 I-0.0487 J-0.4587
N10395 G3 X1.1154 Y-0.2895 I0.0029 J0.0083
N10400 G1 Y0.0357
N10405 G2 X1.1545 Y0.0945 I0.0637 J0.
N10410 G3 X1.1937 Y0.1533 I-0.0245 J0.0588
N10415 G1 Y0.4942
N10420 X0.8747 Y-0.3604
N10425 G2 X0.9563 Y-0.3514 I0.0816 J-0.3634
N10430 X1.1937 Y-0.4368 I0. J-0.3725
N10435 G1 Y0.1533
N10440 X1.1939 Y0.1552
N10445 X1.1946 Y0.157
N10450 X1.1957 Y0.1585
N10455 X1.1971 Y0.1598
N10460 X1.1987 Y0.1608
N10465 X1.2004 Y0.1617
N10470 X1.2018 Y0.163
N10475 X1.2028 Y0.1646
N10480 X1.2035 Y0.1664
N10485 X1.2037 Y0.1683
N10490 Y0.5495 F15.
N10495 X0.8587 Y-0.3748
N10500 G2 X0.9563 Y-0.3614 I0.0977 J-0.3491
N10505 X1.2037 Y-0.4589 I0. J-0.3625
N10510 G1 Y0.1683
N10515 G3 X1.1969 Y0.1828 I-0.0187 J0. F30.
N10520 G1 X1.1537 Y0.2182
N10525 G2 X1.1471 Y0.236 I0.0119 J0.0145
N10530 G1 X1.1947 Y0.4994
N10535 X1.1951 Y0.5005
N10540 X1.196 Y0.5012
N10545 X1.2024 Y0.5048
N10550 X1.2031 Y0.5053
N10555 X1.2036 Y0.5061
N10560 X1.2037 Y0.507
N10565 Y0.5495 Z-0.6015 F10.
N10570 X0.8587 Y-0.3748 Z-0.6359
N10575 G2 X0.9563 Y-0.3614 Z-0.6394 I0.0977 J-0.3491
N10580 X1.2037 Y-0.4589 Z-0.6489 I0. J-0.3625
N10585 G1 Y0.5495 Z-0.6841
N10590 X0.8587 Y-0.3748 Z-0.7186
N10595 G2 X0.9563 Y-0.3614 Z-0.722 I0.0977 J-0.3491
N10600 X1.0409 Y-0.3713 Z-0.725 I0. J-0.3625
N10605 X1.2037 Y-0.4589 I-0.0845 J-0.3525 F15.
N10610 G1 Y0.5495
N10615 X0.8587 Y-0.3748
N10620 G2 X0.9563 Y-0.3614 I0.0977 J-0.3491
N10625 X1.0409 Y-0.3713 I0. J-0.3625
N10630 G1 X1.0445 Y-0.372 Z-0.7248 F30.
N10635 X1.0481 Y-0.3724 Z-0.7243
N10640 X1.0517 Y-0.3723 Z-0.7234
N10645 X1.0551 Y-0.372 Z-0.7221
N10650 X1.0584 Y-0.3713 Z-0.7206
N10655 X1.0614 Y-0.3705 Z-0.7187
N10660 X1.0642 Y-0.3694 Z-0.7165
N10665 X1.0667 Y-0.3683 Z-0.714
N10670 X1.0688 Y-0.3671 Z-0.7113
N10675 X1.0707 Y-0.3659 Z-0.7083
N10680 X1.0722 Y-0.3648 Z-0.7052
N10685 X1.0735 Y-0.3638 Z-0.7019
N10690 X1.0744 Y-0.363 Z-0.6984
N10695 X1.0751 Y-0.3624 Z-0.6948
N10700 X1.0755 Y-0.3621 Z-0.6912
N10705 X1.0756 Y-0.3619 Z-0.6875
N10710 G0 Z0.325
N10715 G1 X0.5537 Y-1.7606 F650.
N10720 G0 Z0.2394
N10725 G1 Z0.1375 F30.
N10730 X0.5535 Z0.1336 F10.
N10735 X0.553 Y-1.7605 Z0.1299
N10740 X0.552 Y-1.7604 Z0.1261
N10745 X0.5506 Y-1.7603 Z0.1225
N10750 X0.5489 Y-1.7602 Z0.1191
N10755 X0.5469 Y-1.7601 Z0.1159
N10760 X0.5445 Y-1.7599 Z0.1128
N10765 X0.5419 Y-1.7598 Z0.1101
N10770 X0.5389 Z0.1076
N10775 X0.5358 Z0.1054
N10780 X0.5324 Z0.1036
N10785 X0.5288 Y-1.76 Z0.1021
N10790 X0.5252 Y-1.7602 Z0.101
N10795 X0.5214 Y-1.7604 Z0.1003
N10800 X0.5176 Y-1.7608 Z0.1
N10805 G3 X0.5331 Y-1.7598 Z0.0615 I0.0192 J-0.1771
N10810 X0.5486 Y-1.7602 Z0.0229 I0.0037 J-0.1781
N10815 X0.5641 Y-1.7619 Z-0.0156 I-0.0119 J-0.1777
N10820 X0.5793 Y-1.7649 Z-0.0542 I-0.0273 J-0.176
N10825 X0.5942 Y-1.7693 Z-0.0927 I-0.0425 J-0.173
N10830 X0.6087 Y-1.7749 Z-0.1312 I-0.0575 J-0.1686
N10835 X0.6226 Y-1.7818 Z-0.1698 I-0.0719 J-0.163
N10840 X0.7037 Y-2.0002 Z-0.2 I-0.0859 J-0.1561
N10845 X0.4632 Y-1.9104 I-0.1202 J0.0449
N10850 G1 X0.4454 Y-1.9581 F30.
N10855 G3 X0.4535 Y-1.9698 I0.0081 J-0.003
N10860 G1 X0.5356
N10865 G3 X0.5484 Y-1.957 I0. J0.0128
N10870 G1 Y-1.7066
N10875 X0.5481 Y-1.7051
N10880 X0.5474 Y-1.7038
N10885 X0.5462 Y-1.7028
N10890 X0.5448 Y-1.7023
N10895 X0.5432
N10900 X0.5418 Y-1.7028
N10905 X0.5406 Y-1.7037
N10910 X0.5398 Y-1.7051
N10915 X0.4632 Y-1.9104
N10920 G2 X0.4061 Y-1.9517 I-0.0595 J0.0222
N10925 G3 X0.349 Y-1.9929 I0.0024 J-0.0635
N10930 G1 X0.3327 Y-2.0365
N10935 G3 X0.3406 Y-2.048 I0.0079 J-0.003
N10940 G1 X0.614
N10945 G3 X0.6266 Y-2.0354 I0. J0.0125
N10950 G1 X0.6248 Y-1.336
N10955 G2 X0.6516 Y-1.2189 I0.2685 J0.
N10960 X0.7255 Y-1.1243 I0.257 J-0.1244
N10965 G3 X0.7244 Y-1.1105 I-0.0054 J0.0065
N10970 G2 X0.6974 Y-1.0929 I0.2518 J0.4173
N10975 G3 X0.6833 Y-1.0973 I-0.0053 J-0.0076
N10980 G1 X0.349 Y-1.9929
N10985 G2 X0.2917 Y-2.0343 I-0.0597 J0.0223
N10990 G3 X0.2344 Y-2.0757 I0.0024 J-0.0636
N10995 G1 X0.2281 Y-2.0925
N11000 G2 X0.2116 Y-2.1264 I-0.185 J0.0691
N11005 G1 X0.7049
N11010 Y-1.336
N11015 G2 X0.9024 Y-1.1385 I0.1975 J0.
N11020 G1 X1.1937
N11025 Y-1.0109
N11030 G2 X0.9563 Y-1.0964 I-0.2374 J0.2871
N11035 X0.6565 Y-0.9449 I0. J0.3725
N11040 G1 X0.2344 Y-2.0757
N11045 X0.2335 Y-2.0774
N11050 X0.2323 Y-2.0788
N11055 X0.2307 Y-2.0799
N11060 X0.229 Y-2.0806
N11065 X0.2271 Y-2.0809
N11070 X0.2252 Y-2.0812
N11075 X0.2234 Y-2.082
N11080 X0.2219 Y-2.0831
N11085 X0.2207 Y-2.0845
N11090 X0.2198 Y-2.0862
N11095 X0.2187 Y-2.089 F15.
N11100 G2 X0.1928 Y-2.1364 I-0.1757 J0.0656
N11105 G1 X0.7149
N11110 Y-1.336
N11115 G2 X0.9024 Y-1.1485 I0.1875 J0.
N11120 G1 X1.2037
N11125 Y-0.9888
N11130 G2 X0.9563 Y-1.0864 I-0.2474 J0.265
N11135 X0.6538 Y-0.9235 I0. J0.3625
N11140 G1 X0.2198 Y-2.0862
N11145 G3 X0.238 Y-2.1115 I0.0176 J-0.0066 F30.
N11150 G1 X0.6106 Y-2.0983
N11155 X0.6133 Y-2.098
N11160 X0.616 Y-2.0973
N11165 X0.6185 Y-2.0962
N11170 G3 X0.6044 Y-2.1027 Z-0.2385 I-0.0817 J0.1583 F10.
N11175 X0.5898 Y-2.108 Z-0.2771 I-0.0676 J0.1648
N11180 X0.5747 Y-2.1119 Z-0.3156 I-0.053 J0.1701
N11185 X0.5594 Y-2.1146 Z-0.3542 I-0.0379 J0.174
N11190 X0.5439 Y-2.1159 Z-0.3927 I-0.0226 J0.1767
N11195 X0.7037 Y-2.0002 Z-0.4 I-0.0071 J0.178
N11200 X0.4632 Y-1.9104 I-0.1202 J0.0449
N11205 G1 X0.4454 Y-1.9581 F30.
N11210 G3 X0.4535 Y-1.9698 I0.0081 J-0.003
N11215 G1 X0.5356
N11220 G3 X0.5484 Y-1.957 I0. J0.0128
N11225 G1 Y-1.7066
N11230 X0.5481 Y-1.7051
N11235 X0.5474 Y-1.7038
N11240 X0.5462 Y-1.7028
N11245 X0.5448 Y-1.7023
N11250 X0.5432
N11255 X0.5418 Y-1.7028
N11260 X0.5406 Y-1.7037
N11265 X0.5398 Y-1.7051
N11270 X0.4632 Y-1.9104
N11275 G2 X0.4061 Y-1.9517 I-0.0595 J0.0222
N11280 G3 X0.349 Y-1.9929 I0.0024 J-0.0635
N11285 G1 X0.3327 Y-2.0365
N11290 G3 X0.3406 Y-2.048 I0.0079 J-0.003
N11295 G1 X0.614
N11300 G3 X0.6266 Y-2.0354 I0. J0.0125
N11305 G1 X0.6248 Y-1.336
N11310 G2 X0.6516 Y-1.2189 I0.2685 J0.
N11315 X0.7255 Y-1.1243 I0.257 J-0.1244
N11320 G3 X0.7244 Y-1.1105 I-0.0054 J0.0065
N11325 G2 X0.6974 Y-1.0929 I0.2518 J0.4173
N11330 G3 X0.6833 Y-1.0973 I-0.0053 J-0.0076
N11335 G1 X0.349 Y-1.9929
N11340 G2 X0.2917 Y-2.0343 I-0.0597 J0.0223
N11345 G3 X0.2344 Y-2.0757 I0.0024 J-0.0636
N11350 G1 X0.2281 Y-2.0925
N11355 G2 X0.2116 Y-2.1264 I-0.185 J0.0691
N11360 G1 X0.7049
N11365 Y-1.336
N11370 G2 X0.9024 Y-1.1385 I0.1975 J0.
N11375 G1 X1.1937
N11380 Y-1.0109
N11385 G2 X0.9563 Y-1.0964 I-0.2374 J0.2871
N11390 X0.6565 Y-0.9449 I0. J0.3725
N11395 G1 X0.2344 Y-2.0757
N11400 X0.2335 Y-2.0774
N11405 X0.2323 Y-2.0788
N11410 X0.2307 Y-2.0799
N11415 X0.229 Y-2.0806
N11420 X0.2271 Y-2.0809
N11425 X0.2252 Y-2.0812
N11430 X0.2234 Y-2.082
N11435 X0.2219 Y-2.0831
N11440 X0.2207 Y-2.0845
N11445 X0.2198 Y-2.0862
N11450 X0.2187 Y-2.089 F15.
N11455 G2 X0.1928 Y-2.1364 I-0.1757 J0.0656
N11460 G1 X0.7149
N11465 Y-1.336
N11470 G2 X0.9024 Y-1.1485 I0.1875 J0.
N11475 G1 X1.2037
N11480 Y-0.9888
N11485 G2 X0.9563 Y-1.0864 I-0.2474 J0.265
N11490 X0.6538 Y-0.9235 I0. J0.3625
N11495 G1 X0.2198 Y-2.0862
N11500 G3 X0.238 Y-2.1115 I0.0176 J-0.0066 F30.
N11505 G1 X0.6106 Y-2.0983
N11510 X0.6133 Y-2.098
N11515 X0.616 Y-2.0973
N11520 X0.6185 Y-2.0962
N11525 G3 X0.6044 Y-2.1027 Z-0.4385 I-0.0817 J0.1583 F10.
N11530 X0.5898 Y-2.108 Z-0.4771 I-0.0676 J0.1648
N11535 X0.5747 Y-2.1119 Z-0.5156 I-0.053 J0.1701
N11540 X0.5594 Y-2.1146 Z-0.5542 I-0.0379 J0.174
N11545 X0.5439 Y-2.1159 Z-0.5927 I-0.0226 J0.1767
N11550 X0.7037 Y-2.0002 Z-0.6 I-0.0071 J0.178
N11555 X0.4632 Y-1.9104 I-0.1202 J0.0449
N11560 G1 X0.4454 Y-1.9581 F30.
N11565 G3 X0.4535 Y-1.9698 I0.0081 J-0.003
N11570 G1 X0.5356
N11575 G3 X0.5484 Y-1.957 I0. J0.0128
N11580 G1 Y-1.7066
N11585 X0.5481 Y-1.7051
N11590 X0.5474 Y-1.7038
N11595 X0.5462 Y-1.7028
N11600 X0.5448 Y-1.7023
N11605 X0.5432
N11610 X0.5418 Y-1.7028
N11615 X0.5406 Y-1.7037
N11620 X0.5398 Y-1.7051
N11625 X0.4632 Y-1.9104
N11630 G2 X0.4061 Y-1.9517 I-0.0595 J0.0222
N11635 G3 X0.349 Y-1.9929 I0.0024 J-0.0635
N11640 G1 X0.3327 Y-2.0365
N11645 G3 X0.3406 Y-2.048 I0.0079 J-0.003
N11650 G1 X0.614
N11655 G3 X0.6266 Y-2.0354 I0. J0.0125
N11660 G1 X0.6248 Y-1.336
N11665 G2 X0.6516 Y-1.2189 I0.2685 J0.
N11670 X0.7255 Y-1.1243 I0.257 J-0.1244
N11675 G3 X0.7244 Y-1.1105 I-0.0054 J0.0065
N11680 G2 X0.6974 Y-1.0929 I0.2518 J0.4173
N11685 G3 X0.6833 Y-1.0973 I-0.0053 J-0.0076
N11690 G1 X0.349 Y-1.9929
N11695 G2 X0.2917 Y-2.0343 I-0.0597 J0.0223
N11700 G3 X0.2344 Y-2.0757 I0.0024 J-0.0636
N11705 G1 X0.2281 Y-2.0925
N11710 G2 X0.2116 Y-2.1264 I-0.185 J0.0691
N11715 G1 X0.7049
N11720 Y-1.336
N11725 G2 X0.9024 Y-1.1385 I0.1975 J0.
N11730 G1 X1.1937
N11735 Y-1.0109
N11740 G2 X0.9563 Y-1.0964 I-0.2374 J0.2871
N11745 X0.6565 Y-0.9449 I0. J0.3725
N11750 G1 X0.2344 Y-2.0757
N11755 X0.2335 Y-2.0774
N11760 X0.2323 Y-2.0788
N11765 X0.2307 Y-2.0799
N11770 X0.229 Y-2.0806
N11775 X0.2271 Y-2.0809
N11780 X0.2252 Y-2.0812
N11785 X0.2234 Y-2.082
N11790 X0.2219 Y-2.0831
N11795 X0.2207 Y-2.0845
N11800 X0.2198 Y-2.0862
N11805 X0.2187 Y-2.089 F15.
N11810 G2 X0.1928 Y-2.1364 I-0.1757 J0.0656
N11815 G1 X0.7149
N11820 Y-1.336
N11825 G2 X0.9024 Y-1.1485 I0.1875 J0.
N11830 G1 X1.2037
N11835 Y-0.9888
N11840 G2 X0.9563 Y-1.0864 I-0.2474 J0.265
N11845 X0.6538 Y-0.9235 I0. J0.3625
N11850 G1 X0.2198 Y-2.0862
N11855 G3 X0.2293 Y-2.095 I0.0065 J-0.0024 F30.
N11860 G1 X0.2559 Y-2.0825
N11865 X0.2568 Y-2.0819
N11870 X0.3409 Y-2.026
N11875 G3 X0.3349 Y-2.0283 I-0.0086 J0.0129
N11880 G1 X0.3527 Y-2.0254
N11885 G3 X0.3356 Y-2.0151 I-0.0025 J0.0152
N11890 X0.3313 Y-2.0001 Z-0.6385 I0.1688 J0.0568 F10.
N11895 X0.3283 Y-1.9849 Z-0.6771 I0.1731 J0.0419
N11900 X0.3266 Y-1.9694 Z-0.7156 I0.1761 J0.0267
N11905 X0.5044 Y-2.1364 Z-0.725 I0.1778 J0.0112
N11910 G1 X0.7149 F15.
N11915 Y-1.336
N11920 G2 X0.9024 Y-1.1485 I0.1875 J0.
N11925 G1 X1.2037
N11930 Y-0.9888
N11935 G2 X0.9563 Y-1.0864 I-0.2474 J0.265
N11940 X0.6538 Y-0.9235 I0. J0.3625
N11945 G1 X0.2187 Y-2.089
N11950 G2 X0.1928 Y-2.1364 I-0.1757 J0.0656
N11955 G1 X0.5044
N11960 X0.5081 Y-2.1362 Z-0.7248 F30.
N11965 X0.5117 Y-2.1356 Z-0.7243
N11970 X0.5151 Y-2.1348 Z-0.7234
N11975 X0.5184 Y-2.1336 Z-0.7221
N11980 X0.5214 Y-2.1323 Z-0.7206
N11985 X0.5242 Y-2.1307 Z-0.7187
N11990 X0.5266 Y-2.1291 Z-0.7165
N11995 X0.5288 Y-2.1274 Z-0.714
N12000 X0.5306 Y-2.1257 Z-0.7113
N12005 X0.5321 Y-2.1241 Z-0.7083
N12010 X0.5333 Y-2.1227 Z-0.7052
N12015 X0.5343 Y-2.1215 Z-0.7019
N12020 X0.535 Y-2.1205 Z-0.6984
N12025 X0.5356 Y-2.1197 Z-0.6948
N12030 X0.5359 Y-2.1193 Z-0.6912
N12035 X0.536 Y-2.1191 Z-0.6875
N12040 G0 Z0.325
N12045 G1 X-1.1322 Y-1.0305 F650.
N12050 G0 Z0.2394
N12055 G1 Z0.1375 F30.
N12060 X-1.1323 Y-1.0306 Z0.1336 F10.
N12065 X-1.1328 Y-1.0309 Z0.1299
N12070 X-1.1336 Y-1.0315 Z0.1261
N12075 X-1.1347 Y-1.0323 Z0.1225
N12080 X-1.1362 Y-1.0332 Z0.1191
N12085 X-1.1379 Y-1.0343 Z0.1159
N12090 X-1.1398 Y-1.0356 Z0.1128
N12095 X-1.1421 Y-1.0371 Z0.1101
N12100 X-1.1445 Y-1.0387 Z0.1076
N12105 X-1.1472 Y-1.0404 Z0.1054
N12110 X-1.1501 Y-1.0421 Z0.1036
N12115 X-1.1531 Y-1.044 Z0.1021
N12120 X-1.1563 Y-1.0458 Z0.101
N12125 X-1.1596 Y-1.0477 Z0.1003
N12130 X-1.1629 Y-1.0496 Z0.1
N12135 G2 X-1.2331 Y-1.0796 Z0.0973 I-0.1807 J0.3257
N12140 G3 X-1.2435 Y-1.0936 Z0.0967 I0.0044 J-0.0141
N12145 G1 X-1.2437 Y-1.1236 Z0.0956
N12150 G3 X-1.2292 Y-1.1385 Z0.0948 I0.0148 J-0.0001
N12155 G2 X-1.0447 Y-1.2749 Z0.0863 I-0.0033 J-0.1975
N12160 G3 X-0.9847 Y-1.2929 Z0.0837 I0.0363 J0.0118
N12165 G1 X-0.9234 Y-1.244 Z0.081
N12170 G3 X-0.9115 Y-1.2007 Z0.0793 I-0.0238 J0.0298
N12175 G1 X-1.0159 Y-0.9246 Z0.069
N12180 X-1.0164 Y-0.9237 Z0.0689
N12185 X-1.0171 Y-0.9231
N12190 X-1.0179 Y-0.9227
N12195 X-1.0246 Y-0.9206 Z0.0686
N12200 X-1.0259 Y-0.9205
N12205 X-1.0272 Y-0.9209 Z0.0685
N12210 X-1.0282 Y-0.9219
N12215 G2 X-1.2331 Y-1.0796 Z0.0593 I-0.3155 J0.1981
N12220 G3 X-1.2435 Y-1.0936 Z0.0586 I0.0044 J-0.0141
N12225 G1 X-1.2437 Y-1.1236 Z0.0576
N12230 G3 X-1.2292 Y-1.1385 Z0.0568 I0.0148 J-0.0001
N12235 G2 X-1.0447 Y-1.2749 Z0.0482 I-0.0033 J-0.1975
N12240 G3 X-0.9847 Y-1.2929 Z0.0457 I0.0363 J0.0118
N12245 G1 X-0.9234 Y-1.244 Z0.0429
N12250 G3 X-0.9115 Y-1.2007 Z0.0412 I-0.0238 J0.0298
N12255 G1 X-1.0159 Y-0.9246 Z0.0309
N12260 X-1.0164 Y-0.9237
N12265 X-1.0171 Y-0.9231
N12270 X-1.0179 Y-0.9227 Z0.0308
N12275 X-1.0246 Y-0.9206 Z0.0306
N12280 X-1.0259 Y-0.9205 Z0.0305
N12285 X-1.0272 Y-0.9209
N12290 X-1.0282 Y-0.9219 Z0.0304
N12295 G2 X-1.2331 Y-1.0796 Z0.0212 I-0.3155 J0.1981
N12300 G3 X-1.2435 Y-1.0936 Z0.0206 I0.0044 J-0.0141
N12305 G1 X-1.2437 Y-1.1236 Z0.0195
N12310 G3 X-1.2292 Y-1.1385 Z0.0187 I0.0148 J-0.0001
N12315 G2 X-1.0447 Y-1.2749 Z0.0102 I-0.0033 J-0.1975
N12320 G3 X-0.9847 Y-1.2929 Z0.0076 I0.0363 J0.0118
N12325 G1 X-0.9234 Y-1.244 Z0.0049
N12330 G3 X-0.9115 Y-1.2007 Z0.0032 I-0.0238 J0.0298
N12335 G1 X-1.0159 Y-0.9246 Z-0.0071
N12340 X-1.0164 Y-0.9237 Z-0.0072
N12345 X-1.0171 Y-0.9231
N12350 X-1.0179 Y-0.9227
N12355 X-1.0246 Y-0.9206 Z-0.0075
N12360 X-1.0259 Y-0.9205
N12365 X-1.0272 Y-0.9209 Z-0.0076
N12370 X-1.0282 Y-0.9219
N12375 G2 X-1.2331 Y-1.0796 Z-0.0168 I-0.3155 J0.1981
N12380 G3 X-1.2435 Y-1.0936 Z-0.0175 I0.0044 J-0.0141
N12385 G1 X-1.2437 Y-1.1236 Z-0.0185
N12390 G3 X-1.2292 Y-1.1385 Z-0.0193 I0.0148 J-0.0001
N12395 G2 X-1.0447 Y-1.2749 Z-0.0279 I-0.0033 J-0.1975
N12400 G3 X-0.9847 Y-1.2929 Z-0.0305 I0.0363 J0.0118
N12405 G1 X-0.9234 Y-1.244 Z-0.0332
N12410 G3 X-0.9115 Y-1.2007 Z-0.0349 I-0.0238 J0.0298
N12415 G1 X-1.0159 Y-0.9246 Z-0.0452
N12420 X-1.0164 Y-0.9237
N12425 X-1.0171 Y-0.9231
N12430 X-1.0179 Y-0.9227 Z-0.0453
N12435 X-1.0246 Y-0.9206 Z-0.0455
N12440 X-1.0259 Y-0.9205 Z-0.0456
N12445 X-1.0272 Y-0.9209
N12450 X-1.0282 Y-0.9219 Z-0.0457
N12455 G2 X-1.2331 Y-1.0796 Z-0.0549 I-0.3155 J0.1981
N12460 G3 X-1.2435 Y-1.0936 Z-0.0555 I0.0044 J-0.0141
N12465 G1 X-1.2437 Y-1.1236 Z-0.0566
N12470 G3 X-1.2292 Y-1.1385 Z-0.0574 I0.0148 J-0.0001
N12475 G2 X-1.0447 Y-1.2749 Z-0.0659 I-0.0033 J-0.1975
N12480 G3 X-0.9847 Y-1.2929 Z-0.0685 I0.0363 J0.0118
N12485 G1 X-0.9234 Y-1.244 Z-0.0713
N12490 G3 X-0.9115 Y-1.2007 Z-0.0729 I-0.0238 J0.0298
N12495 G1 X-1.0159 Y-0.9246 Z-0.0832
N12500 X-1.0164 Y-0.9237 Z-0.0833
N12505 X-1.0171 Y-0.9231
N12510 X-1.0179 Y-0.9227
N12515 X-1.0246 Y-0.9206 Z-0.0836
N12520 X-1.0259 Y-0.9205
N12525 X-1.0272 Y-0.9209 Z-0.0837
N12530 X-1.0282 Y-0.9219
N12535 G2 X-1.2331 Y-1.0796 Z-0.0929 I-0.3155 J0.1981
N12540 G3 X-1.2435 Y-1.0936 Z-0.0936 I0.0044 J-0.0141
N12545 G1 X-1.2437 Y-1.1236 Z-0.0946
N12550 G3 X-1.2292 Y-1.1385 Z-0.0955 I0.0148 J-0.0001
N12555 G2 X-1.0447 Y-1.2749 Z-0.104 I-0.0033 J-0.1975
N12560 G3 X-0.9847 Y-1.2929 Z-0.1066 I0.0363 J0.0118
N12565 G1 X-0.9234 Y-1.244 Z-0.1093
N12570 G3 X-0.9115 Y-1.2007 Z-0.111 I-0.0238 J0.0298
N12575 G1 X-1.0159 Y-0.9246 Z-0.1213
N12580 X-1.0164 Y-0.9237
N12585 X-1.0171 Y-0.9231 Z-0.1214
N12590 X-1.0179 Y-0.9227
N12595 X-1.0246 Y-0.9206 Z-0.1216
N12600 X-1.0259 Y-0.9205 Z-0.1217
N12605 X-1.0272 Y-0.9209
N12610 X-1.0282 Y-0.9219 Z-0.1218
N12615 G2 X-1.2331 Y-1.0796 Z-0.131 I-0.3155 J0.1981
N12620 G3 X-1.2435 Y-1.0936 Z-0.1317 I0.0044 J-0.0141
N12625 G1 X-1.2437 Y-1.1236 Z-0.1327
N12630 G3 X-1.2292 Y-1.1385 Z-0.1335 I0.0148 J-0.0001
N12635 G2 X-1.0447 Y-1.2749 Z-0.1421 I-0.0033 J-0.1975
N12640 G3 X-0.9847 Y-1.2929 Z-0.1446 I0.0363 J0.0118
N12645 G1 X-0.9234 Y-1.244 Z-0.1474
N12650 G3 X-0.9115 Y-1.2007 Z-0.149 I-0.0238 J0.0298
N12655 G1 X-1.0159 Y-0.9246 Z-0.1593
N12660 X-1.0164 Y-0.9237 Z-0.1594
N12665 X-1.0171 Y-0.9231
N12670 X-1.0179 Y-0.9227
N12675 X-1.0246 Y-0.9206 Z-0.1597
N12680 X-1.0259 Y-0.9205
N12685 X-1.0272 Y-0.9209 Z-0.1598
N12690 X-1.0282 Y-0.9219
N12695 G2 X-1.2331 Y-1.0796 Z-0.1691 I-0.3155 J0.1981
N12700 G3 X-1.2435 Y-1.0936 Z-0.1697 I0.0044 J-0.0141
N12705 G1 X-1.2437 Y-1.1236 Z-0.1708
N12710 G3 X-1.2292 Y-1.1385 Z-0.1716 I0.0148 J-0.0001
N12715 G2 X-1.0447 Y-1.2749 Z-0.1801 I-0.0033 J-0.1975
N12720 G3 X-0.9847 Y-1.2929 Z-0.1827 I0.0363 J0.0118
N12725 G1 X-0.9234 Y-1.244 Z-0.1854
N12730 G3 X-0.9115 Y-1.2007 Z-0.1871 I-0.0238 J0.0298
N12735 G1 X-1.0159 Y-0.9246 Z-0.1974
N12740 X-1.0164 Y-0.9237
N12745 X-1.0171 Y-0.9231 Z-0.1975
N12750 X-1.0179 Y-0.9227
N12755 X-1.0246 Y-0.9206 Z-0.1977
N12760 X-1.0259 Y-0.9205 Z-0.1978
N12765 X-1.0272 Y-0.9209
N12770 X-1.0282 Y-0.9219 Z-0.1979
N12775 G2 X-1.0643 Y-0.9703 Z-0.2 I-0.3155 J0.1981
N12780 G3 X-1.0768 Y-1.0741 I0.0691 J-0.061 F30.
N12785 X-1.0191 Y-1.1612 I0.4586 J0.2409
N12790 G1 X-1.0179 Y-1.1622
N12795 X-1.0165 Y-1.1627
N12800 X-1.0151
N12805 X-1.0137 Y-1.1622
N12810 X-1.0125 Y-1.1613
N12815 X-1.0118 Y-1.16
N12820 X-1.0116 Y-1.1585
N12825 X-1.0118 Y-1.1571
N12830 X-1.0429 Y-1.075
N12835 G3 X-1.0564 Y-1.0714 I-0.0081 J-0.0031
N12840 G2 X-1.0823 Y-1.0913 I-0.2713 J0.327
N12845 G3 X-1.082 Y-1.1048 I0.0047 J-0.0066
N12850 G2 X-1.0191 Y-1.1612 I-0.1505 J-0.2312
N12855 G1 X-1.0179 Y-1.1622 Z-0.1999
N12860 X-1.0165 Y-1.1627
N12865 X-1.015 Z-0.1997
N12870 X-1.0136 Y-1.1622 Z-0.1995
N12875 X-1.0125 Y-1.1612 Z-0.1992
N12880 X-1.0118 Y-1.1599 Z-0.1989
N12885 X-1.0116 Y-1.1585 Z-0.1985
N12890 X-1.0118 Y-1.1571 Z-0.1981
N12895 X-1.0134 Y-1.153 Z-0.1963
N12900 X-1.0148 Y-1.1492 Z-0.194
N12905 X-1.0161 Y-1.1457 Z-0.1912
N12910 X-1.0173 Y-1.1425 Z-0.188
N12915 X-1.0184 Y-1.1397 Z-0.1844
N12920 X-1.0193 Y-1.1374 Z-0.1804
N12925 X-1.02 Y-1.1356 Z-0.1762
N12930 X-1.0205 Y-1.1342 Z-0.1718
N12935 X-1.0208 Y-1.1334 Z-0.1672
N12940 X-1.0209 Y-1.1331 Z-0.1625
N12945 G0 Z0.325
N12950 G1 X-0.7628 Y-2.087 F650.
N12955 G0 Z0.2394
N12960 G1 Z0.1375 F30.
N12965 X-0.7627 Y-2.0869 Z0.1336 F10.
N12970 X-0.7622 Y-2.0866 Z0.1299
N12975 X-0.7614 Y-2.086 Z0.1261
N12980 X-0.7603 Y-2.0852 Z0.1225
N12985 X-0.759 Y-2.0842 Z0.1191
N12990 X-0.7574 Y-2.0829 Z0.1159
N12995 X-0.7555 Y-2.0814 Z0.1128
N13000 X-0.7534 Y-2.0798 Z0.1101
N13005 X-0.7512 Y-2.0779 Z0.1076
N13010 X-0.7488 Y-2.0758 Z0.1054
N13015 X-0.7463 Y-2.0735 Z0.1036
N13020 X-0.7437 Y-2.0711 Z0.1021
N13025 X-0.7411 Y-2.0685 Z0.101
N13030 X-0.7384 Y-2.0658 Z0.1003
N13035 X-0.7358 Y-2.0631 Z0.1
N13040 G3 X-0.7468 Y-2.074 Z0.0615 I-0.131 J0.1206
N13045 X-0.7587 Y-2.084 Z0.0229 I-0.12 J0.1316
N13050 X-0.7715 Y-2.0929 Z-0.0156 I-0.1081 J0.1416
N13055 X-0.785 Y-2.1006 Z-0.0542 I-0.0954 J0.1505
N13060 X-0.7991 Y-2.1071 Z-0.0927 I-0.0819 J0.1582
N13065 X-0.8137 Y-2.1124 Z-0.1312 I-0.0678 J0.1647
N13070 X-0.8287 Y-2.1164 Z-0.1698 I-0.0532 J0.17
N13075 X-1.0335 Y-2.0054 Z-0.2 I-0.0381 J0.174
N13080 X-0.807 Y-1.9198 I0.1132 J0.0428
N13085 G1 X-0.8699 Y-1.7533 F30.
N13090 X-0.8707 Y-1.752
N13095 X-0.8719 Y-1.751
N13100 X-0.8734 Y-1.7505
N13105 X-0.8749
N13110 X-0.8763 Y-1.7511
N13115 X-0.8775 Y-1.7521
N13120 X-0.8783 Y-1.7534
N13125 X-0.8785 Y-1.7549
N13130 Y-1.9329
N13135 Y-1.957
N13140 G3 X-0.8657 Y-1.9698 I0.0128 J0.
N13145 G1 X-0.8006
N13150 G3 X-0.7925 Y-1.9582 I0. J0.0086
N13155 G1 X-0.807 Y-1.9198
N13160 G2 X-0.7912 Y-1.8511 I0.0594 J0.0225
N13165 G3 X-0.7754 Y-1.7825 I-0.0436 J0.0462
N13170 G1 X-0.9487 Y-1.3241
N13175 X-0.9495 Y-1.3228
N13180 X-0.9506 Y-1.3219
N13185 X-0.952 Y-1.3214
N13190 X-0.9535
N13195 X-0.9549 Y-1.322
N13200 X-0.956 Y-1.3229
N13205 X-0.9567 Y-1.3242
N13210 X-0.9569 Y-1.3257
N13215 X-0.9566 Y-1.3308
N13220 X-0.9564 Y-1.336
N13225 X-0.9567 Y-2.0354
N13230 G3 X-0.9442 Y-2.048 I0.0125 J0.
N13235 G1 X-0.6872
N13240 G3 X-0.6793 Y-2.0365 I0. J0.0084
N13245 G1 X-0.7754 Y-1.7825
N13250 G2 X-0.7595 Y-1.7136 I0.0596 J0.0225
N13255 G3 X-0.7436 Y-1.6448 I-0.0437 J0.0463
N13260 G1 X-1.0213 Y-0.9105
N13265 G2 X-1.3437 Y-1.0964 I-0.3224 J0.1866
N13270 X-1.5561 Y-1.0299 I0. J0.3725
N13275 G1 Y-1.1385
N13280 X-1.3423
N13285 X-1.2326
N13290 G2 X-1.0351 Y-1.336 I0. J-0.1975
N13295 G1 Y-2.0235
N13300 Y-2.1264
N13305 X-0.5579
N13310 G2 X-0.574 Y-2.0933 I0.1686 J0.1029
N13315 G1 X-0.7436 Y-1.6448
N13320 X-0.7441 Y-1.6429
N13325 Y-1.641
N13330 X-0.7437 Y-1.6392
N13335 X-0.7428 Y-1.6375
N13340 X-0.7416 Y-1.636
N13345 X-0.7404 Y-1.6345
N13350 X-0.7395 Y-1.6328
N13355 X-0.7391 Y-1.631
N13360 Y-1.6291
N13365 X-0.7396 Y-1.6272
N13370 X-1.0197 Y-0.8864 F15.
N13375 G2 X-1.3437 Y-1.0864 I-0.324 J0.1626
N13380 X-1.5661 Y-1.0101 I0. J0.3625
N13385 G1 Y-1.1485
N13390 X-1.2326
N13395 G2 X-1.0451 Y-1.336 I0. J-0.1875
N13400 G1 Y-2.0235
N13405 Y-2.1364
N13410 X-0.539
N13415 G2 X-0.5647 Y-2.0898 I0.1497 J0.1129
N13420 G1 X-0.7396 Y-1.6272
N13425 G3 X-0.7702 Y-1.6204 I-0.0175 J-0.0066 F30.
N13430 G1 X-1.0282 Y-1.8705
N13435 X-1.0299 Y-1.8725
N13440 X-1.0314 Y-1.8747
N13445 X-1.0326 Y-1.8771
N13450 G3 X-1.0262 Y-1.8629 Z-0.2385 I0.1657 J-0.0653 F10.
N13455 X-1.0187 Y-1.8493 Z-0.2771 I0.1594 J-0.0795
N13460 X-1.01 Y-1.8364 Z-0.3156 I0.1518 J-0.0931
N13465 X-1.0002 Y-1.8243 Z-0.3542 I0.1432 J-0.106
N13470 X-0.9894 Y-1.8132 Z-0.3927 I0.1334 J-0.1181
N13475 X-1.0335 Y-2.0054 Z-0.4 I0.1226 J-0.1292
N13480 X-0.807 Y-1.9198 I0.1132 J0.0428
N13485 G1 X-0.8699 Y-1.7533 F30.
N13490 X-0.8707 Y-1.752
N13495 X-0.8719 Y-1.751
N13500 X-0.8734 Y-1.7505
N13505 X-0.8749
N13510 X-0.8763 Y-1.7511
N13515 X-0.8775 Y-1.7521
N13520 X-0.8783 Y-1.7534
N13525 X-0.8785 Y-1.7549
N13530 Y-1.957
N13535 G3 X-0.8657 Y-1.9698 I0.0128 J0.
N13540 G1 X-0.8006
N13545 G3 X-0.7925 Y-1.9582 I0. J0.0086
N13550 G1 X-0.807 Y-1.9198
N13555 G2 X-0.7912 Y-1.8511 I0.0594 J0.0225
N13560 G3 X-0.7754 Y-1.7825 I-0.0436 J0.0462
N13565 G1 X-0.9487 Y-1.3241
N13570 X-0.9495 Y-1.3228
N13575 X-0.9506 Y-1.3219
N13580 X-0.952 Y-1.3214
N13585 X-0.9535
N13590 X-0.9549 Y-1.322
N13595 X-0.956 Y-1.3229
N13600 X-0.9567 Y-1.3242
N13605 X-0.9569 Y-1.3257
N13610 X-0.9566 Y-1.3308
N13615 X-0.9564 Y-1.336
N13620 X-0.9567 Y-2.0354
N13625 G3 X-0.9442 Y-2.048 I0.0125 J0.
N13630 G1 X-0.6872
N13635 G3 X-0.6793 Y-2.0365 I0. J0.0084
N13640 G1 X-0.7754 Y-1.7825
N13645 X-0.7768 Y-1.7791 Z-0.3998
N13650 X-0.7786 Y-1.7759 Z-0.3993
N13655 X-0.7806 Y-1.773 Z-0.3984
N13660 X-0.7829 Y-1.7704 Z-0.3971
N13665 X-0.7852 Y-1.768 Z-0.3956
N13670 X-0.7876 Y-1.766 Z-0.3937
N13675 X-0.79 Y-1.7643 Z-0.3915
N13680 X-0.7924 Y-1.7629 Z-0.389
N13685 X-0.7946 Y-1.7618 Z-0.3863
N13690 X-0.7966 Y-1.7609 Z-0.3833
N13695 X-0.7984 Y-1.7602 Z-0.3802
N13700 X-0.7999 Y-1.7598 Z-0.3769
N13705 X-0.8011 Y-1.7594 Z-0.3734
N13710 X-0.8019 Y-1.7592 Z-0.3698
N13715 X-0.8025 Y-1.7591 Z-0.3662
N13720 X-0.8026 Z-0.3625
N13725 Z-0.0625
N13730 X-1.0489 Y-1.2633
N13735 X-1.0488 Y-1.2635 Z-0.066 F10.
N13740 X-1.0487 Y-1.2639 Z-0.0694
N13745 X-1.0484 Y-1.2647 Z-0.0728
N13750 X-1.048 Y-1.2657 Z-0.0761
N13755 X-1.0475 Y-1.267 Z-0.0793
N13760 X-1.0469 Y-1.2686 Z-0.0823
N13765 X-1.0462 Y-1.2705 Z-0.0852
N13770 X-1.0455 Y-1.2726 Z-0.0879
N13775 X-1.0447 Y-1.2749 Z-0.0903
N13780 X-1.0437 Y-1.2776 Z-0.0927
N13785 X-1.0424 Y-1.2805 Z-0.0948
N13790 X-1.0408 Y-1.2834 Z-0.0965
N13795 X-1.0388 Y-1.2862 Z-0.0979
N13800 X-1.0365 Y-1.289 Z-0.099
N13805 X-1.0339 Y-1.2916 Z-0.0997
N13810 X-1.0309 Y-1.2939 Z-0.1
N13815 G3 X-0.9847 Y-1.2929 Z-0.1017 I0.0225 J0.0308
N13820 G1 X-0.9234 Y-1.244 Z-0.1045
N13825 G3 X-0.9115 Y-1.2007 Z-0.1062 I-0.0238 J0.0298
N13830 G1 X-1.0159 Y-0.9246 Z-0.1165
N13835 X-1.0164 Y-0.9237
N13840 X-1.0171 Y-0.9231
N13845 X-1.0179 Y-0.9227 Z-0.1166
N13850 X-1.0246 Y-0.9206 Z-0.1168
N13855 X-1.0259 Y-0.9205
N13860 X-1.0272 Y-0.9209 Z-0.1169
N13865 X-1.0282 Y-0.9219
N13870 G2 X-1.2331 Y-1.0796 Z-0.1262 I-0.3155 J0.1981
N13875 G3 X-1.2435 Y-1.0936 Z-0.1268 I0.0044 J-0.0141
N13880 G1 X-1.2437 Y-1.1236 Z-0.1279
N13885 G3 X-1.2292 Y-1.1385 Z-0.1287 I0.0148 J-0.0001
N13890 G2 X-1.0447 Y-1.2749 Z-0.1372 I-0.0033 J-0.1975
N13895 G3 X-0.9847 Y-1.2929 Z-0.1398 I0.0363 J0.0118
N13900 G1 X-0.9234 Y-1.244 Z-0.1425
N13905 G3 X-0.9115 Y-1.2007 Z-0.1442 I-0.0238 J0.0298
N13910 G1 X-1.0159 Y-0.9246 Z-0.1545
N13915 X-1.0164 Y-0.9237
N13920 X-1.0171 Y-0.9231 Z-0.1546
N13925 X-1.0179 Y-0.9227
N13930 X-1.0246 Y-0.9206 Z-0.1549
N13935 X-1.0259 Y-0.9205
N13940 X-1.0272 Y-0.9209 Z-0.155
N13945 X-1.0282 Y-0.9219
N13950 G2 X-1.2331 Y-1.0796 Z-0.1642 I-0.3155 J0.1981
N13955 G3 X-1.2435 Y-1.0936 Z-0.1649 I0.0044 J-0.0141
N13960 G1 X-1.2437 Y-1.1236 Z-0.1659
N13965 G3 X-1.2292 Y-1.1385 Z-0.1667 I0.0148 J-0.0001
N13970 G2 X-1.0447 Y-1.2749 Z-0.1753 I-0.0033 J-0.1975
N13975 G3 X-0.9847 Y-1.2929 Z-0.1778 I0.0363 J0.0118
N13980 G1 X-0.9234 Y-1.244 Z-0.1806
N13985 G3 X-0.9115 Y-1.2007 Z-0.1823 I-0.0238 J0.0298
N13990 G1 X-1.0159 Y-0.9246 Z-0.1926
N13995 X-1.0164 Y-0.9237
N14000 X-1.0171 Y-0.9231
N14005 X-1.0179 Y-0.9227 Z-0.1927
N14010 X-1.0246 Y-0.9206 Z-0.1929
N14015 X-1.0259 Y-0.9205 Z-0.193
N14020 X-1.0272 Y-0.9209
N14025 X-1.0282 Y-0.9219 Z-0.1931
N14030 G2 X-1.2331 Y-1.0796 Z-0.2023 I-0.3155 J0.1981
N14035 G3 X-1.2435 Y-1.0936 Z-0.2029 I0.0044 J-0.0141
N14040 G1 X-1.2437 Y-1.1236 Z-0.204
N14045 G3 X-1.2292 Y-1.1385 Z-0.2048 I0.0148 J-0.0001
N14050 G2 X-1.0447 Y-1.2749 Z-0.2133 I-0.0033 J-0.1975
N14055 G3 X-0.9847 Y-1.2929 Z-0.2159 I0.0363 J0.0118
N14060 G1 X-0.9234 Y-1.244 Z-0.2186
N14065 G3 X-0.9115 Y-1.2007 Z-0.2203 I-0.0238 J0.0298
N14070 G1 X-1.0159 Y-0.9246 Z-0.2306
N14075 X-1.0164 Y-0.9237 Z-0.2307
N14080 X-1.0171 Y-0.9231
N14085 X-1.0179 Y-0.9227
N14090 X-1.0246 Y-0.9206 Z-0.231
N14095 X-1.0259 Y-0.9205
N14100 X-1.0272 Y-0.9209 Z-0.2311
N14105 X-1.0282 Y-0.9219
N14110 G2 X-1.2331 Y-1.0796 Z-0.2403 I-0.3155 J0.1981
N14115 G3 X-1.2435 Y-1.0936 Z-0.241 I0.0044 J-0.0141
N14120 G1 X-1.2437 Y-1.1236 Z-0.242
N14125 G3 X-1.2292 Y-1.1385 Z-0.2428 I0.0148 J-0.0001
N14130 G2 X-1.0447 Y-1.2749 Z-0.2514 I-0.0033 J-0.1975
N14135 G3 X-0.9847 Y-1.2929 Z-0.254 I0.0363 J0.0118
N14140 G1 X-0.9234 Y-1.244 Z-0.2567
N14145 G3 X-0.9115 Y-1.2007 Z-0.2584 I-0.0238 J0.0298
N14150 G1 X-1.0159 Y-0.9246 Z-0.2687
N14155 X-1.0164 Y-0.9237
N14160 X-1.0171 Y-0.9231
N14165 X-1.0179 Y-0.9227 Z-0.2688
N14170 X-1.0246 Y-0.9206 Z-0.269
N14175 X-1.0259 Y-0.9205 Z-0.2691
N14180 X-1.0272 Y-0.9209
N14185 X-1.0282 Y-0.9219 Z-0.2692
N14190 G2 X-1.2331 Y-1.0796 Z-0.2784 I-0.3155 J0.1981
N14195 G3 X-1.2435 Y-1.0936 Z-0.279 I0.0044 J-0.0141
N14200 G1 X-1.2437 Y-1.1236 Z-0.2801
N14205 G3 X-1.2292 Y-1.1385 Z-0.2809 I0.0148 J-0.0001
N14210 G2 X-1.0447 Y-1.2749 Z-0.2894 I-0.0033 J-0.1975
N14215 G3 X-0.9847 Y-1.2929 Z-0.292 I0.0363 J0.0118
N14220 G1 X-0.9234 Y-1.244 Z-0.2948
N14225 G3 X-0.9115 Y-1.2007 Z-0.2964 I-0.0238 J0.0298
N14230 G1 X-1.0159 Y-0.9246 Z-0.3067
N14235 X-1.0164 Y-0.9237 Z-0.3068
N14240 X-1.0171 Y-0.9231
N14245 X-1.0179 Y-0.9227
N14250 X-1.0246 Y-0.9206 Z-0.3071
N14255 X-1.0259 Y-0.9205
N14260 X-1.0272 Y-0.9209 Z-0.3072
N14265 X-1.0282 Y-0.9219
N14270 G2 X-1.2331 Y-1.0796 Z-0.3164 I-0.3155 J0.1981
N14275 G3 X-1.2435 Y-1.0936 Z-0.3171 I0.0044 J-0.0141
N14280 G1 X-1.2437 Y-1.1236 Z-0.3181
N14285 G3 X-1.2292 Y-1.1385 Z-0.3189 I0.0148 J-0.0001
N14290 G2 X-1.0447 Y-1.2749 Z-0.3275 I-0.0033 J-0.1975
N14295 G3 X-0.9847 Y-1.2929 Z-0.3301 I0.0363 J0.0118
N14300 G1 X-0.9234 Y-1.244 Z-0.3328
N14305 G3 X-0.9115 Y-1.2007 Z-0.3345 I-0.0238 J0.0298
N14310 G1 X-1.0159 Y-0.9246 Z-0.3448
N14315 X-1.0164 Y-0.9237
N14320 X-1.0171 Y-0.9231 Z-0.3449
N14325 X-1.0179 Y-0.9227
N14330 X-1.0246 Y-0.9206 Z-0.3451
N14335 X-1.0259 Y-0.9205 Z-0.3452
N14340 X-1.0272 Y-0.9209
N14345 X-1.0282 Y-0.9219 Z-0.3453
N14350 G2 X-1.2331 Y-1.0796 Z-0.3545 I-0.3155 J0.1981
N14355 G3 X-1.2435 Y-1.0936 Z-0.3551 I0.0044 J-0.0141
N14360 G1 X-1.2437 Y-1.1236 Z-0.3562
N14365 G3 X-1.2292 Y-1.1385 Z-0.357 I0.0148 J-0.0001
N14370 G2 X-1.0447 Y-1.2749 Z-0.3656 I-0.0033 J-0.1975
N14375 G3 X-0.9847 Y-1.2929 Z-0.3681 I0.0363 J0.0118
N14380 G1 X-0.9234 Y-1.244 Z-0.3709
N14385 G3 X-0.9115 Y-1.2007 Z-0.3725 I-0.0238 J0.0298
N14390 G1 X-1.0159 Y-0.9246 Z-0.3828
N14395 X-1.0164 Y-0.9237 Z-0.3829
N14400 X-1.0171 Y-0.9231
N14405 X-1.0179 Y-0.9227
N14410 X-1.0246 Y-0.9206 Z-0.3832
N14415 X-1.0259 Y-0.9205
N14420 X-1.0272 Y-0.9209 Z-0.3833
N14425 X-1.0282 Y-0.9219
N14430 G2 X-1.2331 Y-1.0796 Z-0.3926 I-0.3155 J0.1981
N14435 G3 X-1.2435 Y-1.0936 Z-0.3932 I0.0044 J-0.0141
N14440 G1 X-1.2437 Y-1.1236 Z-0.3943
N14445 G3 X-1.2292 Y-1.1385 Z-0.3951 I0.0148 J-0.0001
N14450 G2 X-1.1003 Y-1.1893 Z-0.4 I-0.0033 J-0.1975
N14455 G3 X-1.0298 Y-1.1647 I0.0285 J0.0316 F30.
N14460 X-1.0371 Y-1.0903 I-0.1411 J0.0237
N14465 G1 X-1.0429 Y-1.075
N14470 G3 X-1.0564 Y-1.0714 I-0.0081 J-0.0031
N14475 G2 X-1.0823 Y-1.0913 I-0.2713 J0.327
N14480 G3 X-1.082 Y-1.1048 I0.0047 J-0.0066
N14485 G2 X-1.0191 Y-1.1612 I-0.1505 J-0.2312
N14490 G1 X-1.0179 Y-1.1622
N14495 X-1.0165 Y-1.1627
N14500 X-1.0151
N14505 X-1.0137 Y-1.1622
N14510 X-1.0125 Y-1.1613
N14515 X-1.0118 Y-1.16
N14520 X-1.0116 Y-1.1585
N14525 X-1.0118 Y-1.1571
N14530 X-1.0371 Y-1.0903
N14535 G2 X-1.0212 Y-1.0215 I0.0596 J0.0225
N14540 G3 X-1.0053 Y-0.9526 I-0.0437 J0.0463
N14545 G1 X-1.0213 Y-0.9105
N14550 G2 X-1.3437 Y-1.0964 I-0.3224 J0.1866
N14555 X-1.5561 Y-1.0299 I0. J0.3725
N14560 G1 Y-1.1385
N14565 X-1.3423
N14570 X-1.2326
