%
O01001
(Using high feed G1 F650. instead of G0.)
(T4 D=0.75 CR=0. TAPER=45deg - ZMIN=-0.185 - chamfer mill)
(T5 D=0.242 CR=0. TAPER=118deg - ZMIN=-0.79 - drill)
(T6 D=0.2505 CR=0. - ZMIN=-0.54 - reamer)
(T7 D=0.228 CR=0. TAPER=118deg - ZMIN=-0.94 - drill)
(T8 D=0.25 CR=0. - ZMIN=-0.74 - right hand tap)
(T9 D=0.177 CR=0. TAPER=118deg - ZMIN=-0.94 - drill)
(T10 D=0.19 CR=0. - ZMIN=-0.64 - right hand tap)
N10 G90 G94 G17
N15 G20
N20 G53 G0 Z0.

(Drill3)
N25 T4 M6
(3/4" Chamfer)
N30 S6000 M3
N35 G54
N40 M8
N45 G1 X4.3 Y3.5 F650.
N50 G0 G43 Z0.56 H4
N55 T5
N60 G0 Z0.16
N65 G98 G81 X4.3 Y3.5 Z-0.185 R0.16 F15.
N70 Y-3.5
N75 X1.777 Y-1.529
N80 X-1.777 Y2.129
N85 X-4.3 Y3.5
N90 Y-3.5
N95 G80
N100 G0 Z0.56

(Drill4)
N105 G0 Z0.6
N110 G1 X-3. Y-4.1753 F650.
N115 G0 Z0.2
N120 G98 G81 X-3. Y-4.1753 Z-0.175 R0.16 F15.
N125 X2.5
N130 X4.1753 Y-2.5
N135 G80
N140 G0 Z0.6

(Drill5)
N145 G1 X0. Y-3.85 F650.
N150 G0 Z0.6
N155 Z0.2
N160 G98 G81 X0. Y-3.85 Z-0.15 R0.16 F15.
N165 X3.275 Y-2.4665
N170 Y0.
N175 Y2.4665
N180 X0. Y3.85
N185 X-3.275 Y2.4665
N190 Y0.
N195 Y-2.4665
N200 G80
N205 G0 Z0.6
N210 M9
N215 M5
N220 G53 G0 Z0.

(Drill6)
N225 M1
N230 T5 M6
(C" Drill)
N235 S4735 M3
N240 G54
N245 M8
N250 G1 X-3. Y-4.1753 F650.
N255 G0 G43 Z0.36 H5
N260 T6
N265 G0 Z0.2
N270 G98 G83 X-3. Y-4.1753 Z-0.79 R0.16 Q0.0605 F17.189
N275 X2.5
N280 X4.1753 Y-2.5
N285 G80
N290 G0 Z0.36
N295 M9
N300 M5
N305 G53 G0 Z0.

(Drill7)
N310 M1
N315 T6 M6
(.2505 ream)
N320 S800 M3
N325 G54
N330 M8
N335 G1 X-3. Y-4.1753 F650.
N340 G0 G43 Z0.6 H6
N345 T7
N350 G0 Z0.2
N355 Z0.16
N360 G1 Z-0.54 F10.
N365 Z0.16 F40.
N370 G0 Z0.2
N375 X2.5
N380 Z0.16
N385 G1 Z-0.54 F10.
N390 Z0.16 F40.
N395 G0 Z0.2
N400 G1 X4.1753 Y-2.5 F650.
N405 G0 Z0.16
N410 G1 Z-0.54 F10.
N415 Z0.16 F40.
N420 G0 Z0.2
N425 Z0.6
N430 M9
N435 M5
N440 G53 G0 Z0.

(Drill8)
N445 M1
N450 T7 M6
(#1 drill)
N455 S5026 M3
N460 G54
N465 M8
N470 G1 X4.3 Y3.5 F650.
N475 G0 G43 Z0.6 H7
N480 T8
N485 G0 Z0.2
N490 G98 G83 X4.3 Y3.5 Z-0.94 R0.16 Q0.057 F17.189
N495 Y-3.5
N500 X1.777 Y-1.529
N505 X-1.777 Y2.129
N510 X-4.3 Y3.5
N515 Y-3.5
N520 G80
N525 G0 Z0.6
N530 M9
N535 M5
N540 G53 G0 Z0.

(Drill9)
N545 M1
N550 T8 M6
(1/4-20 tap)
N555 S500 M3
N560 G54
N565 M8
N570 G1 X-4.3 Y-3.5 F650.
N575 G0 G43 Z0.6 H8
N580 T9
N585 G0 Z0.2
N590 G98 G84 X-4.3 Y-3.5 Z-0.74 R0.16 F25.
N595 Y3.5
N600 X-1.777 Y2.129
N605 X1.777 Y-1.529
N610 X4.3 Y-3.5
N615 Y3.5
N620 G80
N625 G0 Z0.6
N630 M9
N635 M5
N640 G53 G0 Z0.

(Drill10)
N645 M1
N650 T9 M6
(.177 drill)
N655 S6474 M3
N660 G54
N665 M8
N670 G1 X0. Y-3.85 F650.
N675 G0 G43 Z0.6 H9
N680 T10
N685 G0 Z0.2
N690 G98 G83 X0. Y-3.85 Z-0.94 R0.16 Q0.0443 F17.189
N695 X3.275 Y-2.4665
N700 Y0.
N705 Y2.4665
N710 X0. Y3.85
N715 X-3.275 Y2.4665
N720 Y0.
N725 Y-2.4665
N730 G80
N735 G0 Z0.6
N740 M9
N745 M5
N750 G53 G0 Z0.

(Drill11)
N755 M1
N760 T10 M6
(10-32 tap)
N765 S500 M3
N770 G54
N775 M8
N780 G1 X0. Y-3.85 F650.
N785 G0 G43 Z0.6 H10
N790 T4
N795 G0 Z0.2
N800 G98 G84 X0. Y-3.85 Z-0.64 R0.16 F15.625
N805 X3.275 Y-2.4665
N810 Y0.
N815 Y2.4665
N820 X0. Y3.85
N825 X-3.275 Y2.4665
N830 Y0.
N835 Y-2.4665
N840 G80
N845 G0 Z0.6

N850 M5
N855 M9
N860 G53 G0 Z0.
N865 G53 G0 X0. Y0.
N870 M30

%
