%
O01001
(Using high feed G1 F650. instead of G0.)
(T11 D=0.201 CR=0. TAPER=118deg - ZMIN=-0.2579 - drill)
(T12 D=0.25 CR=0. - ZMIN=-0.192 - flat end mill)
(T14 D=0.125 CR=0. - ZMIN=-0.192 - flat end mill)
(T15 D=0.078 CR=0. - ZMIN=-0.192 - flat end mill)
(T16 D=0.047 CR=0. - ZMIN=-0.192 - flat end mill)
N10 G90 G94 G17
N15 G20
N20 G53 G0 Z0.

(Drill1)
N25 T11 M6
N30 S5701 M3
N35 G54
N40 G53 G0 X0. Y0.
N45 M11
N50 M13
N55 G0 A0. B0.
N60 M10
N65 M12
N70 M8
N75 G1 X0. Y-3.85 F650.
N80 G0 G43 Z0.6 H11
N85 T12
N90 G0 Z0.2
N95 G98 G81 X0. Y-3.85 Z-0.2579 R0.2 F17.189
N100 X3.275 Y-2.466
N105 Y0.
N110 Y2.466
N115 X0. Y3.85
N120 X-3.275 Y2.466
N125 Y0.
N130 Y-2.466
N135 G80
N140 G0 Z0.6
N145 M9
N150 M5
N155 G53 G0 Z0.

(2D Pocket6)
N160 M1
N165 T12 M6
N170 S8000 M3
N175 G54
N180 M11
N185 M13
N190 G0 A0. B0.
N195 M10
N200 M12
N205 M8
N210 G1 X-0.1321 Y0.1317 F650.
N215 G0 G43 Z0.6 H12
N220 T14
N225 G0 Z0.2
N230 G1 Z0.125 F10.
N235 X-0.1317 Y0.1306 Z0.1174
N240 X-0.1306 Y0.1274 Z0.1106
N245 X-0.1287 Y0.1224 Z0.1051
N250 X-0.1259 Y0.1163 Z0.1014
N255 X-0.1224 Y0.1097 Z0.1
N260 G3 X-0.1271 Y0.1189 Z0.0743 I0.1032 J0.0588
N265 X-0.131 Y0.1285 Z0.0486 I0.1079 J0.0496
N270 X-0.1341 Y0.1384 Z0.0229 I0.1118 J0.04
N275 X-0.1363 Y0.1485 Z-0.0028 I0.1149 J0.0301
N280 X-0.1376 Y0.1588 Z-0.0285 I0.1171 J0.02
N285 X-0.1379 Y0.1691 Z-0.0542 I0.1184 J0.0097
N290 X-0.1374 Y0.1795 Z-0.0799 I0.1187 J-0.0007
N295 X-0.136 Y0.1897 Z-0.1055 I0.1182 J-0.011
N300 X-0.1337 Y0.1998 Z-0.1312 I0.1168 J-0.0213
N305 X-0.1306 Y0.2097 Z-0.1569 I0.1145 J-0.0314
N310 X-0.1265 Y0.2193 Z-0.1826 I0.1114 J-0.0412
N315 X0.0099 Y0.0533 Z-0.192 I0.1073 J-0.0508
N320 G2 X0.0778 Y0.0673 I0.1901 J-0.7533 F20.
N325 G3 X0.0823 Y0.0792 I-0.0011 J0.0072
N330 G1 X0.0078 Y0.1693
N335 G3 X-0.0078 I-0.0078 J-0.0064
N340 G1 X-0.0822 Y0.0792
N345 G3 X-0.0778 Y0.0673 I0.0056 J-0.0047
N350 G2 X-0.0099 Y0.0533 I-0.1222 J-0.7673
N355 G3 X0.0099 I0.0099 J0.0391
N360 G2 X0.0985 Y0.0198 I0.0203 J-0.0803
N365 G3 X0.1828 Y-0.0233 I0.0818 J0.0559
N370 G2 X0.2867 Y-0.0287 I0.0172 J-0.6767
N375 G3 X0.2921 Y-0.0192 I0.0008 J0.0058
N380 X0.1751 Y0.1229 I-3.2718 J-2.5748
N385 G2 X0.0572 Y0.2643 I4.3197 J3.7201
N390 X0.0325 Y0.2966 I0.6437 J0.5191
N395 G3 X0.0077 Y0.3289 I-0.9482 J-0.7013
N400 X-0.0077 I-0.0077 J-0.0061
N405 G2 X-0.1954 Y0.0968 I-13.2958 J10.5587
N410 X-0.2403 Y0.0435 I-3.5461 J2.9411
N415 G3 X-0.2845 Y-0.0102 I1.4561 J-1.2453
N420 G1 X-0.2883 Y-0.0147
N425 X-0.2921 Y-0.0192
N430 G3 X-0.2867 Y-0.0287 I0.0046 J-0.0036
N435 G2 X-0.0253 Y-0.0461 I0.0867 J-0.6713
N440 G3 X0.0253 I0.0253 J0.0947
N445 G2 X0.1828 Y-0.0233 I0.1747 J-0.6539
N450 X0.3131 Y-0.1137 I0.0034 J-0.1342
N455 G3 X0.4192 Y-0.2315 I0.1924 J0.0665
N460 G2 X0.5925 Y-0.3632 I-0.2192 J-0.4685
N465 G3 X0.6164 Y-0.3767 I0.0306 J0.0262
N470 X0.6748 Y-0.3827 I0.077 J0.459
N475 X0.6843 Y-0.3709 I0.0004 J0.0094
N480 X0.6574 Y-0.2964 I-0.4369 J-0.1158
N485 X0.6221 Y-0.2255 I-1.3455 J-0.6243
N490 X0.4602 Y0.0225 I-1.4443 J-0.7663
N495 X0.2735 Y0.2526 I-9.4986 J-7.5138
N500 G2 X0.1396 Y0.4188 I5.2882 J4.3977
N505 G3 X0.0077 Y0.5866 I-23.1217 J-18.0443
N510 X-0.0077 I-0.0077 J-0.0061
N515 X-0.1062 Y0.4602 I8.1515 J-6.4557
N520 G2 X-0.2058 Y0.3347 I-3.9351 J3.019
N525 X-0.3557 Y0.1537 I-18.3584 J15.0509
N530 G3 X-0.4997 Y-0.032 I2.4408 J-2.0418
N535 X-0.5821 Y-0.1549 I1.8658 J-1.3398
N540 X-0.6515 Y-0.2855 I0.9031 J-0.5641
N545 X-0.6696 Y-0.3275 I1.5752 J-0.7021
N550 X-0.6843 Y-0.3709 I0.3163 J-0.131
N555 X-0.6748 Y-0.3827 I0.0091 J-0.0024
N560 X-0.6164 Y-0.3767 I-0.0172 J0.4523
N565 X-0.5925 Y-0.3632 I-0.0067 J0.0397
N570 G2 X-0.019 Y-0.2155 I0.3925 J-0.3368
N575 G3 X0.019 I0.019 J0.0509
N580 G2 X0.4192 Y-0.2315 I0.181 J-0.4845
N585 X0.4842 Y-0.4035 I-0.0559 J-0.1194
N590 G3 X0.5713 Y-0.5654 I0.1073 J-0.0467
N595 G1 X0.5895 Y-0.5683
N600 G3 X0.6725 Y-0.575 I0.1039 J0.7608
N605 X0.7733 Y-0.5563 I0.0067 J0.2448
N610 X0.8549 Y-0.4942 I-0.0778 J0.1868
N615 X0.8824 Y-0.4157 I-0.1018 J0.0796
N620 X0.8732 Y-0.3331 I-0.3481 J0.0032
N625 X0.8232 Y-0.1924 I-0.6555 J-0.1536
N630 X0.7518 Y-0.0611 I-1.4859 J-0.7225
N635 X0.5848 Y0.1778 I-1.8607 J-1.123
N640 X0.4005 Y0.4035 I-14.9971 J-12.0588
N645 G1 X0.0079 Y0.8931
N650 G3 X-0.008 I-0.0079 J-0.0068
N655 G1 X-0.3782 Y0.4305
N660 X-0.5225 Y0.2557
N665 G3 X-0.6085 Y0.1471 I2.6964 J-2.2255
N670 X-0.7068 Y0.01 I2.3578 J-1.7939
N675 X-0.7936 Y-0.1346 I1.3237 J-0.893
N680 X-0.8495 Y-0.2539 I1.1729 J-0.6223
N685 X-0.8816 Y-0.3817 I0.4296 J-0.1758
N690 Y-0.4309 I0.2353 J-0.0245
N695 X-0.8662 Y-0.4776 I0.1161 J0.0122
N700 X-0.8033 Y-0.54 I0.1483 J0.0868
N705 X-0.721 Y-0.5725 I0.1541 J0.2692
N710 X-0.6848 Y-0.576 I0.0303 J0.1272
N715 X-0.6485 Y-0.5739 I-0.0697 J1.5295
N720 X-0.5776 Y-0.5661 I-0.0616 J0.8882
N725 X-0.5082 Y-0.55 I-0.0673 J0.4472
N730 X-0.4685 Y-0.5202 I-0.0227 J0.0716
N735 G2 X-0.0108 Y-0.438 I0.2685 J-0.1798
N740 G3 X0.0108 I0.0108 J0.015
N745 G2 X0.4685 Y-0.5202 I0.1892 J-0.262
N750 G3 X0.5082 Y-0.55 I0.0624 J0.0418
N755 X0.5713 Y-0.5654 I0.1472 J0.464
N760 G1 X0.5751 Y-0.5659 Z-0.1914 F10.
N765 X0.579 Y-0.5657 Z-0.1908
N770 X0.5824 Y-0.5651 Z-0.189
N775 X0.5857 Y-0.5639 Z-0.1872
N780 X0.5882 Y-0.5627 Z-0.1845
N785 X0.5905 Y-0.5612 Z-0.1817
N790 X0.5932 Y-0.559 Z-0.1747
N795 X0.5941 Y-0.5581 Z-0.167
N800 Z0.0394
N805 X-0.0005 Y-0.3771 F20.
N810 Z-0.167 F10.
N815 Y-0.3774 Z-0.1709
N820 X-0.0004 Y-0.3784 Z-0.1747
N825 Y-0.3799 Z-0.1783
N830 Y-0.3819 Z-0.1817
N835 X-0.0003 Y-0.3844 Z-0.1847
N840 Y-0.3874 Z-0.1872
N845 X-0.0002 Y-0.3908 Z-0.1893
N850 X-0.0001 Y-0.3944 Z-0.1908
N855 Y-0.3982 Z-0.1917
N860 X0. Y-0.4021 Z-0.192
N865 X0.0125 Y-1.0708 F20.
N870 G2 X0. Y-1.0835 I-0.0125 J-0.0002
N875 G1 X-0.0016 Y-1.0838
N880 X-0.003 Y-1.0846
N885 X-0.0041 Y-1.0857
N890 X-0.0048 Y-1.0872
N895 G2 X-0.0232 Y-1.146 I-0.9152 J0.2544
N900 X-0.0471 Y-1.2028 I-0.4687 J0.1637
N905 G1 X-0.0543 Y-1.2161
N910 X-0.0618 Y-1.2293
N915 G3 X-0.0553 Y-1.2404 I0.0065 J-0.0036
N920 G1 X0.0553
N925 G3 X0.0618 Y-1.2293 I0. J0.0075
N930 G2 X0.0292 Y-1.1599 I0.5409 J0.2965
N935 X0.0048 Y-1.0872 I0.6733 J0.2667
N940 G1 X0.0041 Y-1.0857
N945 X0.003 Y-1.0846
N950 X0.0016 Y-1.0838
N955 X0. Y-1.0835
N960 G2 X-0.0382 Y-1.056 I0. J0.0403
N965 G3 X-0.0854 Y-1.0571 I-0.0234 J-0.0078
N970 G2 X-0.2549 Y-1.3261 I-0.4708 J0.1088
N975 G1 X0.2549
N980 G2 X0.0802 Y-1.0284 I0.2983 J0.3751
N985 G1 X0.0783 Y-1.0214
N990 X0.0768 Y-1.0144
N995 X0.0757 Y-1.0072
N1000 X0.075 Y-1.
N1005 Y-0.7
N1010 G2 X0.3109 Y-0.6423 I0.125 J0.
N1015 G3 X0.5008 Y-0.7495 I0.1999 J0.1324
N1020 X1.0153 Y-0.62 I0.1612 J0.4463
N1025 X1.0413 Y-0.2097 I-0.3445 J0.2278
N1030 X0.74 Y0.2996 I-1.5271 J-0.5598
N1035 G1 X0.5811 Y0.4969
N1040 X0.4219 Y0.694
N1045 X0.2622 Y0.8906
N1050 X0.1021 Y1.087
N1055 G3 X-0.0001 Y1.1989 I-3.3336 J-2.9395
N1060 X-0.5732 Y0.5022 I7.981 J-7.1501
N1065 X-1.0324 Y-0.1653 I1.9444 J-1.8294
N1070 X-1.0719 Y-0.5106 I0.5712 J-0.2402
N1075 X-0.5806 Y-0.7639 I0.3904 J0.1543
N1080 X-0.3206 Y-0.6659 I-0.0045 J0.406
N1085 G1 X-0.3178 Y-0.6556
N1090 X-0.3109 Y-0.6423
N1095 G2 X-0.075 Y-0.7 I0.1109 J-0.0577
N1100 G1 Y-1.
N1105 G2 X-0.0783 Y-1.0287 I-0.125 J0.
N1110 X-0.0854 Y-1.0571 I-0.6811 J0.1538
N1115 G1 X-0.0861 Y-1.0609 Z-0.1914 F10.
N1120 X-0.0863 Y-1.0648 Z-0.1908
N1125 X-0.0859 Y-1.0682 Z-0.189
N1130 X-0.0851 Y-1.0716 Z-0.1872
N1135 X-0.0841 Y-1.0742 Z-0.1845
N1140 X-0.0828 Y-1.0766 Z-0.1817
N1145 X-0.0807 Y-1.0795 Z-0.1747
N1150 X-0.08 Y-1.0805 Z-0.167
N1155 G0 Z0.2
N1160 G1 X1.6593 Y-1.5601 F650.
N1165 Z0.125 F10.
N1170 X1.6591 Y-1.5613 Z0.1174
N1175 X1.6586 Y-1.5646 Z0.1106
N1180 X1.658 Y-1.5699 Z0.1051
N1185 X1.6575 Y-1.5766 Z0.1014
N1190 Y-1.5841 Z0.1
N1195 G3 X1.6577 Y-1.5738 Z0.0743 I0.1187 J0.0032
N1200 X1.6587 Y-1.5635 Z0.0486 I0.1185 J-0.0071
N1205 X1.6607 Y-1.5533 Z0.0229 I0.1175 J-0.0174
N1210 X1.6636 Y-1.5433 Z-0.0028 I0.1155 J-0.0276
N1215 X1.6673 Y-1.5337 Z-0.0285 I0.1126 J-0.0376
N1220 X1.6718 Y-1.5243 Z-0.0542 I0.1089 J-0.0473
N1225 X1.6771 Y-1.5155 Z-0.0799 I0.1044 J-0.0566
N1230 X1.6832 Y-1.5071 Z-0.1055 I0.0991 J-0.0655
N1235 X1.69 Y-1.4992 Z-0.1312 I0.093 J-0.0738
N1240 X1.6974 Y-1.492 Z-0.1569 I0.0862 J-0.0817
N1245 X1.7055 Y-1.4855 Z-0.1826 I0.0788 J-0.0889
N1250 X1.7476 Y-1.6961 Z-0.192 I0.0707 J-0.0954
N1255 X1.7871 Y-1.537 I0.0198 J0.0796
N1260 G1 X1.7848 Y-1.5364 F20.
N1265 G3 X1.7696 I-0.0076 J-0.0292
N1270 G2 X1.7112 Y-1.543 I-0.0524 J0.2008
N1275 G3 X1.7062 Y-1.5532 I-0.0002 J-0.0062
N1280 X1.7379 Y-1.5918 I3.7775 J3.0676
N1285 G2 X1.7695 Y-1.6304 I-1.7915 J-1.5024
N1290 G3 X1.7851 Y-1.6305 I0.0078 J0.0063
N1295 G1 X1.8483 Y-1.5533
N1300 G3 X1.8433 Y-1.543 I-0.0049 J0.004
N1305 G2 X1.7871 Y-1.537 I-0.0061 J0.2074
N1310 X1.7379 Y-1.497 I0.018 J0.0726
N1315 G3 X1.6884 Y-1.4572 I-0.0665 J-0.0322
N1320 G2 X1.6145 Y-1.4068 I0.0288 J0.1216
N1325 G3 X1.5401 Y-1.4207 I-0.0298 J-0.0463
N1330 X1.6755 Y-1.64 I0.4222 J0.1092
N1335 G1 X1.6864 Y-1.659
N1340 X1.7006 Y-1.6764
N1345 X1.7133 Y-1.6921
N1350 G3 X1.7773 Y-1.7725 I5.5743 J4.374
N1355 X1.9963 Y-1.4899 I-3.6638 J3.0646
N1360 X2.0136 Y-1.4175 I-0.1213 J0.0673
N1365 X1.9414 Y-1.4088 I-0.0411 J-0.0372
N1370 G1 X1.936 Y-1.4158
N1375 X1.9301 Y-1.4224
N1380 X1.9238 Y-1.4285
N1385 X1.917 Y-1.4342
N1390 X1.9099 Y-1.4394
N1395 X1.9025 Y-1.4441
N1400 X1.8947 Y-1.4483
N1405 X1.8867 Y-1.4519
N1410 X1.8785 Y-1.455
N1415 X1.8701 Y-1.4575
N1420 X1.8615 Y-1.4593
N1425 X1.8529 Y-1.4606
N1430 X1.8441 Y-1.4613
N1435 X1.8354 Y-1.4614
N1440 X1.8267 Y-1.4608
N1445 X1.818 Y-1.4597
N1450 X1.8095 Y-1.4579
N1455 X1.8011 Y-1.4556
N1460 X1.7929 Y-1.4527
N1465 X1.7849 Y-1.4493
N1470 X1.7772 Y-1.4452
N1475 G2 X1.6884 Y-1.4572 I-0.06 J0.1097
N1480 G1 X1.6846 Y-1.4566 Z-0.1914 F10.
N1485 X1.6807 Z-0.1908
N1490 X1.6773 Y-1.4571 Z-0.189
N1495 X1.6739 Y-1.4581 Z-0.1872
N1500 X1.6714 Y-1.4592 Z-0.1845
N1505 X1.669 Y-1.4606 Z-0.1817
N1510 X1.6662 Y-1.4627 Z-0.1747
N1515 X1.6653 Y-1.4635 Z-0.167
N1520 G0 Z0.2
N1525 G1 X-1.8419 Y1.4759 F650.
N1530 Z0.125 F10.
N1535 X-1.8409 Y1.4753 Z0.1174
N1540 X-1.8381 Y1.4734 Z0.1106
N1545 X-1.8336 Y1.4706 Z0.1051
N1550 X-1.8277 Y1.4674 Z0.1014
N1555 X-1.8209 Y1.4641 Z0.1
N1560 G3 X-1.8302 Y1.4687 Z0.0743 I0.0473 J0.1089
N1565 X-1.8391 Y1.474 Z0.0486 I0.0566 J0.1044
N1570 X-1.8475 Y1.4801 Z0.0229 I0.0655 J0.099
N1575 X-1.8553 Y1.4869 Z-0.0028 I0.0739 J0.093
N1580 X-1.8625 Y1.4944 Z-0.0285 I0.0817 J0.0862
N1585 X-1.869 Y1.5024 Z-0.0542 I0.0889 J0.0787
N1590 X-1.8748 Y1.511 Z-0.0799 I0.0954 J0.0707
N1595 X-1.8798 Y1.52 Z-0.1055 I0.1012 J0.0621
N1600 X-1.8841 Y1.5295 Z-0.1312 I0.1063 J0.053
N1605 X-1.8874 Y1.5393 Z-0.1569 I0.1105 J0.0436
N1610 X-1.8899 Y1.5494 Z-0.1826 I0.1139 J0.0338
N1615 X-1.6813 Y1.4983 Z-0.192 I0.1164 J0.0237
N1620 X-1.8086 Y1.6014 I-0.0637 J0.0516
N1625 G2 X-1.8484 Y1.5533 I-0.6829 J0.523 F20.
N1630 G3 X-1.8433 Y1.543 I0.0049 J-0.004
N1635 G2 X-1.7848 Y1.5364 I0.0061 J-0.2074
N1640 G3 X-1.7696 I0.0076 J0.0292
N1645 G2 X-1.7112 Y1.543 I0.0524 J-0.2008
N1650 G3 X-1.7062 Y1.5532 I0.0002 J0.0062
N1655 X-1.7379 Y1.5918 I-3.7775 J-3.0676
N1660 G2 X-1.7695 Y1.6304 I1.7915 J1.5024
N1665 G3 X-1.7851 Y1.6305 I-0.0078 J-0.0063
N1670 G1 X-1.8086 Y1.6014
N1675 G2 X-1.8797 Y1.5799 I-0.0514 J0.0416
N1680 G3 X-1.9501 Y1.5564 I-0.0189 J-0.0607
N1685 X-2.0136 Y1.4175 I0.1613 J-0.1576
N1690 X-1.9414 Y1.4088 I0.0411 J0.0372
N1695 G1 X-1.936 Y1.4158
N1700 X-1.9301 Y1.4224
N1705 X-1.9238 Y1.4285
N1710 X-1.917 Y1.4342
N1715 X-1.9099 Y1.4394
N1720 X-1.9025 Y1.4441
N1725 X-1.8947 Y1.4483
N1730 X-1.8867 Y1.4519
N1735 X-1.8785 Y1.455
N1740 X-1.8701 Y1.4575
N1745 X-1.8615 Y1.4593
N1750 X-1.8529 Y1.4606
N1755 X-1.8441 Y1.4613
N1760 X-1.8354 Y1.4614
N1765 X-1.8267 Y1.4608
N1770 X-1.818 Y1.4597
N1775 X-1.8095 Y1.4579
N1780 X-1.8011 Y1.4556
N1785 X-1.7929 Y1.4527
N1790 X-1.7849 Y1.4493
N1795 X-1.7772 Y1.4452
N1800 G2 X-1.6145 Y1.4068 I0.06 J-0.1097
N1805 G3 X-1.5401 Y1.4207 I0.0298 J0.0463
N1810 X-1.6755 Y1.64 I-0.4222 J-0.1092
N1815 G1 X-1.6864 Y1.659
N1820 X-1.7006 Y1.6764
N1825 X-1.7133 Y1.6921
N1830 G3 X-1.7773 Y1.7725 I-5.5743 J-4.374
N1835 G1 X-1.8636 Y1.6644
N1840 X-1.9501 Y1.5564
N1845 X-1.9522 Y1.5532 Z-0.1914 F10.
N1850 X-1.9536 Y1.5496 Z-0.1908
N1855 X-1.9545 Y1.5462 Z-0.189
N1860 X-1.9549 Y1.5428 Z-0.1872
N1865 X-1.9548 Y1.54 Z-0.1845
N1870 X-1.9545 Y1.5372 Z-0.1817
N1875 X-1.9536 Y1.5338 Z-0.1747
N1880 X-1.9532 Y1.5327 Z-0.167
N1885 G0 Z0.6
N1890 M9
N1895 M5
N1900 G53 G0 Z0.

(2D Contour12)
N1905 M1
N1910 T14 M6
N1915 S8000 M3
N1920 G54
N1925 M11
N1930 M13
N1935 G0 A0. B0.
N1940 M10
N1945 M12
N1950 M8
N1955 G1 X0.5679 Y0.5541 F650.
N1960 G0 G43 Z0.6 H14
N1965 T15
N1970 G0 Z0.2
N1975 G1 Z-0.1795 F10.
N1980 X0.5681 Y0.5543 Z-0.1823
N1985 X0.5688 Y0.5549 Z-0.1849
N1990 X0.57 Y0.5558 Z-0.1873
N1995 X0.5715 Y0.5571 Z-0.1893
N2000 X0.5733 Y0.5586 Z-0.1908
N2005 X0.5754 Y0.5603 Z-0.1917
N2010 X0.5775 Y0.562 Z-0.192
N2015 X0.5872 Y0.57
N2020 G3 X0.5888 Y0.5876 I-0.008 J0.0096
N2025 X-0.0001 Y1.2893 I-7.9885 J-6.1065 F20.
N2030 X-0.6012 Y0.5703 I8.1521 J-7.4271
N2035 X-1.0817 Y-0.1199 I2.2985 J-2.1123
N2040 X-1.1402 Y-0.4975 I0.7021 J-0.3022
N2045 X-0.5925 Y-0.8284 I0.4533 J0.1316
N2050 X-0.269 Y-0.7024 I0.0008 J0.4761
N2055 G2 X-0.2558 Y-0.6726 I0.0803 J-0.0177
N2060 G1 X-0.2528 Y-0.6672
N2065 X-0.2493 Y-0.6621
N2070 X-0.2453 Y-0.6574
N2075 X-0.2409 Y-0.6531
N2080 X-0.236 Y-0.6493
N2085 X-0.2308 Y-0.6459
N2090 X-0.2253 Y-0.6431
N2095 X-0.2195 Y-0.6409
N2100 X-0.2136 Y-0.6392
N2105 X-0.2075 Y-0.6382
N2110 X-0.2013 Y-0.6377
N2115 X-0.1951 Y-0.6379
N2120 X-0.189 Y-0.6387
N2125 X-0.1829 Y-0.64
N2130 X-0.177 Y-0.642
N2135 X-0.1714 Y-0.6446
N2140 X-0.166 Y-0.6477
N2145 X-0.161 Y-0.6513
N2150 X-0.1563 Y-0.6554
N2155 X-0.1521 Y-0.66
N2160 X-0.1484 Y-0.6649
N2165 X-0.1451 Y-0.6702
N2170 X-0.1424 Y-0.6758
N2175 X-0.1403 Y-0.6816
N2180 X-0.1388 Y-0.6877
N2185 X-0.1378 Y-0.6938
N2190 X-0.1375 Y-0.7
N2195 Y-1.
N2200 G2 X-0.1392 Y-1.0143 I-0.0625 J0.
N2205 X-0.5123 Y-1.3635 I-0.4141 J0.0685
N2210 G1 X-0.5213 Y-1.3689
N2215 X-0.5377 Y-1.3726
N2220 Y-1.3886
N2225 X0.5377
N2230 Y-1.3726
N2235 G2 X0.1668 Y-1.1151 I0.042 J0.4565
N2240 X0.1392 Y-1.0143 I4.5191 J1.2946
N2245 X0.1375 Y-1. I0.0608 J0.0143
N2250 G1 Y-0.7
N2255 G2 X0.2561 Y-0.6724 I0.0625 J0.
N2260 G3 X0.4653 Y-0.8051 I0.2337 J0.1373
N2265 X1.0305 Y-0.6971 I0.1937 J0.5194
N2270 X1.1145 Y-0.2321 I-0.3262 J0.299
N2275 X0.8145 Y0.3035 I-1.4205 J-0.444
N2280 X0.5881 Y0.5869 I-2.7925 J-1.9992
N2285 G1 X0.5865 Y0.5886 F10.
N2290 X0.5847 Y0.59
N2295 X0.5826 Y0.591
N2300 X0.5804 Y0.5915
N2305 X0.578 Y0.5917
N2310 X0.5756 Y0.5913
N2315 X0.5733 Y0.5905
N2320 X0.5712 Y0.5893
N2325 X0.5616 Y0.5813
N2330 X0.5595 Y0.5795 Z-0.1917
N2335 X0.5574 Y0.5778 Z-0.1908
N2340 X0.5556 Y0.5763 Z-0.1893
N2345 X0.5541 Y0.5751 Z-0.1873
N2350 X0.5529 Y0.5741 Z-0.1849
N2355 X0.5522 Y0.5735 Z-0.1823
N2360 X0.552 Y0.5733 Z-0.1795
N2365 G0 Z0.2
N2370 G1 X1.8837 Y-1.6797 F650.
N2375 Z-0.1795 F10.
N2380 X1.884 Y-1.6799 Z-0.1823
N2385 X1.8847 Y-1.6805 Z-0.1849
N2390 X1.8858 Y-1.6814 Z-0.1873
N2395 X1.8874 Y-1.6827 Z-0.1893
N2400 X1.8892 Y-1.6842 Z-0.1908
N2405 X1.8912 Y-1.6859 Z-0.1917
N2410 X1.8934 Y-1.6876 Z-0.192
N2415 X1.903 Y-1.6956
N2420 G3 X1.9206 Y-1.6938 I0.0079 J0.0097
N2425 X2.0759 Y-1.448 I-0.4761 J0.4727 F20.
N2430 X1.9486 Y-1.3442 I-0.0919 J0.0173
N2435 X1.8925 Y-1.3647 I-0.0102 J-0.059
N2440 G2 X1.7772 Y-1.3531 I-0.0553 J0.0291
N2445 X1.6623 Y-1.3653 I-0.06 J0.0175
N2450 G3 X1.4762 Y-1.4017 I-0.0785 J-0.0922
N2455 X1.5752 Y-1.6167 I0.3201 J0.017
N2460 G1 X1.5856 Y-1.6348
N2465 X1.5985 Y-1.6506
N2470 X1.6116 Y-1.6666
N2475 X1.6249 Y-1.6826
N2480 X1.6385 Y-1.6991
N2485 X1.6519 Y-1.7155
N2490 X1.6645 Y-1.7313
N2495 X1.677 Y-1.747
N2500 X1.7009 Y-1.7772
N2505 X1.7126 Y-1.7919
N2510 G3 X1.779 Y-1.8665 I0.2863 J0.1884
N2515 X1.9202 Y-1.6935 I-3.2273 J2.7797
N2520 G1 X1.9218 Y-1.6913 F10.
N2525 X1.9228 Y-1.6888
N2530 X1.9232 Y-1.6861
N2535 X1.923 Y-1.6834
N2540 X1.9222 Y-1.6807
N2545 X1.9208 Y-1.6783
N2550 X1.9189 Y-1.6763
N2555 X1.9092 Y-1.6683
N2560 X1.9071 Y-1.6666 Z-0.1917
N2565 X1.9051 Y-1.6649 Z-0.1908
N2570 X1.9032 Y-1.6634 Z-0.1893
N2575 X1.9017 Y-1.6621 Z-0.1873
N2580 X1.9005 Y-1.6612 Z-0.1849
N2585 X1.8998 Y-1.6606 Z-0.1823
N2590 X1.8996 Y-1.6604 Z-0.1795
N2595 G0 Z0.2
N2600 G1 X-1.6554 Y1.6607 F650.
N2605 Z-0.1795 F10.
N2610 X-1.6552 Y1.6609 Z-0.1823
N2615 X-1.6544 Y1.6615 Z-0.1849
N2620 X-1.6533 Y1.6624 Z-0.1873
N2625 X-1.6518 Y1.6637 Z-0.1893
N2630 X-1.6499 Y1.6652 Z-0.1908
N2635 X-1.6479 Y1.6669 Z-0.1917
N2640 X-1.6458 Y1.6686 Z-0.192
N2645 X-1.6361 Y1.6766
N2650 G3 X-1.6344 Y1.6942 I-0.008 J0.0096
N2655 G1 X-1.6385 Y1.6991 F20.
N2660 X-1.6519 Y1.7155
N2665 X-1.6645 Y1.7313
N2670 X-1.677 Y1.747
N2675 X-1.7009 Y1.7772
N2680 X-1.7126 Y1.7919
N2685 G3 X-1.779 Y1.8665 I-0.2863 J-0.1884
N2690 X-2.0521 Y1.5184 I3.2749 J-2.8504
N2695 X-2.0754 Y1.4057 I0.1799 J-0.0961
N2700 X-1.8927 Y1.3649 I0.106 J0.045
N2705 G1 X-1.8895 Y1.3702
N2710 X-1.8859 Y1.3752
N2715 X-1.8817 Y1.3798
N2720 X-1.8771 Y1.384
N2725 X-1.8721 Y1.3877
N2730 X-1.8668 Y1.3909
N2735 X-1.8612 Y1.3935
N2740 X-1.8554 Y1.3956
N2745 X-1.8494 Y1.3971
N2750 X-1.8432 Y1.398
N2755 X-1.8371 Y1.3982
N2760 X-1.8309 Y1.3979
N2765 X-1.8248 Y1.397
N2770 X-1.8188 Y1.3954
N2775 X-1.813 Y1.3933
N2780 X-1.8074 Y1.3906
N2785 X-1.8021 Y1.3874
N2790 X-1.7972 Y1.3837
N2795 X-1.7926 Y1.3795
N2800 X-1.7885 Y1.3749
N2805 X-1.7849 Y1.3699
N2810 X-1.7818 Y1.3645
N2815 X-1.7792 Y1.3589
N2820 X-1.7772 Y1.3531
N2825 G2 X-1.6623 Y1.3653 I0.06 J-0.0175
N2830 G3 X-1.4762 Y1.4017 I0.0785 J0.0922
N2835 X-1.5752 Y1.6167 I-0.3201 J-0.017
N2840 X-1.6344 Y1.6942 I-0.6721 J-0.4527
N2845 X-1.652 Y1.6959 I-0.0096 J-0.008 F10.
N2850 G1 X-1.6617 Y1.6879
N2855 X-1.6638 Y1.6861 Z-0.1917
N2860 X-1.6659 Y1.6845 Z-0.1908
N2865 X-1.6677 Y1.683 Z-0.1893
N2870 X-1.6692 Y1.6817 Z-0.1873
N2875 X-1.6704 Y1.6807 Z-0.1849
N2880 X-1.6711 Y1.6802 Z-0.1823
N2885 X-1.6713 Y1.68 Z-0.1795
N2890 G0 Z0.6
N2895 M9
N2900 M5
N2905 G53 G0 Z0.

(2D Contour13)
N2910 M1
N2915 T15 M6
N2920 S8000 M3
N2925 G54
N2930 M11
N2935 M13
N2940 G0 A0. B0.
N2945 M10
N2950 M12
N2955 M8
N2960 G1 X0.5939 Y0.5816 F650.
N2965 G0 G43 Z0.6 H15
N2970 T16
N2975 G0 Z0.2
N2980 G1 Z-0.0722 F10.
N2985 X0.5941 Y0.5818 Z-0.0742 F15.
N2990 X0.5947 Y0.5823 Z-0.0761
N2995 X0.5956 Y0.5831 Z-0.0777
N3000 X0.5969 Y0.5841 Z-0.079
N3005 X0.5983 Y0.5853 Z-0.0797
N3010 X0.5999 Y0.5866 Z-0.08
N3015 X0.6059 Y0.5916
N3020 G3 X0.607 Y0.6025 I-0.005 J0.006
N3025 X-0.0001 Y1.3229 I-7.7898 J-5.948
N3030 X-0.5986 Y0.6126 I7.0032 J-6.5089
N3035 X-1.0831 Y-0.0657 I2.7529 J-2.4782
N3040 X-1.1669 Y-0.4851 I0.7716 J-0.3723
N3045 X-0.6098 Y-0.8544 I0.4772 J0.1151
N3050 X-0.255 Y-0.723 I0.0036 J0.5351
N3055 G2 X-0.235 Y-0.6828 I0.715 J-0.3302
N3060 X-0.161 Y-0.7 I0.035 J-0.0172
N3065 G1 Y-1.
N3070 G2 X-0.5175 Y-1.3404 I-0.3921 J0.0537
N3075 X-0.5612 Y-1.3538 I-0.0792 J0.1813
N3080 G1 Y-1.4121
N3085 X0.5612
N3090 Y-1.3538
N3095 G2 X0.2414 Y-1.1981 I0.0553 J0.52
N3100 X0.161 Y-1. I0.4758 J0.3085
N3105 G1 Y-0.7
N3110 G2 X0.235 Y-0.6828 I0.039 J0.
N3115 G3 X0.4594 Y-0.8278 I0.2533 J0.146
N3120 X1.0473 Y-0.7136 I0.1999 J0.5414
N3125 X1.1371 Y-0.2254 I-0.3425 J0.3154
N3130 X0.8332 Y0.3177 I-1.4423 J-0.4504
N3135 X0.6062 Y0.6018 I-2.8065 J-2.0097
N3140 G1 X0.605 Y0.6032
N3145 X0.6035 Y0.6042
N3150 X0.6017 Y0.6048
N3155 X0.5997 Y0.6049
N3160 X0.5978 Y0.6045
N3165 X0.596 Y0.6036
N3170 X0.59 Y0.5986
N3175 X0.5884 Y0.5973 Z-0.0797
N3180 X0.587 Y0.5961 Z-0.079
N3185 X0.5857 Y0.5951 Z-0.0777
N3190 X0.5848 Y0.5943 Z-0.0761
N3195 X0.5842 Y0.5938 Z-0.0742
N3200 X0.584 Y0.5937 Z-0.0722
N3205 G0 Z0.2
N3210 G1 X0.5939 Y0.5816 F650.
N3215 Z-0.1522 F10.
N3220 X0.5941 Y0.5818 Z-0.1542 F15.
N3225 X0.5947 Y0.5823 Z-0.1561
N3230 X0.5956 Y0.5831 Z-0.1577
N3235 X0.5969 Y0.5841 Z-0.159
N3240 X0.5983 Y0.5853 Z-0.1597
N3245 X0.5999 Y0.5866 Z-0.16
N3250 X0.6059 Y0.5916
N3255 G3 X0.607 Y0.6025 I-0.005 J0.006
N3260 X-0.0001 Y1.3229 I-7.7898 J-5.948
N3265 X-0.5986 Y0.6126 I7.0032 J-6.5089
N3270 X-1.0831 Y-0.0657 I2.7529 J-2.4782
N3275 X-1.1669 Y-0.4851 I0.7716 J-0.3723
N3280 X-0.6098 Y-0.8544 I0.4772 J0.1151
N3285 X-0.255 Y-0.723 I0.0036 J0.5351
N3290 G2 X-0.235 Y-0.6828 I0.715 J-0.3302
N3295 X-0.161 Y-0.7 I0.035 J-0.0172
N3300 G1 Y-1.
N3305 G2 X-0.5175 Y-1.3404 I-0.3921 J0.0537
N3310 X-0.5612 Y-1.3538 I-0.0792 J0.1813
N3315 G1 Y-1.4121
N3320 X0.5612
N3325 Y-1.3538
N3330 G2 X0.2414 Y-1.1981 I0.0553 J0.52
N3335 X0.161 Y-1. I0.4758 J0.3085
N3340 G1 Y-0.7
N3345 G2 X0.235 Y-0.6828 I0.039 J0.
N3350 G3 X0.4594 Y-0.8278 I0.2533 J0.146
N3355 X1.0473 Y-0.7136 I0.1999 J0.5414
N3360 X1.1371 Y-0.2254 I-0.3425 J0.3154
N3365 X0.8332 Y0.3177 I-1.4423 J-0.4504
N3370 X0.6062 Y0.6018 I-2.8065 J-2.0097
N3375 G1 X0.605 Y0.6032
N3380 X0.6035 Y0.6042
N3385 X0.6017 Y0.6048
N3390 X0.5997 Y0.6049
N3395 X0.5978 Y0.6045
N3400 X0.596 Y0.6036
N3405 X0.59 Y0.5986
N3410 X0.5884 Y0.5973 Z-0.1597
N3415 X0.587 Y0.5961 Z-0.159
N3420 X0.5857 Y0.5951 Z-0.1577
N3425 X0.5848 Y0.5943 Z-0.1561
N3430 X0.5842 Y0.5938 Z-0.1542
N3435 X0.584 Y0.5937 Z-0.1522
N3440 G0 Z0.2
N3445 G1 X0.5939 Y0.5816 F650.
N3450 Z-0.1842 F10.
N3455 X0.5941 Y0.5818 Z-0.1862 F15.
N3460 X0.5947 Y0.5823 Z-0.1881
N3465 X0.5956 Y0.5831 Z-0.1897
N3470 X0.5969 Y0.5841 Z-0.191
N3475 X0.5983 Y0.5853 Z-0.1917
N3480 X0.5999 Y0.5866 Z-0.192
N3485 X0.6059 Y0.5916
N3490 G3 X0.607 Y0.6025 I-0.005 J0.006
N3495 X-0.0001 Y1.3229 I-7.7898 J-5.948
N3500 X-0.5986 Y0.6126 I7.0032 J-6.5089
N3505 X-1.0831 Y-0.0657 I2.7529 J-2.4782
N3510 X-1.1669 Y-0.4851 I0.7716 J-0.3723
N3515 X-0.6098 Y-0.8544 I0.4772 J0.1151
N3520 X-0.255 Y-0.723 I0.0036 J0.5351
N3525 G2 X-0.235 Y-0.6828 I0.715 J-0.3302
N3530 X-0.161 Y-0.7 I0.035 J-0.0172
N3535 G1 Y-1.
N3540 G2 X-0.5175 Y-1.3404 I-0.3921 J0.0537
N3545 X-0.5612 Y-1.3538 I-0.0792 J0.1813
N3550 G1 Y-1.4121
N3555 X0.5612
N3560 Y-1.3538
N3565 G2 X0.2414 Y-1.1981 I0.0553 J0.52
N3570 X0.161 Y-1. I0.4758 J0.3085
N3575 G1 Y-0.7
N3580 G2 X0.235 Y-0.6828 I0.039 J0.
N3585 G3 X0.4594 Y-0.8278 I0.2533 J0.146
N3590 X1.0473 Y-0.7136 I0.1999 J0.5414
N3595 X1.1371 Y-0.2254 I-0.3425 J0.3154
N3600 X0.8332 Y0.3177 I-1.4423 J-0.4504
N3605 X0.6062 Y0.6018 I-2.8065 J-2.0097
N3610 G1 X0.605 Y0.6032
N3615 X0.6035 Y0.6042
N3620 X0.6017 Y0.6048
N3625 X0.5997 Y0.6049
N3630 X0.5978 Y0.6045
N3635 X0.596 Y0.6036
N3640 X0.59 Y0.5986
N3645 X0.5884 Y0.5973 Z-0.1917
N3650 X0.587 Y0.5961 Z-0.191
N3655 X0.5857 Y0.5951 Z-0.1897
N3660 X0.5848 Y0.5943 Z-0.1881
N3665 X0.5842 Y0.5938 Z-0.1862
N3670 X0.584 Y0.5937 Z-0.1842
N3675 G0 Z0.2
N3680 G1 X1.7862 Y-1.1986 F650.
N3685 Z-0.0722 F10.
N3690 X1.7864 Y-1.1987 Z-0.0742 F15.
N3695 X1.7872 Y-1.1991 Z-0.0761
N3700 X1.7883 Y-1.1996 Z-0.0777
N3705 X1.7898 Y-1.2002 Z-0.079
N3710 X1.7915 Y-1.201 Z-0.0797
N3715 X1.7933 Y-1.2018 Z-0.08
N3720 X1.8004 Y-1.205
N3725 G3 X1.8107 Y-1.2011 I0.0032 J0.0071
N3730 G1 X1.811 Y-1.2006
N3735 G2 X1.8493 Y-1.1492 I0.126 J-0.0541
N3740 G1 X1.7051 Y-1.1493
N3745 G2 X1.7562 Y-1.2456 I-0.0973 J-0.1133
N3750 G1 Y-1.3356
N3755 G2 X1.6829 Y-1.3542 I-0.039 J0.
N3760 G3 X1.5552 Y-1.3157 I-0.1034 J-0.1119
N3765 X1.4745 Y-1.497 I0.0126 J-0.1142
N3770 X1.6355 Y-1.7278 I0.6509 J0.2822
N3775 X1.7773 Y-1.903 I1.2182 J0.8418
N3780 X2.073 Y-1.5291 I-2.9745 J2.6558
N3785 X2.0985 Y-1.4009 I-0.199 J0.1062
N3790 X1.9216 Y-1.3263 I-0.1205 J-0.0387
N3795 X1.8715 Y-1.3536 I-0.003 J-0.0541
N3800 G1 X1.869 Y-1.3578
N3805 X1.8659 Y-1.3617
N3810 X1.8624 Y-1.3651
N3815 X1.8585 Y-1.368
N3820 X1.8542 Y-1.3705
N3825 X1.8497 Y-1.3724
N3830 X1.845 Y-1.3736
N3835 X1.8401 Y-1.3743
N3840 X1.8352 Y-1.3744
N3845 X1.8303 Y-1.3738
N3850 X1.8255 Y-1.3727
N3855 X1.8209 Y-1.3709
N3860 X1.8166 Y-1.3686
N3865 X1.8126 Y-1.3657
N3870 X1.809 Y-1.3624
N3875 X1.8058 Y-1.3586
N3880 X1.8031 Y-1.3545
N3885 X1.801 Y-1.35
N3890 X1.7995 Y-1.3453
N3895 X1.7985 Y-1.3405
N3900 X1.7982 Y-1.3356
N3905 G2 X1.7993 Y-1.2362 I0.3085 J0.0462
N3910 X1.8107 Y-1.2011 I0.1922 J-0.0429
N3915 G3 X1.8068 Y-1.1908 I-0.0071 J0.0032
N3920 G1 X1.7997 Y-1.1876
N3925 X1.7979 Y-1.1868 Z-0.0797
N3930 X1.7962 Y-1.186 Z-0.079
N3935 X1.7947 Y-1.1853 Z-0.0777
N3940 X1.7936 Y-1.1848 Z-0.0761
N3945 X1.7928 Y-1.1845 Z-0.0742
N3950 X1.7926 Y-1.1844 Z-0.0722
N3955 G0 Z0.2
N3960 G1 X1.7862 Y-1.1986 F650.
N3965 Z-0.1522 F10.
N3970 X1.7864 Y-1.1987 Z-0.1542 F15.
N3975 X1.7872 Y-1.1991 Z-0.1561
N3980 X1.7883 Y-1.1996 Z-0.1577
N3985 X1.7898 Y-1.2002 Z-0.159
N3990 X1.7915 Y-1.201 Z-0.1597
N3995 X1.7933 Y-1.2018 Z-0.16
N4000 X1.8004 Y-1.205
N4005 G3 X1.8107 Y-1.2011 I0.0032 J0.0071
N4010 G1 X1.811 Y-1.2006
N4015 G2 X1.8493 Y-1.1492 I0.126 J-0.0541
N4020 G1 X1.7051 Y-1.1493
N4025 G2 X1.7562 Y-1.2456 I-0.0973 J-0.1133
N4030 G1 Y-1.3356
N4035 G2 X1.6829 Y-1.3542 I-0.039 J0.
N4040 G3 X1.5552 Y-1.3157 I-0.1034 J-0.1119
N4045 X1.4745 Y-1.497 I0.0126 J-0.1142
N4050 X1.6355 Y-1.7278 I0.6509 J0.2822
N4055 X1.7773 Y-1.903 I1.2182 J0.8418
N4060 X2.073 Y-1.5291 I-2.9745 J2.6558
N4065 X2.0985 Y-1.4009 I-0.199 J0.1062
N4070 X1.9216 Y-1.3263 I-0.1205 J-0.0387
N4075 X1.8715 Y-1.3536 I-0.003 J-0.0541
N4080 G1 X1.869 Y-1.3578
N4085 X1.8659 Y-1.3617
N4090 X1.8624 Y-1.3651
N4095 X1.8585 Y-1.368
N4100 X1.8542 Y-1.3705
N4105 X1.8497 Y-1.3724
N4110 X1.845 Y-1.3736
N4115 X1.8401 Y-1.3743
N4120 X1.8352 Y-1.3744
N4125 X1.8303 Y-1.3738
N4130 X1.8255 Y-1.3727
N4135 X1.8209 Y-1.3709
N4140 X1.8166 Y-1.3686
N4145 X1.8126 Y-1.3657
N4150 X1.809 Y-1.3624
N4155 X1.8058 Y-1.3586
N4160 X1.8031 Y-1.3545
N4165 X1.801 Y-1.35
N4170 X1.7995 Y-1.3453
N4175 X1.7985 Y-1.3405
N4180 X1.7982 Y-1.3356
N4185 G2 X1.7993 Y-1.2362 I0.3085 J0.0462
N4190 X1.8107 Y-1.2011 I0.1922 J-0.0429
N4195 G3 X1.8068 Y-1.1908 I-0.0071 J0.0032
N4200 G1 X1.7997 Y-1.1876
N4205 X1.7979 Y-1.1868 Z-0.1597
N4210 X1.7962 Y-1.186 Z-0.159
N4215 X1.7947 Y-1.1853 Z-0.1577
N4220 X1.7936 Y-1.1848 Z-0.1561
N4225 X1.7928 Y-1.1845 Z-0.1542
N4230 X1.7926 Y-1.1844 Z-0.1522
N4235 G0 Z0.2
N4240 G1 X1.7862 Y-1.1986 F650.
N4245 Z-0.1842 F10.
N4250 X1.7864 Y-1.1987 Z-0.1862 F15.
N4255 X1.7872 Y-1.1991 Z-0.1881
N4260 X1.7883 Y-1.1996 Z-0.1897
N4265 X1.7898 Y-1.2002 Z-0.191
N4270 X1.7915 Y-1.201 Z-0.1917
N4275 X1.7933 Y-1.2018 Z-0.192
N4280 X1.8004 Y-1.205
N4285 G3 X1.8107 Y-1.2011 I0.0032 J0.0071
N4290 G1 X1.811 Y-1.2006
N4295 G2 X1.8493 Y-1.1492 I0.126 J-0.0541
N4300 G1 X1.7051 Y-1.1493
N4305 G2 X1.7562 Y-1.2456 I-0.0973 J-0.1133
N4310 G1 Y-1.3356
N4315 G2 X1.6829 Y-1.3542 I-0.039 J0.
N4320 G3 X1.5552 Y-1.3157 I-0.1034 J-0.1119
N4325 X1.4745 Y-1.497 I0.0126 J-0.1142
N4330 X1.6355 Y-1.7278 I0.6509 J0.2822
N4335 X1.7773 Y-1.903 I1.2182 J0.8418
N4340 X2.073 Y-1.5291 I-2.9745 J2.6558
N4345 X2.0985 Y-1.4009 I-0.199 J0.1062
N4350 X1.9216 Y-1.3263 I-0.1205 J-0.0387
N4355 X1.8715 Y-1.3536 I-0.003 J-0.0541
N4360 G1 X1.869 Y-1.3578
N4365 X1.8659 Y-1.3617
N4370 X1.8624 Y-1.3651
N4375 X1.8585 Y-1.368
N4380 X1.8542 Y-1.3705
N4385 X1.8497 Y-1.3724
N4390 X1.845 Y-1.3736
N4395 X1.8401 Y-1.3743
N4400 X1.8352 Y-1.3744
N4405 X1.8303 Y-1.3738
N4410 X1.8255 Y-1.3727
N4415 X1.8209 Y-1.3709
N4420 X1.8166 Y-1.3686
N4425 X1.8126 Y-1.3657
N4430 X1.809 Y-1.3624
N4435 X1.8058 Y-1.3586
N4440 X1.8031 Y-1.3545
N4445 X1.801 Y-1.35
N4450 X1.7995 Y-1.3453
N4455 X1.7985 Y-1.3405
N4460 X1.7982 Y-1.3356
N4465 G2 X1.7993 Y-1.2362 I0.3085 J0.0462
N4470 X1.8107 Y-1.2011 I0.1922 J-0.0429
N4475 G3 X1.8068 Y-1.1908 I-0.0071 J0.0032
N4480 G1 X1.7997 Y-1.1876
N4485 X1.7979 Y-1.1868 Z-0.1917
N4490 X1.7962 Y-1.186 Z-0.191
N4495 X1.7947 Y-1.1853 Z-0.1897
N4500 X1.7936 Y-1.1848 Z-0.1881
N4505 X1.7928 Y-1.1845 Z-0.1862
N4510 X1.7926 Y-1.1844 Z-0.1842
N4515 G0 Z0.2
N4520 G1 X2.021 Y-2.1104 F650.
N4525 Z-0.0722 F10.
N4530 X2.0213 Y-2.1105 Z-0.0742 F15.
N4535 X2.022 Y-2.1107 Z-0.0761
N4540 X2.0232 Y-2.1111 Z-0.0777
N4545 X2.0247 Y-2.1117 Z-0.079
N4550 X2.0265 Y-2.1123 Z-0.0797
N4555 X2.0284 Y-2.113 Z-0.08
N4560 X2.0357 Y-2.1155
N4565 G3 X2.0457 Y-2.1108 I0.0026 J0.0074
N4570 G2 X2.0516 Y-2.0946 I0.5718 J-0.2032
N4575 X2.0618 Y-2.0797 I0.0364 J-0.0139
N4580 X2.0739 Y-2.069 I0.2239 J-0.2407
N4585 G1 X1.9565
N4590 G2 X1.9821 Y-2.1005 I-0.0525 J-0.0689
N4595 X1.9864 Y-2.1111 I-0.0338 J-0.019
N4600 X1.9952 Y-2.2027 I-0.3147 J-0.0767
N4605 G1 Y-2.4214
N4610 G2 X1.9594 Y-2.4756 I-0.059 J0.
N4615 X1.9952 Y-2.5299 I-0.0232 J-0.0543
N4620 G1 Y-2.7371
N4625 G2 X1.9568 Y-2.871 I-0.1422 J-0.0317
N4630 G1 X2.0731
N4635 G2 X2.0478 Y-2.8403 I0.0532 J0.0697
N4640 X2.0433 Y-2.8292 I0.0336 J0.0195
N4645 X2.0344 Y-2.7371 I0.3213 J0.0773
N4650 G1 Y-2.2029
N4655 G2 X2.0456 Y-2.111 I0.229 J0.0189
N4660 G3 X2.0409 Y-2.1008 I-0.0073 J0.0029
N4665 G1 X2.0335 Y-2.0982
N4670 X2.0316 Y-2.0976 Z-0.0797
N4675 X2.0298 Y-2.097 Z-0.079
N4680 X2.0283 Y-2.0964 Z-0.0777
N4685 X2.0271 Y-2.096 Z-0.0761
N4690 X2.0264 Y-2.0958 Z-0.0742
N4695 X2.0261 Y-2.0957 Z-0.0722
N4700 G0 Z0.2
N4705 G1 X2.021 Y-2.1104 F650.
N4710 Z-0.1522 F10.
N4715 X2.0213 Y-2.1105 Z-0.1542 F15.
N4720 X2.022 Y-2.1107 Z-0.1561
N4725 X2.0232 Y-2.1111 Z-0.1577
N4730 X2.0247 Y-2.1117 Z-0.159
N4735 X2.0265 Y-2.1123 Z-0.1597
N4740 X2.0284 Y-2.113 Z-0.16
N4745 X2.0357 Y-2.1155
N4750 G3 X2.0457 Y-2.1108 I0.0026 J0.0074
N4755 G2 X2.0516 Y-2.0946 I0.5718 J-0.2032
N4760 X2.0618 Y-2.0797 I0.0364 J-0.0139
N4765 X2.0739 Y-2.069 I0.2239 J-0.2407
N4770 G1 X1.9565
N4775 G2 X1.9821 Y-2.1005 I-0.0525 J-0.0689
N4780 X1.9864 Y-2.1111 I-0.0338 J-0.019
N4785 X1.9952 Y-2.2027 I-0.3147 J-0.0767
N4790 G1 Y-2.4214
N4795 G2 X1.9594 Y-2.4756 I-0.059 J0.
N4800 X1.9952 Y-2.5299 I-0.0232 J-0.0543
N4805 G1 Y-2.7371
N4810 G2 X1.9568 Y-2.871 I-0.1422 J-0.0317
N4815 G1 X2.0731
N4820 G2 X2.0478 Y-2.8403 I0.0532 J0.0697
N4825 X2.0433 Y-2.8292 I0.0336 J0.0195
N4830 X2.0344 Y-2.7371 I0.3213 J0.0773
N4835 G1 Y-2.2029
N4840 G2 X2.0456 Y-2.111 I0.229 J0.0189
N4845 G3 X2.0409 Y-2.1008 I-0.0073 J0.0029
N4850 G1 X2.0335 Y-2.0982
N4855 X2.0316 Y-2.0976 Z-0.1597
N4860 X2.0298 Y-2.097 Z-0.159
N4865 X2.0283 Y-2.0964 Z-0.1577
N4870 X2.0271 Y-2.096 Z-0.1561
N4875 X2.0264 Y-2.0958 Z-0.1542
N4880 X2.0261 Y-2.0957 Z-0.1522
N4885 G0 Z0.2
N4890 G1 X2.021 Y-2.1104 F650.
N4895 Z-0.1842 F10.
N4900 X2.0213 Y-2.1105 Z-0.1862 F15.
N4905 X2.022 Y-2.1107 Z-0.1881
N4910 X2.0232 Y-2.1111 Z-0.1897
N4915 X2.0247 Y-2.1117 Z-0.191
N4920 X2.0265 Y-2.1123 Z-0.1917
N4925 X2.0284 Y-2.113 Z-0.192
N4930 X2.0357 Y-2.1155
N4935 G3 X2.0457 Y-2.1108 I0.0026 J0.0074
N4940 G2 X2.0516 Y-2.0946 I0.5718 J-0.2032
N4945 X2.0618 Y-2.0797 I0.0364 J-0.0139
N4950 X2.0739 Y-2.069 I0.2239 J-0.2407
N4955 G1 X1.9565
N4960 G2 X1.9821 Y-2.1005 I-0.0525 J-0.0689
N4965 X1.9864 Y-2.1111 I-0.0338 J-0.019
N4970 X1.9952 Y-2.2027 I-0.3147 J-0.0767
N4975 G1 Y-2.4214
N4980 G2 X1.9594 Y-2.4756 I-0.059 J0.
N4985 X1.9952 Y-2.5299 I-0.0232 J-0.0543
N4990 G1 Y-2.7371
N4995 G2 X1.9568 Y-2.871 I-0.1422 J-0.0317
N5000 G1 X2.0731
N5005 G2 X2.0478 Y-2.8403 I0.0532 J0.0697
N5010 X2.0433 Y-2.8292 I0.0336 J0.0195
N5015 X2.0344 Y-2.7371 I0.3213 J0.0773
N5020 G1 Y-2.2029
N5025 G2 X2.0456 Y-2.111 I0.229 J0.0189
N5030 G3 X2.0409 Y-2.1008 I-0.0073 J0.0029
N5035 G1 X2.0335 Y-2.0982
N5040 X2.0316 Y-2.0976 Z-0.1917
N5045 X2.0298 Y-2.097 Z-0.191
N5050 X2.0283 Y-2.0964 Z-0.1897
N5055 X2.0271 Y-2.096 Z-0.1881
N5060 X2.0264 Y-2.0958 Z-0.1862
N5065 X2.0261 Y-2.0957 Z-0.1842
N5070 G0 Z0.2
N5075 G1 X1.8829 Y-2.4845 F650.
N5080 Z-0.0722 F10.
N5085 X1.8831 Y-2.4844 Z-0.0742 F15.
N5090 X1.8837 Y-2.4838 Z-0.0761
N5095 X1.8845 Y-2.4829 Z-0.0777
N5100 X1.8857 Y-2.4818 Z-0.079
N5105 X1.887 Y-2.4804 Z-0.0797
N5110 X1.8884 Y-2.479 Z-0.08
N5115 X1.8939 Y-2.4735
N5120 G3 Y-2.4624 I-0.0055 J0.0055
N5125 G1 X1.6434 Y-2.2146
N5130 G2 X1.5938 Y-2.0897 I0.0533 J0.0935
N5135 X1.608 Y-2.069 I0.06 J-0.0257
N5140 G1 X1.4116
N5145 G2 X1.5612 Y-2.1839 I-0.2656 J-0.5009
N5150 G1 X1.8665 Y-2.4874
N5155 G2 X1.8766 Y-2.5047 I-0.0275 J-0.0277
N5160 G3 X1.8961 Y-2.4867 I-12.2878 J13.2909
N5165 G2 X1.9131 Y-2.4756 I0.0402 J-0.0432
N5170 X1.8947 Y-2.4633 I0.0232 J0.0543
N5175 G1 X1.8939 Y-2.4624
N5180 G3 X1.8828 Y-2.4625 I-0.0055 J-0.0055
N5185 G1 X1.8773 Y-2.468
N5190 X1.8759 Y-2.4695 Z-0.0797
N5195 X1.8746 Y-2.4708 Z-0.079
N5200 X1.8735 Y-2.472 Z-0.0777
N5205 X1.8726 Y-2.4728 Z-0.0761
N5210 X1.872 Y-2.4734 Z-0.0742
N5215 X1.8719 Y-2.4736 Z-0.0722
N5220 G0 Z0.2
N5225 G1 X1.8829 Y-2.4845 F650.
N5230 Z-0.1522 F10.
N5235 X1.8831 Y-2.4844 Z-0.1542 F15.
N5240 X1.8837 Y-2.4838 Z-0.1561
N5245 X1.8845 Y-2.4829 Z-0.1577
N5250 X1.8857 Y-2.4818 Z-0.159
N5255 X1.887 Y-2.4804 Z-0.1597
N5260 X1.8884 Y-2.479 Z-0.16
N5265 X1.8939 Y-2.4735
N5270 G3 Y-2.4624 I-0.0055 J0.0055
N5275 G1 X1.6434 Y-2.2146
N5280 G2 X1.5938 Y-2.0897 I0.0533 J0.0935
N5285 X1.608 Y-2.069 I0.06 J-0.0257
N5290 G1 X1.4116
N5295 G2 X1.5612 Y-2.1839 I-0.2656 J-0.5009
N5300 G1 X1.8665 Y-2.4874
N5305 G2 X1.8766 Y-2.5047 I-0.0275 J-0.0277
N5310 G3 X1.8961 Y-2.4867 I-12.2878 J13.2909
N5315 G2 X1.9131 Y-2.4756 I0.0402 J-0.0432
N5320 X1.8947 Y-2.4633 I0.0232 J0.0543
N5325 G1 X1.8939 Y-2.4624
N5330 G3 X1.8828 Y-2.4625 I-0.0055 J-0.0055
N5335 G1 X1.8773 Y-2.468
N5340 X1.8759 Y-2.4695 Z-0.1597
N5345 X1.8746 Y-2.4708 Z-0.159
N5350 X1.8735 Y-2.472 Z-0.1577
N5355 X1.8726 Y-2.4728 Z-0.1561
N5360 X1.872 Y-2.4734 Z-0.1542
N5365 X1.8719 Y-2.4736 Z-0.1522
N5370 G0 Z0.2
N5375 G1 X1.8829 Y-2.4845 F650.
N5380 Z-0.1842 F10.
N5385 X1.8831 Y-2.4844 Z-0.1862 F15.
N5390 X1.8837 Y-2.4838 Z-0.1881
N5395 X1.8845 Y-2.4829 Z-0.1897
N5400 X1.8857 Y-2.4818 Z-0.191
N5405 X1.887 Y-2.4804 Z-0.1917
N5410 X1.8884 Y-2.479 Z-0.192
N5415 X1.8939 Y-2.4735
N5420 G3 Y-2.4624 I-0.0055 J0.0055
N5425 G1 X1.6434 Y-2.2146
N5430 G2 X1.5938 Y-2.0897 I0.0533 J0.0935
N5435 X1.608 Y-2.069 I0.06 J-0.0257
N5440 G1 X1.4116
N5445 G2 X1.5612 Y-2.1839 I-0.2656 J-0.5009
N5450 G1 X1.8665 Y-2.4874
N5455 G2 X1.8766 Y-2.5047 I-0.0275 J-0.0277
N5460 G3 X1.8961 Y-2.4867 I-12.2878 J13.2909
N5465 G2 X1.9131 Y-2.4756 I0.0402 J-0.0432
N5470 X1.8947 Y-2.4633 I0.0232 J0.0543
N5475 G1 X1.8939 Y-2.4624
N5480 G3 X1.8828 Y-2.4625 I-0.0055 J-0.0055
N5485 G1 X1.8773 Y-2.468
N5490 X1.8759 Y-2.4695 Z-0.1917
N5495 X1.8746 Y-2.4708 Z-0.191
N5500 X1.8735 Y-2.472 Z-0.1897
N5505 X1.8726 Y-2.4728 Z-0.1881
N5510 X1.872 Y-2.4734 Z-0.1862
N5515 X1.8719 Y-2.4736 Z-0.1842
N5520 G0 Z0.2
N5525 G1 X1.5806 Y-2.8588 F650.
N5530 Z-0.0722 F10.
N5535 X1.5809 Z-0.0742 F15.
N5540 X1.5816 Y-2.8586 Z-0.0761
N5545 X1.5828 Y-2.8582 Z-0.0777
N5550 X1.5844 Y-2.8578 Z-0.079
N5555 X1.5862 Y-2.8573 Z-0.0797
N5560 X1.5881 Y-2.8568 Z-0.08
N5565 X1.5956 Y-2.8547
N5570 G3 X1.6011 Y-2.8451 I-0.0021 J0.0075
N5575 G2 X1.5984 Y-2.831 I0.0979 J0.0261
N5580 Y-2.8201 I0.0386 J0.0053
N5585 G3 X1.591 Y-2.817 I-0.0022 J0.0051
N5590 G2 X1.5137 Y-2.871 I-0.3639 J0.4382
N5595 G1 X1.6156
N5600 G2 X1.6011 Y-2.8451 I0.0461 J0.0428
N5605 G3 X1.5915 Y-2.8397 I-0.0075 J-0.0021
N5610 G1 X1.584 Y-2.8417
N5615 X1.582 Y-2.8423 Z-0.0797
N5620 X1.5802 Y-2.8428 Z-0.079
N5625 X1.5787 Y-2.8432 Z-0.0777
N5630 X1.5775 Y-2.8435 Z-0.0761
N5635 X1.5767 Y-2.8437 Z-0.0742
N5640 X1.5765 Y-2.8438 Z-0.0722
N5645 G0 Z0.2
N5650 G1 X1.5806 Y-2.8588 F650.
N5655 Z-0.1522 F10.
N5660 X1.5809 Z-0.1542 F15.
N5665 X1.5816 Y-2.8586 Z-0.1561
N5670 X1.5828 Y-2.8582 Z-0.1577
N5675 X1.5844 Y-2.8578 Z-0.159
N5680 X1.5862 Y-2.8573 Z-0.1597
N5685 X1.5881 Y-2.8568 Z-0.16
N5690 X1.5956 Y-2.8547
N5695 G3 X1.6011 Y-2.8451 I-0.0021 J0.0075
N5700 G2 X1.5984 Y-2.831 I0.0979 J0.0261
N5705 Y-2.8201 I0.0386 J0.0053
N5710 G3 X1.591 Y-2.817 I-0.0022 J0.0051
N5715 G2 X1.5137 Y-2.871 I-0.3639 J0.4382
N5720 G1 X1.6156
N5725 G2 X1.6011 Y-2.8451 I0.0461 J0.0428
N5730 G3 X1.5915 Y-2.8397 I-0.0075 J-0.0021
N5735 G1 X1.584 Y-2.8417
N5740 X1.582 Y-2.8423 Z-0.1597
N5745 X1.5802 Y-2.8428 Z-0.159
N5750 X1.5787 Y-2.8432 Z-0.1577
N5755 X1.5775 Y-2.8435 Z-0.1561
N5760 X1.5767 Y-2.8437 Z-0.1542
N5765 X1.5765 Y-2.8438 Z-0.1522
N5770 G0 Z0.2
N5775 G1 X1.5806 Y-2.8588 F650.
N5780 Z-0.1842 F10.
N5785 X1.5809 Z-0.1862 F15.
N5790 X1.5816 Y-2.8586 Z-0.1881
N5795 X1.5828 Y-2.8582 Z-0.1897
N5800 X1.5844 Y-2.8578 Z-0.191
N5805 X1.5862 Y-2.8573 Z-0.1917
N5810 X1.5881 Y-2.8568 Z-0.192
N5815 X1.5956 Y-2.8547
N5820 G3 X1.6011 Y-2.8451 I-0.0021 J0.0075
N5825 G2 X1.5984 Y-2.831 I0.0979 J0.0261
N5830 Y-2.8201 I0.0386 J0.0053
N5835 G3 X1.591 Y-2.817 I-0.0022 J0.0051
N5840 G2 X1.5137 Y-2.871 I-0.3639 J0.4382
N5845 G1 X1.6156
N5850 G2 X1.6011 Y-2.8451 I0.0461 J0.0428
N5855 G3 X1.5915 Y-2.8397 I-0.0075 J-0.0021
N5860 G1 X1.584 Y-2.8417
N5865 X1.582 Y-2.8423 Z-0.1917
N5870 X1.5802 Y-2.8428 Z-0.191
N5875 X1.5787 Y-2.8432 Z-0.1897
N5880 X1.5775 Y-2.8435 Z-0.1881
N5885 X1.5767 Y-2.8437 Z-0.1862
N5890 X1.5765 Y-2.8438 Z-0.1842
N5895 G0 Z0.2
N5900 G1 X-1.7618 Y1.1842 F650.
N5905 Z-0.0722 F10.
N5910 X-1.7616 Y1.1843 Z-0.0742 F15.
N5915 X-1.7609 Y1.1846 Z-0.0761
N5920 X-1.7597 Y1.1851 Z-0.0777
N5925 X-1.7583 Y1.1857 Z-0.079
N5930 X-1.7565 Y1.1864 Z-0.0797
N5935 X-1.7547 Y1.1872 Z-0.08
N5940 X-1.7475 Y1.1903
N5945 G3 X-1.7434 Y1.2006 I-0.0031 J0.0072
N5950 G2 X-1.7565 Y1.2455 I0.1535 J0.069
N5955 G1 X-1.7562 Y1.3356
N5960 G2 X-1.6829 Y1.3542 I0.039 J0.
N5965 G3 X-1.5552 Y1.3157 I0.1034 J0.1119
N5970 X-1.4745 Y1.497 I-0.0126 J0.1142
N5975 X-1.6355 Y1.7278 I-0.6509 J-0.2822
N5980 X-1.7773 Y1.903 I-1.2182 J-0.8418
N5985 X-2.073 Y1.5291 I2.9745 J-2.6558
N5990 X-2.0985 Y1.4009 I0.199 J-0.1062
N5995 X-1.9216 Y1.3263 I0.1205 J0.0387
N6000 X-1.8715 Y1.3536 I0.003 J0.0541
N6005 G1 X-1.869 Y1.3578
N6010 X-1.8659 Y1.3617
N6015 X-1.8624 Y1.3651
N6020 X-1.8585 Y1.368
N6025 X-1.8542 Y1.3705
N6030 X-1.8497 Y1.3724
N6035 X-1.845 Y1.3736
N6040 X-1.8401 Y1.3743
N6045 X-1.8352 Y1.3744
N6050 X-1.8303 Y1.3738
N6055 X-1.8255 Y1.3727
N6060 X-1.8209 Y1.3709
N6065 X-1.8166 Y1.3686
N6070 X-1.8126 Y1.3657
N6075 X-1.809 Y1.3624
N6080 X-1.8058 Y1.3586
N6085 X-1.8031 Y1.3545
N6090 X-1.801 Y1.35
N6095 X-1.7995 Y1.3453
N6100 X-1.7985 Y1.3405
N6105 X-1.7982 Y1.3356
N6110 G2 X-1.7993 Y1.2362 I-0.3085 J-0.0462
N6115 X-1.8491 Y1.149 I-0.1535 J0.0297
N6120 G1 X-1.7051 Y1.1493
N6125 G2 X-1.7434 Y1.2006 I0.0855 J0.1036
N6130 G3 X-1.7537 Y1.2047 I-0.0072 J-0.0031
N6135 G1 X-1.7609 Y1.2016
N6140 X-1.7627 Y1.2008 Z-0.0797
N6145 X-1.7644 Y1.2 Z-0.079
N6150 X-1.7659 Y1.1994 Z-0.0777
N6155 X-1.7671 Y1.1989 Z-0.0761
N6160 X-1.7678 Y1.1986 Z-0.0742
N6165 X-1.768 Y1.1985 Z-0.0722
N6170 G0 Z0.2
N6175 G1 X-1.7618 Y1.1842 F650.
N6180 Z-0.1522 F10.
N6185 X-1.7616 Y1.1843 Z-0.1542 F15.
N6190 X-1.7609 Y1.1846 Z-0.1561
N6195 X-1.7597 Y1.1851 Z-0.1577
N6200 X-1.7583 Y1.1857 Z-0.159
N6205 X-1.7565 Y1.1864 Z-0.1597
N6210 X-1.7547 Y1.1872 Z-0.16
N6215 X-1.7475 Y1.1903
N6220 G3 X-1.7434 Y1.2006 I-0.0031 J0.0072
N6225 G2 X-1.7565 Y1.2455 I0.1535 J0.069
N6230 G1 X-1.7562 Y1.3356
N6235 G2 X-1.6829 Y1.3542 I0.039 J0.
N6240 G3 X-1.5552 Y1.3157 I0.1034 J0.1119
N6245 X-1.4745 Y1.497 I-0.0126 J0.1142
N6250 X-1.6355 Y1.7278 I-0.6509 J-0.2822
N6255 X-1.7773 Y1.903 I-1.2182 J-0.8418
N6260 X-2.073 Y1.5291 I2.9745 J-2.6558
N6265 X-2.0985 Y1.4009 I0.199 J-0.1062
N6270 X-1.9216 Y1.3263 I0.1205 J0.0387
N6275 X-1.8715 Y1.3536 I0.003 J0.0541
N6280 G1 X-1.869 Y1.3578
N6285 X-1.8659 Y1.3617
N6290 X-1.8624 Y1.3651
N6295 X-1.8585 Y1.368
N6300 X-1.8542 Y1.3705
N6305 X-1.8497 Y1.3724
N6310 X-1.845 Y1.3736
N6315 X-1.8401 Y1.3743
N6320 X-1.8352 Y1.3744
N6325 X-1.8303 Y1.3738
N6330 X-1.8255 Y1.3727
N6335 X-1.8209 Y1.3709
N6340 X-1.8166 Y1.3686
N6345 X-1.8126 Y1.3657
N6350 X-1.809 Y1.3624
N6355 X-1.8058 Y1.3586
N6360 X-1.8031 Y1.3545
N6365 X-1.801 Y1.35
N6370 X-1.7995 Y1.3453
N6375 X-1.7985 Y1.3405
N6380 X-1.7982 Y1.3356
N6385 G2 X-1.7993 Y1.2362 I-0.3085 J-0.0462
N6390 X-1.8491 Y1.149 I-0.1535 J0.0297
N6395 G1 X-1.7051 Y1.1493
N6400 G2 X-1.7434 Y1.2006 I0.0855 J0.1036
N6405 G3 X-1.7537 Y1.2047 I-0.0072 J-0.0031
N6410 G1 X-1.7609 Y1.2016
N6415 X-1.7627 Y1.2008 Z-0.1597
N6420 X-1.7644 Y1.2 Z-0.159
N6425 X-1.7659 Y1.1994 Z-0.1577
N6430 X-1.7671 Y1.1989 Z-0.1561
N6435 X-1.7678 Y1.1986 Z-0.1542
N6440 X-1.768 Y1.1985 Z-0.1522
N6445 G0 Z0.2
N6450 G1 X-1.7618 Y1.1842 F650.
N6455 Z-0.1842 F10.
N6460 X-1.7616 Y1.1843 Z-0.1862 F15.
N6465 X-1.7609 Y1.1846 Z-0.1881
N6470 X-1.7597 Y1.1851 Z-0.1897
N6475 X-1.7583 Y1.1857 Z-0.191
N6480 X-1.7565 Y1.1864 Z-0.1917
N6485 X-1.7547 Y1.1872 Z-0.192
N6490 X-1.7475 Y1.1903
N6495 G3 X-1.7434 Y1.2006 I-0.0031 J0.0072
N6500 G2 X-1.7565 Y1.2455 I0.1535 J0.069
N6505 G1 X-1.7562 Y1.3356
N6510 G2 X-1.6829 Y1.3542 I0.039 J0.
N6515 G3 X-1.5552 Y1.3157 I0.1034 J0.1119
N6520 X-1.4745 Y1.497 I-0.0126 J0.1142
N6525 X-1.6355 Y1.7278 I-0.6509 J-0.2822
N6530 X-1.7773 Y1.903 I-1.2182 J-0.8418
N6535 X-2.073 Y1.5291 I2.9745 J-2.6558
N6540 X-2.0985 Y1.4009 I0.199 J-0.1062
N6545 X-1.9216 Y1.3263 I0.1205 J0.0387
N6550 X-1.8715 Y1.3536 I0.003 J0.0541
N6555 G1 X-1.869 Y1.3578
N6560 X-1.8659 Y1.3617
N6565 X-1.8624 Y1.3651
N6570 X-1.8585 Y1.368
N6575 X-1.8542 Y1.3705
N6580 X-1.8497 Y1.3724
N6585 X-1.845 Y1.3736
N6590 X-1.8401 Y1.3743
N6595 X-1.8352 Y1.3744
N6600 X-1.8303 Y1.3738
N6605 X-1.8255 Y1.3727
N6610 X-1.8209 Y1.3709
N6615 X-1.8166 Y1.3686
N6620 X-1.8126 Y1.3657
N6625 X-1.809 Y1.3624
N6630 X-1.8058 Y1.3586
N6635 X-1.8031 Y1.3545
N6640 X-1.801 Y1.35
N6645 X-1.7995 Y1.3453
N6650 X-1.7985 Y1.3405
N6655 X-1.7982 Y1.3356
N6660 G2 X-1.7993 Y1.2362 I-0.3085 J-0.0462
N6665 X-1.8491 Y1.149 I-0.1535 J0.0297
N6670 G1 X-1.7051 Y1.1493
N6675 G2 X-1.7434 Y1.2006 I0.0855 J0.1036
N6680 G3 X-1.7537 Y1.2047 I-0.0072 J-0.0031
N6685 G1 X-1.7609 Y1.2016
N6690 X-1.7627 Y1.2008 Z-0.1917
N6695 X-1.7644 Y1.2 Z-0.191
N6700 X-1.7659 Y1.1994 Z-0.1897
N6705 X-1.7671 Y1.1989 Z-0.1881
N6710 X-1.7678 Y1.1986 Z-0.1862
N6715 X-1.768 Y1.1985 Z-0.1842
N6720 G0 Z0.2
N6725 G1 X-1.5275 Y2.1198 F650.
N6730 Z-0.0722 F10.
N6735 X-1.5274 Y2.12 Z-0.0742 F15.
N6740 X-1.5268 Y2.1205 Z-0.0761
N6745 X-1.526 Y2.1215 Z-0.0777
N6750 X-1.5249 Y2.1227 Z-0.079
N6755 X-1.5237 Y2.1241 Z-0.0797
N6760 X-1.5223 Y2.1256 Z-0.08
N6765 X-1.5171 Y2.1314
N6770 G3 X-1.5177 Y2.1424 I-0.0058 J0.0052
N6775 G2 X-1.5612 Y2.1839 I0.8525 J0.9365
N6780 G1 X-1.8665 Y2.4874
N6785 G2 X-1.8766 Y2.5047 I0.0275 J0.0277
N6790 G3 X-1.8961 Y2.4867 I12.2857 J-13.2886
N6795 G2 X-1.9131 Y2.4756 I-0.0402 J0.0432
N6800 X-1.8947 Y2.4633 I-0.0232 J-0.0543
N6805 G1 X-1.6434 Y2.2146
N6810 G2 X-1.5938 Y2.0897 I-0.0533 J-0.0935
N6815 X-1.608 Y2.069 I-0.06 J0.0257
N6820 G1 X-1.4116
N6825 G2 X-1.5177 Y2.1424 I0.2348 J0.4532
N6830 G3 X-1.5287 Y2.1418 I-0.0052 J-0.0058
N6835 G1 X-1.5339 Y2.136
N6840 X-1.5353 Y2.1345 Z-0.0797
N6845 X-1.5366 Y2.1331 Z-0.079
N6850 X-1.5376 Y2.1319 Z-0.0777
N6855 X-1.5385 Y2.1309 Z-0.0761
N6860 X-1.539 Y2.1304 Z-0.0742
N6865 X-1.5392 Y2.1302 Z-0.0722
N6870 G0 Z0.2
N6875 G1 X-1.5275 Y2.1198 F650.
N6880 Z-0.1522 F10.
N6885 X-1.5274 Y2.12 Z-0.1542 F15.
N6890 X-1.5268 Y2.1205 Z-0.1561
N6895 X-1.526 Y2.1215 Z-0.1577
N6900 X-1.5249 Y2.1227 Z-0.159
N6905 X-1.5237 Y2.1241 Z-0.1597
N6910 X-1.5223 Y2.1256 Z-0.16
N6915 X-1.5171 Y2.1314
N6920 G3 X-1.5177 Y2.1424 I-0.0058 J0.0052
N6925 G2 X-1.5612 Y2.1839 I0.8525 J0.9365
N6930 G1 X-1.8665 Y2.4874
N6935 G2 X-1.8766 Y2.5047 I0.0275 J0.0277
N6940 G3 X-1.8961 Y2.4867 I12.2857 J-13.2886
N6945 G2 X-1.9131 Y2.4756 I-0.0402 J0.0432
N6950 X-1.8947 Y2.4633 I-0.0232 J-0.0543
N6955 G1 X-1.6434 Y2.2146
N6960 G2 X-1.5938 Y2.0897 I-0.0533 J-0.0935
N6965 X-1.608 Y2.069 I-0.06 J0.0257
N6970 G1 X-1.4116
N6975 G2 X-1.5177 Y2.1424 I0.2348 J0.4532
N6980 G3 X-1.5287 Y2.1418 I-0.0052 J-0.0058
N6985 G1 X-1.5339 Y2.136
N6990 X-1.5353 Y2.1345 Z-0.1597
N6995 X-1.5366 Y2.1331 Z-0.159
N7000 X-1.5376 Y2.1319 Z-0.1577
N7005 X-1.5385 Y2.1309 Z-0.1561
N7010 X-1.539 Y2.1304 Z-0.1542
N7015 X-1.5392 Y2.1302 Z-0.1522
N7020 G0 Z0.2
N7025 G1 X-1.5275 Y2.1198 F650.
N7030 Z-0.1842 F10.
N7035 X-1.5274 Y2.12 Z-0.1862 F15.
N7040 X-1.5268 Y2.1205 Z-0.1881
N7045 X-1.526 Y2.1215 Z-0.1897
N7050 X-1.5249 Y2.1227 Z-0.191
N7055 X-1.5237 Y2.1241 Z-0.1917
N7060 X-1.5223 Y2.1256 Z-0.192
N7065 X-1.5171 Y2.1314
N7070 G3 X-1.5177 Y2.1424 I-0.0058 J0.0052
N7075 G2 X-1.5612 Y2.1839 I0.8525 J0.9365
N7080 G1 X-1.8665 Y2.4874
N7085 G2 X-1.8766 Y2.5047 I0.0275 J0.0277
N7090 G3 X-1.8961 Y2.4867 I12.2857 J-13.2886
N7095 G2 X-1.9131 Y2.4756 I-0.0402 J0.0432
N7100 X-1.8947 Y2.4633 I-0.0232 J-0.0543
N7105 G1 X-1.6434 Y2.2146
N7110 G2 X-1.5938 Y2.0897 I-0.0533 J-0.0935
N7115 X-1.608 Y2.069 I-0.06 J0.0257
N7120 G1 X-1.4116
N7125 G2 X-1.5177 Y2.1424 I0.2348 J0.4532
N7130 G3 X-1.5287 Y2.1418 I-0.0052 J-0.0058
N7135 G1 X-1.5339 Y2.136
N7140 X-1.5353 Y2.1345 Z-0.1917
N7145 X-1.5366 Y2.1331 Z-0.191
N7150 X-1.5376 Y2.1319 Z-0.1897
N7155 X-1.5385 Y2.1309 Z-0.1881
N7160 X-1.539 Y2.1304 Z-0.1862
N7165 X-1.5392 Y2.1302 Z-0.1842
N7170 G0 Z0.2
N7175 G1 X-2.0062 Y2.0951 F650.
N7180 Z-0.0722 F10.
N7185 X-2.006 Z-0.0742 F15.
N7190 X-2.0052 Y2.0953 Z-0.0761
N7195 X-2.004 Y2.0957 Z-0.0777
N7200 X-2.0025 Y2.0961 Z-0.079
N7205 X-2.0007 Y2.0966 Z-0.0797
N7210 X-1.9987 Y2.0972 Z-0.08
N7215 X-1.9912 Y2.0993
N7220 G3 X-1.9858 Y2.1089 I-0.0021 J0.0075
N7225 G1 X-1.9864 Y2.1111
N7230 G2 X-1.9952 Y2.2027 I0.3147 J0.0767
N7235 G1 Y2.4214
N7240 G2 X-1.9594 Y2.4756 I0.059 J0.
N7245 X-1.9952 Y2.5299 I0.0232 J0.0543
N7250 G1 Y2.7371
N7255 G2 X-1.9568 Y2.871 I0.1422 J0.0317
N7260 G1 X-2.0731
N7265 G2 X-2.0478 Y2.8403 I-0.0532 J-0.0697
N7270 X-2.0433 Y2.8292 I-0.0336 J-0.0195
N7275 X-2.0344 Y2.7371 I-0.3213 J-0.0773
N7280 G1 Y2.2029
N7285 G2 X-2.0516 Y2.0946 I-0.2247 J-0.0198
N7290 X-2.0618 Y2.0797 I-0.0364 J0.0139
N7295 X-2.0739 Y2.069 I-0.2239 J0.2407
N7300 G1 X-1.9565
N7305 G2 X-1.9859 Y2.1089 I0.0547 J0.071
N7310 G3 X-1.9955 Y2.1143 I-0.0075 J-0.0021
N7315 G1 X-2.003 Y2.1122
N7320 X-2.0049 Y2.1116 Z-0.0797
N7325 X-2.0067 Y2.1111 Z-0.079
N7330 X-2.0083 Y2.1107 Z-0.0777
N7335 X-2.0095 Y2.1104 Z-0.0761
N7340 X-2.0102 Y2.1101 Z-0.0742
N7345 X-2.0105 Z-0.0722
N7350 G0 Z0.2
N7355 G1 X-2.0062 Y2.0951 F650.
N7360 Z-0.1522 F10.
N7365 X-2.006 Z-0.1542 F15.
N7370 X-2.0052 Y2.0953 Z-0.1561
N7375 X-2.004 Y2.0957 Z-0.1577
N7380 X-2.0025 Y2.0961 Z-0.159
N7385 X-2.0007 Y2.0966 Z-0.1597
N7390 X-1.9987 Y2.0972 Z-0.16
N7395 X-1.9912 Y2.0993
N7400 G3 X-1.9858 Y2.1089 I-0.0021 J0.0075
N7405 G1 X-1.9864 Y2.1111
N7410 G2 X-1.9952 Y2.2027 I0.3147 J0.0767
N7415 G1 Y2.4214
N7420 G2 X-1.9594 Y2.4756 I0.059 J0.
N7425 X-1.9952 Y2.5299 I0.0232 J0.0543
N7430 G1 Y2.7371
N7435 G2 X-1.9568 Y2.871 I0.1422 J0.0317
N7440 G1 X-2.0731
N7445 G2 X-2.0478 Y2.8403 I-0.0532 J-0.0697
N7450 X-2.0433 Y2.8292 I-0.0336 J-0.0195
N7455 X-2.0344 Y2.7371 I-0.3213 J-0.0773
N7460 G1 Y2.2029
N7465 G2 X-2.0516 Y2.0946 I-0.2247 J-0.0198
N7470 X-2.0618 Y2.0797 I-0.0364 J0.0139
N7475 X-2.0739 Y2.069 I-0.2239 J0.2407
N7480 G1 X-1.9565
N7485 G2 X-1.9859 Y2.1089 I0.0547 J0.071
N7490 G3 X-1.9955 Y2.1143 I-0.0075 J-0.0021
N7495 G1 X-2.003 Y2.1122
N7500 X-2.0049 Y2.1116 Z-0.1597
N7505 X-2.0067 Y2.1111 Z-0.159
N7510 X-2.0083 Y2.1107 Z-0.1577
N7515 X-2.0095 Y2.1104 Z-0.1561
N7520 X-2.0102 Y2.1101 Z-0.1542
N7525 X-2.0105 Z-0.1522
N7530 G0 Z0.2
N7535 G1 X-2.0062 Y2.0951 F650.
N7540 Z-0.1842 F10.
N7545 X-2.006 Z-0.1862 F15.
N7550 X-2.0052 Y2.0953 Z-0.1881
N7555 X-2.004 Y2.0957 Z-0.1897
N7560 X-2.0025 Y2.0961 Z-0.191
N7565 X-2.0007 Y2.0966 Z-0.1917
N7570 X-1.9987 Y2.0972 Z-0.192
N7575 X-1.9912 Y2.0993
N7580 G3 X-1.9858 Y2.1089 I-0.0021 J0.0075
N7585 G1 X-1.9864 Y2.1111
N7590 G2 X-1.9952 Y2.2027 I0.3147 J0.0767
N7595 G1 Y2.4214
N7600 G2 X-1.9594 Y2.4756 I0.059 J0.
N7605 X-1.9952 Y2.5299 I0.0232 J0.0543
N7610 G1 Y2.7371
N7615 G2 X-1.9568 Y2.871 I0.1422 J0.0317
N7620 G1 X-2.0731
N7625 G2 X-2.0478 Y2.8403 I-0.0532 J-0.0697
N7630 X-2.0433 Y2.8292 I-0.0336 J-0.0195
N7635 X-2.0344 Y2.7371 I-0.3213 J-0.0773
N7640 G1 Y2.2029
N7645 G2 X-2.0516 Y2.0946 I-0.2247 J-0.0198
N7650 X-2.0618 Y2.0797 I-0.0364 J0.0139
N7655 X-2.0739 Y2.069 I-0.2239 J0.2407
N7660 G1 X-1.9565
N7665 G2 X-1.9859 Y2.1089 I0.0547 J0.071
N7670 G3 X-1.9955 Y2.1143 I-0.0075 J-0.0021
N7675 G1 X-2.003 Y2.1122
N7680 X-2.0049 Y2.1116 Z-0.1917
N7685 X-2.0067 Y2.1111 Z-0.191
N7690 X-2.0083 Y2.1107 Z-0.1897
N7695 X-2.0095 Y2.1104 Z-0.1881
N7700 X-2.0102 Y2.1101 Z-0.1862
N7705 X-2.0105 Z-0.1842
N7710 G0 Z0.2
N7715 G1 X-1.5893 Y2.8481 F650.
N7720 Z-0.0722 F10.
N7725 X-1.5892 Y2.8479 Z-0.0742 F15.
N7730 X-1.5887 Y2.8473 Z-0.0761
N7735 X-1.588 Y2.8463 Z-0.0777
N7740 X-1.587 Y2.845 Z-0.079
N7745 X-1.5858 Y2.8435 Z-0.0797
N7750 X-1.5846 Y2.8419 Z-0.08
N7755 X-1.5798 Y2.8358
N7760 G3 X-1.5689 Y2.8343 I0.0062 J0.0048
N7765 G2 X-1.5138 Y2.8711 I0.3094 J-0.4045
N7770 G1 X-1.6156 Y2.871
N7775 G2 X-1.5986 Y2.831 I-0.0481 J-0.044
N7780 G1 X-1.5982 Y2.8274
N7785 X-1.5981 Y2.8238
N7790 X-1.5984 Y2.8201
N7795 G3 X-1.591 Y2.817 I0.0022 J-0.0051
N7800 G2 X-1.5689 Y2.8343 I2.0938 J-2.6434
N7805 G3 X-1.5675 Y2.8453 I-0.0048 J0.0062
N7810 G1 X-1.5722 Y2.8515
N7815 X-1.5735 Y2.8531 Z-0.0797
N7820 X-1.5746 Y2.8545 Z-0.079
N7825 X-1.5756 Y2.8558 Z-0.0777
N7830 X-1.5763 Y2.8568 Z-0.0761
N7835 X-1.5768 Y2.8574 Z-0.0742
N7840 X-1.577 Y2.8576 Z-0.0722
N7845 G0 Z0.2
N7850 G1 X-1.5893 Y2.8481 F650.
N7855 Z-0.1522 F10.
N7860 X-1.5892 Y2.8479 Z-0.1542 F15.
N7865 X-1.5887 Y2.8473 Z-0.1561
N7870 X-1.588 Y2.8463 Z-0.1577
N7875 X-1.587 Y2.845 Z-0.159
N7880 X-1.5858 Y2.8435 Z-0.1597
N7885 X-1.5846 Y2.8419 Z-0.16
N7890 X-1.5798 Y2.8358
N7895 G3 X-1.5689 Y2.8343 I0.0062 J0.0048
N7900 G2 X-1.5138 Y2.8711 I0.3094 J-0.4045
N7905 G1 X-1.6156 Y2.871
N7910 G2 X-1.5986 Y2.831 I-0.0481 J-0.044
N7915 G1 X-1.5982 Y2.8274
N7920 X-1.5981 Y2.8238
N7925 X-1.5984 Y2.8201
N7930 G3 X-1.591 Y2.817 I0.0022 J-0.0051
N7935 G2 X-1.5689 Y2.8343 I2.0938 J-2.6434
N7940 G3 X-1.5675 Y2.8453 I-0.0048 J0.0062
N7945 G1 X-1.5722 Y2.8515
N7950 X-1.5735 Y2.8531 Z-0.1597
N7955 X-1.5746 Y2.8545 Z-0.159
N7960 X-1.5756 Y2.8558 Z-0.1577
N7965 X-1.5763 Y2.8568 Z-0.1561
N7970 X-1.5768 Y2.8574 Z-0.1542
N7975 X-1.577 Y2.8576 Z-0.1522
N7980 G0 Z0.2
N7985 G1 X-1.5893 Y2.8481 F650.
N7990 Z-0.1842 F10.
N7995 X-1.5892 Y2.8479 Z-0.1862 F15.
N8000 X-1.5887 Y2.8473 Z-0.1881
N8005 X-1.588 Y2.8463 Z-0.1897
N8010 X-1.587 Y2.845 Z-0.191
N8015 X-1.5858 Y2.8435 Z-0.1917
N8020 X-1.5846 Y2.8419 Z-0.192
N8025 X-1.5798 Y2.8358
N8030 G3 X-1.5689 Y2.8343 I0.0062 J0.0048
N8035 G2 X-1.5138 Y2.8711 I0.3094 J-0.4045
N8040 G1 X-1.6156 Y2.871
N8045 G2 X-1.5986 Y2.831 I-0.0481 J-0.044
N8050 G1 X-1.5982 Y2.8274
N8055 X-1.5981 Y2.8238
N8060 X-1.5984 Y2.8201
N8065 G3 X-1.591 Y2.817 I0.0022 J-0.0051
N8070 G2 X-1.5689 Y2.8343 I2.0938 J-2.6434
N8075 G3 X-1.5675 Y2.8453 I-0.0048 J0.0062
N8080 G1 X-1.5722 Y2.8515
N8085 X-1.5735 Y2.8531 Z-0.1917
N8090 X-1.5746 Y2.8545 Z-0.191
N8095 X-1.5756 Y2.8558 Z-0.1897
N8100 X-1.5763 Y2.8568 Z-0.1881
N8105 X-1.5768 Y2.8574 Z-0.1862
N8110 X-1.577 Y2.8576 Z-0.1842
N8115 G0 Z0.6
N8120 M9
N8125 M5
N8130 G53 G0 Z0.

(2D Contour14)
N8135 M1
N8140 T16 M6
N8145 S8000 M3
N8150 G54
N8155 M11
N8160 M13
N8165 G0 A0. B0.
N8170 M10
N8175 M12
N8180 M8
N8185 G1 X0.611 Y0.5998 F650.
N8190 G0 G43 Z0.6 H16
N8195 T12
N8200 G0 Z0.2
N8205 G1 Z-0.0433 F10.
N8210 X0.6112 Y0.6 Z-0.0448 F15.
N8215 X0.6117 Y0.6004 Z-0.0461
N8220 X0.6125 Y0.601 Z-0.0471
N8225 X0.6135 Y0.6019 Z-0.0478
N8230 X0.6147 Y0.6028 Z-0.048
N8235 X0.6183 Y0.6058
N8240 X0.6193 Y0.6069
N8245 X0.6198 Y0.6082
N8250 X0.62 Y0.6097
N8255 X0.6197 Y0.6111
N8260 X0.6189 Y0.6124
N8265 G3 X0.001 Y1.344 I-7.6997 J-5.8761 F3.
N8270 G1 X-0.0011
N8275 G3 X-0.6106 Y0.6224 I6.9085 J-6.4535
N8280 X-1.0971 Y-0.0591 I2.7604 J-2.4847
N8285 X-1.1822 Y-0.4876 I0.7841 J-0.3784
N8290 X-0.6084 Y-0.8698 I0.4925 J0.1176
N8295 X-0.249 Y-0.7394 I0.0004 J0.5593
N8300 X-0.2211 Y-0.6896 I-1.2749 J0.748
N8305 G2 X-0.1765 Y-0.7 I0.0211 J-0.0104
N8310 G1 Y-1.
N8315 G2 X-0.5209 Y-1.3252 I-0.3768 J0.0541
N8320 X-0.5767 Y-1.3414 I-0.1177 J0.3022
N8325 G1 Y-1.4276
N8330 X0.5767
N8335 Y-1.3414
N8340 G2 X0.2608 Y-1.1977 I0.0548 J0.5395
N8345 X0.1765 Y-1. I0.4463 J0.3072
N8350 G1 Y-0.7
N8355 G2 X0.2211 Y-0.6896 I0.0235 J0.
N8360 G3 X0.4554 Y-0.8427 I0.2664 J0.1518
N8365 X1.0583 Y-0.7244 I0.204 J0.5559
N8370 X1.152 Y-0.221 I-0.3532 J0.3261
N8375 X0.8455 Y0.3271 I-1.4568 J-0.4547
N8380 X0.6181 Y0.6117 I-2.8157 J-2.0167
N8385 G1 X0.6174 Y0.6127 F15.
N8390 X0.6163 Y0.6134
N8395 X0.615 Y0.6137
N8400 X0.6137 Y0.6136
N8405 X0.6123 Y0.613
N8410 X0.6087 Y0.61
N8415 X0.6076 Y0.6091 Z-0.0478
N8420 X0.6065 Y0.6083 Z-0.0471
N8425 X0.6057 Y0.6076 Z-0.0461
N8430 X0.6052 Y0.6072 Z-0.0448
N8435 X0.6051 Y0.6071 Z-0.0433
N8440 G0 Z0.2
N8445 G1 X0.611 Y0.5998 F650.
N8450 Z-0.0913 F10.
N8455 X0.6112 Y0.6 Z-0.0928 F15.
N8460 X0.6117 Y0.6004 Z-0.0941
N8465 X0.6125 Y0.601 Z-0.0951
N8470 X0.6135 Y0.6019 Z-0.0958
N8475 X0.6147 Y0.6028 Z-0.096
N8480 X0.6183 Y0.6058
N8485 X0.6193 Y0.6069
N8490 X0.6198 Y0.6082
N8495 X0.62 Y0.6097
N8500 X0.6197 Y0.6111
N8505 X0.6189 Y0.6124
N8510 G3 X0.001 Y1.344 I-7.6997 J-5.8761 F3.
N8515 G1 X-0.0011
N8520 G3 X-0.6106 Y0.6224 I6.9085 J-6.4535
N8525 X-1.0971 Y-0.0591 I2.7604 J-2.4847
N8530 X-1.1822 Y-0.4876 I0.7841 J-0.3784
N8535 X-0.6084 Y-0.8698 I0.4925 J0.1176
N8540 X-0.249 Y-0.7394 I0.0004 J0.5593
N8545 X-0.2211 Y-0.6896 I-1.2749 J0.748
N8550 G2 X-0.1765 Y-0.7 I0.0211 J-0.0104
N8555 G1 Y-1.
N8560 G2 X-0.5209 Y-1.3252 I-0.3768 J0.0541
N8565 X-0.5767 Y-1.3414 I-0.1177 J0.3022
N8570 G1 Y-1.4276
N8575 X0.5767
N8580 Y-1.3414
N8585 G2 X0.2608 Y-1.1977 I0.0548 J0.5395
N8590 X0.1765 Y-1. I0.4463 J0.3072
N8595 G1 Y-0.7
N8600 G2 X0.2211 Y-0.6896 I0.0235 J0.
N8605 G3 X0.4554 Y-0.8427 I0.2664 J0.1518
N8610 X1.0583 Y-0.7244 I0.204 J0.5559
N8615 X1.152 Y-0.221 I-0.3532 J0.3261
N8620 X0.8455 Y0.3271 I-1.4568 J-0.4547
N8625 X0.6181 Y0.6117 I-2.8157 J-2.0167
N8630 G1 X0.6174 Y0.6127 F15.
N8635 X0.6163 Y0.6134
N8640 X0.615 Y0.6137
N8645 X0.6137 Y0.6136
N8650 X0.6123 Y0.613
N8655 X0.6087 Y0.61
N8660 X0.6076 Y0.6091 Z-0.0958
N8665 X0.6065 Y0.6083 Z-0.0951
N8670 X0.6057 Y0.6076 Z-0.0941
N8675 X0.6052 Y0.6072 Z-0.0928
N8680 X0.6051 Y0.6071 Z-0.0913
N8685 G0 Z0.2
N8690 G1 X0.611 Y0.5998 F650.
N8695 Z-0.1393 F10.
N8700 X0.6112 Y0.6 Z-0.1408 F15.
N8705 X0.6117 Y0.6004 Z-0.1421
N8710 X0.6125 Y0.601 Z-0.1431
N8715 X0.6135 Y0.6019 Z-0.1438
N8720 X0.6147 Y0.6028 Z-0.144
N8725 X0.6183 Y0.6058
N8730 X0.6193 Y0.6069
N8735 X0.6198 Y0.6082
N8740 X0.62 Y0.6097
N8745 X0.6197 Y0.6111
N8750 X0.6189 Y0.6124
N8755 G3 X0.001 Y1.344 I-7.6997 J-5.8761 F3.
N8760 G1 X-0.0011
N8765 G3 X-0.6106 Y0.6224 I6.9085 J-6.4535
N8770 X-1.0971 Y-0.0591 I2.7604 J-2.4847
N8775 X-1.1822 Y-0.4876 I0.7841 J-0.3784
N8780 X-0.6084 Y-0.8698 I0.4925 J0.1176
N8785 X-0.249 Y-0.7394 I0.0004 J0.5593
N8790 X-0.2211 Y-0.6896 I-1.2749 J0.748
N8795 G2 X-0.1765 Y-0.7 I0.0211 J-0.0104
N8800 G1 Y-1.
N8805 G2 X-0.5209 Y-1.3252 I-0.3768 J0.0541
N8810 X-0.5767 Y-1.3414 I-0.1177 J0.3022
N8815 G1 Y-1.4276
N8820 X0.5767
N8825 Y-1.3414
N8830 G2 X0.2608 Y-1.1977 I0.0548 J0.5395
N8835 X0.1765 Y-1. I0.4463 J0.3072
N8840 G1 Y-0.7
N8845 G2 X0.2211 Y-0.6896 I0.0235 J0.
N8850 G3 X0.4554 Y-0.8427 I0.2664 J0.1518
N8855 X1.0583 Y-0.7244 I0.204 J0.5559
N8860 X1.152 Y-0.221 I-0.3532 J0.3261
N8865 X0.8455 Y0.3271 I-1.4568 J-0.4547
N8870 X0.6181 Y0.6117 I-2.8157 J-2.0167
N8875 G1 X0.6174 Y0.6127 F15.
N8880 X0.6163 Y0.6134
N8885 X0.615 Y0.6137
N8890 X0.6137 Y0.6136
N8895 X0.6123 Y0.613
N8900 X0.6087 Y0.61
N8905 X0.6076 Y0.6091 Z-0.1438
N8910 X0.6065 Y0.6083 Z-0.1431
N8915 X0.6057 Y0.6076 Z-0.1421
N8920 X0.6052 Y0.6072 Z-0.1408
N8925 X0.6051 Y0.6071 Z-0.1393
N8930 G0 Z0.2
N8935 G1 X0.611 Y0.5998 F650.
N8940 Z-0.1873 F10.
N8945 X0.6112 Y0.6 Z-0.1888 F15.
N8950 X0.6117 Y0.6004 Z-0.1901
N8955 X0.6125 Y0.601 Z-0.1911
N8960 X0.6135 Y0.6019 Z-0.1918
N8965 X0.6147 Y0.6028 Z-0.192
N8970 X0.6183 Y0.6058
N8975 X0.6193 Y0.6069
N8980 X0.6198 Y0.6082
N8985 X0.62 Y0.6097
N8990 X0.6197 Y0.6111
N8995 X0.6189 Y0.6124
N9000 G3 X0.001 Y1.344 I-7.6997 J-5.8761 F3.
N9005 G1 X-0.0011
N9010 G3 X-0.6106 Y0.6224 I6.9085 J-6.4535
N9015 X-1.0971 Y-0.0591 I2.7604 J-2.4847
N9020 X-1.1822 Y-0.4876 I0.7841 J-0.3784
N9025 X-0.6084 Y-0.8698 I0.4925 J0.1176
N9030 X-0.249 Y-0.7394 I0.0004 J0.5593
N9035 X-0.2211 Y-0.6896 I-1.2749 J0.748
N9040 G2 X-0.1765 Y-0.7 I0.0211 J-0.0104
N9045 G1 Y-1.
N9050 G2 X-0.5209 Y-1.3252 I-0.3768 J0.0541
N9055 X-0.5767 Y-1.3414 I-0.1177 J0.3022
N9060 G1 Y-1.4276
N9065 X0.5767
N9070 Y-1.3414
N9075 G2 X0.2608 Y-1.1977 I0.0548 J0.5395
N9080 X0.1765 Y-1. I0.4463 J0.3072
N9085 G1 Y-0.7
N9090 G2 X0.2211 Y-0.6896 I0.0235 J0.
N9095 G3 X0.4554 Y-0.8427 I0.2664 J0.1518
N9100 X1.0583 Y-0.7244 I0.204 J0.5559
N9105 X1.152 Y-0.221 I-0.3532 J0.3261
N9110 X0.8455 Y0.3271 I-1.4568 J-0.4547
N9115 X0.6181 Y0.6117 I-2.8157 J-2.0167
N9120 G1 X0.6174 Y0.6127 F15.
N9125 X0.6163 Y0.6134
N9130 X0.615 Y0.6137
N9135 X0.6137 Y0.6136
N9140 X0.6123 Y0.613
N9145 X0.6087 Y0.61
N9150 X0.6076 Y0.6091 Z-0.1918
N9155 X0.6065 Y0.6083 Z-0.1911
N9160 X0.6057 Y0.6076 Z-0.1901
N9165 X0.6052 Y0.6072 Z-0.1888
N9170 X0.6051 Y0.6071 Z-0.1873
N9175 G0 Z0.2
N9180 G1 X1.8101 Y-1.206 F650.
N9185 Z-0.0433 F10.
N9190 X1.8103 Y-1.2061 Z-0.0448 F15.
N9195 X1.8109 Y-1.2064 Z-0.0461
N9200 X1.8119 Y-1.2068 Z-0.0471
N9205 X1.8131 Y-1.2073 Z-0.0478
N9210 X1.8144 Y-1.2079 Z-0.048
N9215 X1.8187 Y-1.2098
N9220 X1.8201 Y-1.2102
N9225 X1.8216
N9230 X1.8229 Y-1.2096
N9235 X1.8241 Y-1.2087
N9240 X1.8249 Y-1.2075
N9245 G2 X1.9176 Y-1.1338 I0.116 J-0.0507 F3.
N9250 G1 X1.6368
N9255 G2 X1.7404 Y-1.2456 I-0.0245 J-0.1266
N9260 G1 X1.7407 Y-1.3356
N9265 G2 X1.6965 Y-1.3468 I-0.0235 J0.
N9270 G3 X1.5717 Y-1.2991 I-0.1096 J-0.0997
N9275 X1.4598 Y-1.5033 I-0.0031 J-0.1311
N9280 X1.6491 Y-1.7685 I0.8141 J0.3809
N9285 X1.7766 Y-1.9241 I0.7899 J0.5175
N9290 G1 X1.7783 Y-1.9245
N9295 G3 X2.0867 Y-1.5361 I-2.8271 J2.5618
N9300 X2.1136 Y-1.3977 I-0.2118 J0.113
N9305 X1.9114 Y-1.3132 I-0.1366 J-0.0429
N9310 X1.858 Y-1.3465 I0.0018 J-0.0624
N9315 G2 X1.8137 Y-1.3356 I-0.0208 J0.0109
N9320 X1.8144 Y-1.24 I0.2958 J0.0457
N9325 X1.8249 Y-1.2075 I0.1772 J-0.0393
N9330 G1 X1.8253 Y-1.2061 F15.
N9335 X1.8252 Y-1.2046
N9340 X1.8247 Y-1.2032
N9345 X1.8238 Y-1.2021
N9350 X1.8225 Y-1.2013
N9355 X1.8182 Y-1.1993
N9360 X1.8169 Y-1.1987 Z-0.0478
N9365 X1.8157 Y-1.1982 Z-0.0471
N9370 X1.8148 Y-1.1978 Z-0.0461
N9375 X1.8142 Y-1.1975 Z-0.0448
N9380 X1.8139 Y-1.1974 Z-0.0433
N9385 G0 Z0.2
N9390 G1 X1.8101 Y-1.206 F650.
N9395 Z-0.0913 F10.
N9400 X1.8103 Y-1.2061 Z-0.0928 F15.
N9405 X1.8109 Y-1.2064 Z-0.0941
N9410 X1.8119 Y-1.2068 Z-0.0951
N9415 X1.8131 Y-1.2073 Z-0.0958
N9420 X1.8144 Y-1.2079 Z-0.096
N9425 X1.8187 Y-1.2098
N9430 X1.8201 Y-1.2102
N9435 X1.8216
N9440 X1.8229 Y-1.2096
N9445 X1.8241 Y-1.2087
N9450 X1.8249 Y-1.2075
N9455 G2 X1.9176 Y-1.1338 I0.116 J-0.0507 F3.
N9460 G1 X1.6368
N9465 G2 X1.7404 Y-1.2456 I-0.0245 J-0.1266
N9470 G1 X1.7407 Y-1.3356
N9475 G2 X1.6965 Y-1.3468 I-0.0235 J0.
N9480 G3 X1.5717 Y-1.2991 I-0.1096 J-0.0997
N9485 X1.4598 Y-1.5033 I-0.0031 J-0.1311
N9490 X1.6491 Y-1.7685 I0.8141 J0.3809
N9495 X1.7766 Y-1.9241 I0.7899 J0.5175
N9500 G1 X1.7783 Y-1.9245
N9505 G3 X2.0867 Y-1.5361 I-2.8271 J2.5618
N9510 X2.1136 Y-1.3977 I-0.2118 J0.113
N9515 X1.9114 Y-1.3132 I-0.1366 J-0.0429
N9520 X1.858 Y-1.3465 I0.0018 J-0.0624
N9525 G2 X1.8137 Y-1.3356 I-0.0208 J0.0109
N9530 X1.8144 Y-1.24 I0.2958 J0.0457
N9535 X1.8249 Y-1.2075 I0.1772 J-0.0393
N9540 G1 X1.8253 Y-1.2061 F15.
N9545 X1.8252 Y-1.2046
N9550 X1.8247 Y-1.2032
N9555 X1.8238 Y-1.2021
N9560 X1.8225 Y-1.2013
N9565 X1.8182 Y-1.1993
N9570 X1.8169 Y-1.1987 Z-0.0958
N9575 X1.8157 Y-1.1982 Z-0.0951
N9580 X1.8148 Y-1.1978 Z-0.0941
N9585 X1.8142 Y-1.1975 Z-0.0928
N9590 X1.8139 Y-1.1974 Z-0.0913
N9595 G0 Z0.2
N9600 G1 X1.8101 Y-1.206 F650.
N9605 Z-0.1393 F10.
N9610 X1.8103 Y-1.2061 Z-0.1408 F15.
N9615 X1.8109 Y-1.2064 Z-0.1421
N9620 X1.8119 Y-1.2068 Z-0.1431
N9625 X1.8131 Y-1.2073 Z-0.1438
N9630 X1.8144 Y-1.2079 Z-0.144
N9635 X1.8187 Y-1.2098
N9640 X1.8201 Y-1.2102
N9645 X1.8216
N9650 X1.8229 Y-1.2096
N9655 X1.8241 Y-1.2087
N9660 X1.8249 Y-1.2075
N9665 G2 X1.9176 Y-1.1338 I0.116 J-0.0507 F3.
N9670 G1 X1.6368
N9675 G2 X1.7404 Y-1.2456 I-0.0245 J-0.1266
N9680 G1 X1.7407 Y-1.3356
N9685 G2 X1.6965 Y-1.3468 I-0.0235 J0.
N9690 G3 X1.5717 Y-1.2991 I-0.1096 J-0.0997
N9695 X1.4598 Y-1.5033 I-0.0031 J-0.1311
N9700 X1.6491 Y-1.7685 I0.8141 J0.3809
N9705 X1.7766 Y-1.9241 I0.7899 J0.5175
N9710 G1 X1.7783 Y-1.9245
N9715 G3 X2.0867 Y-1.5361 I-2.8271 J2.5618
N9720 X2.1136 Y-1.3977 I-0.2118 J0.113
N9725 X1.9114 Y-1.3132 I-0.1366 J-0.0429
N9730 X1.858 Y-1.3465 I0.0018 J-0.0624
N9735 G2 X1.8137 Y-1.3356 I-0.0208 J0.0109
N9740 X1.8144 Y-1.24 I0.2958 J0.0457
N9745 X1.8249 Y-1.2075 I0.1772 J-0.0393
N9750 G1 X1.8253 Y-1.2061 F15.
N9755 X1.8252 Y-1.2046
N9760 X1.8247 Y-1.2032
N9765 X1.8238 Y-1.2021
N9770 X1.8225 Y-1.2013
N9775 X1.8182 Y-1.1993
N9780 X1.8169 Y-1.1987 Z-0.1438
N9785 X1.8157 Y-1.1982 Z-0.1431
N9790 X1.8148 Y-1.1978 Z-0.1421
N9795 X1.8142 Y-1.1975 Z-0.1408
N9800 X1.8139 Y-1.1974 Z-0.1393
N9805 G0 Z0.2
N9810 G1 X1.8101 Y-1.206 F650.
N9815 Z-0.1873 F10.
N9820 X1.8103 Y-1.2061 Z-0.1888 F15.
N9825 X1.8109 Y-1.2064 Z-0.1901
N9830 X1.8119 Y-1.2068 Z-0.1911
N9835 X1.8131 Y-1.2073 Z-0.1918
N9840 X1.8144 Y-1.2079 Z-0.192
N9845 X1.8187 Y-1.2098
N9850 X1.8201 Y-1.2102
N9855 X1.8216
N9860 X1.8229 Y-1.2096
N9865 X1.8241 Y-1.2087
N9870 X1.8249 Y-1.2075
N9875 G2 X1.9176 Y-1.1338 I0.116 J-0.0507 F3.
N9880 G1 X1.6368
N9885 G2 X1.7404 Y-1.2456 I-0.0245 J-0.1266
N9890 G1 X1.7407 Y-1.3356
N9895 G2 X1.6965 Y-1.3468 I-0.0235 J0.
N9900 G3 X1.5717 Y-1.2991 I-0.1096 J-0.0997
N9905 X1.4598 Y-1.5033 I-0.0031 J-0.1311
N9910 X1.6491 Y-1.7685 I0.8141 J0.3809
N9915 X1.7766 Y-1.9241 I0.7899 J0.5175
N9920 G1 X1.7783 Y-1.9245
N9925 G3 X2.0867 Y-1.5361 I-2.8271 J2.5618
N9930 X2.1136 Y-1.3977 I-0.2118 J0.113
N9935 X1.9114 Y-1.3132 I-0.1366 J-0.0429
N9940 X1.858 Y-1.3465 I0.0018 J-0.0624
N9945 G2 X1.8137 Y-1.3356 I-0.0208 J0.0109
N9950 X1.8144 Y-1.24 I0.2958 J0.0457
N9955 X1.8249 Y-1.2075 I0.1772 J-0.0393
N9960 G1 X1.8253 Y-1.2061 F15.
N9965 X1.8252 Y-1.2046
N9970 X1.8247 Y-1.2032
N9975 X1.8238 Y-1.2021
N9980 X1.8225 Y-1.2013
N9985 X1.8182 Y-1.1993
N9990 X1.8169 Y-1.1987 Z-0.1918
N9995 X1.8157 Y-1.1982 Z-0.1911
N10000 X1.8148 Y-1.1978 Z-0.1901
N10005 X1.8142 Y-1.1975 Z-0.1888
N10010 X1.8139 Y-1.1974 Z-0.1873
N10015 G0 Z0.2
N10020 G1 X1.9431 Y-2.0616 F650.
N10025 Z-0.0433 F10.
N10030 X1.943 Y-2.0618 Z-0.0448 F15.
N10035 X1.9426 Y-2.0624 Z-0.0461
N10040 X1.942 Y-2.0633 Z-0.0471
N10045 X1.9413 Y-2.0644 Z-0.0478
N10050 X1.9405 Y-2.0656 Z-0.048
N10055 X1.938 Y-2.0695
N10060 X1.9374 Y-2.0709
N10065 X1.9373 Y-2.0724
N10070 X1.9376 Y-2.0738
N10075 X1.9383 Y-2.0751
N10080 X1.9394 Y-2.076
N10085 G2 X1.976 Y-2.1765 I-0.0533 J-0.0763 F3.
N10090 X1.9797 Y-2.2027 I-0.0506 J-0.0205
N10095 G1 Y-2.4214
N10100 G2 X1.9056 Y-2.4523 I-0.0435 J0.
N10105 G1 X1.6542 Y-2.2035
N10110 G2 X1.6056 Y-2.1032 I0.0461 J0.0843
N10115 X1.6697 Y-2.0535 I0.0733 J-0.0282
N10120 G1 X1.323
N10125 G3 X1.3505 Y-2.0633 I0.0307 J0.0427
N10130 G2 X1.5504 Y-2.195 I-0.123 J-0.4043
N10135 G1 X1.8556 Y-2.4984
N10140 G2 Y-2.5317 I-0.0166 J-0.0167
N10145 X1.5369 Y-2.8429 I-4.3603 J4.1466
N10150 X1.4316 Y-2.8865 I-0.3115 J0.6038
N10155 G1 X1.6886
N10160 Y-2.8846
N10165 G2 X1.6374 Y-2.7698 I-0.0095 J0.0646
N10170 X1.9078 Y-2.4994 I1.4684 J-1.1978
N10175 G1 X1.9114 Y-2.4962
N10180 X1.9155 Y-2.4935
N10185 X1.9198 Y-2.4912
N10190 X1.9243 Y-2.4895
N10195 X1.9291 Y-2.4883
N10200 X1.9339 Y-2.4877
N10205 X1.9389 Y-2.4876
N10210 X1.9437 Y-2.4881
N10215 X1.9486 Y-2.4892
N10220 X1.9532 Y-2.4908
N10225 X1.9577 Y-2.493
N10230 X1.9619 Y-2.4956
N10235 X1.9657 Y-2.4988
N10240 X1.9692 Y-2.5023
N10245 X1.9723 Y-2.5063
N10250 X1.9748 Y-2.5106
N10255 X1.9769 Y-2.5151
N10260 X1.9784 Y-2.5199
N10265 X1.9794 Y-2.5249
N10270 X1.9797 Y-2.5299
N10275 Y-2.7371
N10280 G2 X1.9539 Y-2.853 I-0.1345 J-0.0308
N10285 X1.8626 Y-2.8865 I-0.095 J0.1177
N10290 G1 X2.1683
N10295 Y-2.8846
N10300 G2 X2.0532 Y-2.7488 I-0.0138 J0.105
N10305 G1 X2.0499 Y-2.7442
N10310 Y-2.7371
N10315 Y-2.2028
N10320 G2 X2.0661 Y-2.1002 I0.2096 J0.0195
N10325 X2.0722 Y-2.0912 I0.0219 J-0.0084
N10330 G1 X2.0749 Y-2.0888
N10335 X2.0776 Y-2.0864
N10340 X2.0804 Y-2.0839
N10345 X2.0833 Y-2.0814
N10350 X2.0837 Y-2.0811
N10355 X2.0864 Y-2.0788
N10360 X2.0868 Y-2.0785
N10365 X2.0896 Y-2.0763
N10370 X2.0901 Y-2.0759
N10375 X2.0929 Y-2.0739
N10380 X2.0936 Y-2.0734
N10385 X2.0964 Y-2.0715
N10390 X2.0973 Y-2.0709
N10395 X2.1002 Y-2.0691
N10400 X2.1011 Y-2.0686
N10405 G2 X2.1683 Y-2.0535 I0.07 J-0.1547
N10410 G1 X1.8626
N10415 G2 X1.9392 Y-2.0759 I-0.0045 J-0.1578
N10420 G1 X1.9405 Y-2.0766 F15.
N10425 X1.942 Y-2.0768
N10430 X1.9435 Y-2.0765
N10435 X1.9449 Y-2.0758
N10440 X1.9459 Y-2.0746
N10445 X1.9484 Y-2.0707
N10450 X1.9492 Y-2.0695 Z-0.0478
N10455 X1.9499 Y-2.0684 Z-0.0471
N10460 X1.9505 Y-2.0675 Z-0.0461
N10465 X1.9509 Y-2.0669 Z-0.0448
N10470 X1.951 Y-2.0667 Z-0.0433
N10475 G0 Z0.2
N10480 G1 X2.0454 Y-2.1156 F650.
N10485 Z-0.0913 F10.
N10490 X2.0456 Y-2.1157 Z-0.0928 F15.
N10495 X2.0463 Y-2.1159 Z-0.0941
N10500 X2.0473 Y-2.1163 Z-0.0951
N10505 X2.0485 Y-2.1167 Z-0.0958
N10510 X2.0499 Y-2.1172 Z-0.096
N10515 X2.0543 Y-2.1188
N10520 X2.0558 Y-2.119
N10525 X2.0572 Y-2.1188
N10530 X2.0585 Y-2.1182
N10535 X2.0596 Y-2.1172
N10540 X2.0603 Y-2.1159
N10545 G2 X2.0661 Y-2.1002 I0.5585 J-0.1986 F3.
N10550 X2.0722 Y-2.0912 I0.0219 J-0.0084
N10555 G1 X2.0749 Y-2.0888
N10560 X2.0776 Y-2.0864
N10565 X2.0804 Y-2.0839
N10570 X2.0833 Y-2.0814
N10575 X2.0837 Y-2.0811
N10580 X2.0864 Y-2.0788
N10585 X2.0868 Y-2.0785
N10590 X2.0896 Y-2.0763
N10595 X2.0901 Y-2.0759
N10600 X2.0929 Y-2.0739
N10605 X2.0936 Y-2.0734
N10610 X2.0964 Y-2.0715
N10615 X2.0973 Y-2.0709
N10620 X2.1002 Y-2.0691
N10625 X2.1011 Y-2.0686
N10630 G2 X2.1683 Y-2.0535 I0.07 J-0.1547
N10635 G1 X1.8626
N10640 Y-2.0552
N10645 G2 X1.9762 Y-2.191 I0.0126 J-0.1049
N10650 G1 X1.9798 Y-2.1957
N10655 X1.9797 Y-2.2027
N10660 Y-2.4214
N10665 G2 X1.9056 Y-2.4523 I-0.0435 J0.
N10670 G1 X1.6542 Y-2.2035
N10675 G2 X1.6056 Y-2.1032 I0.0461 J0.0843
N10680 X1.6697 Y-2.0535 I0.0733 J-0.0282
N10685 G1 X1.323
N10690 G3 X1.3505 Y-2.0633 I0.0307 J0.0427
N10695 G2 X1.5504 Y-2.195 I-0.123 J-0.4043
N10700 G1 X1.8556 Y-2.4984
N10705 G2 Y-2.5317 I-0.0166 J-0.0167
N10710 X1.5369 Y-2.8429 I-4.3603 J4.1466
N10715 X1.4316 Y-2.8865 I-0.3115 J0.6038
N10720 G1 X1.6886
N10725 Y-2.8846
N10730 G2 X1.6374 Y-2.7698 I-0.0095 J0.0646
N10735 X1.9078 Y-2.4994 I1.4684 J-1.1978
N10740 G1 X1.9114 Y-2.4962
N10745 X1.9155 Y-2.4935
N10750 X1.9198 Y-2.4912
N10755 X1.9243 Y-2.4895
N10760 X1.9291 Y-2.4883
N10765 X1.9339 Y-2.4877
N10770 X1.9389 Y-2.4876
N10775 X1.9437 Y-2.4881
N10780 X1.9486 Y-2.4892
N10785 X1.9532 Y-2.4908
N10790 X1.9577 Y-2.493
N10795 X1.9619 Y-2.4956
N10800 X1.9657 Y-2.4988
N10805 X1.9692 Y-2.5023
N10810 X1.9723 Y-2.5063
N10815 X1.9748 Y-2.5106
N10820 X1.9769 Y-2.5151
N10825 X1.9784 Y-2.5199
N10830 X1.9794 Y-2.5249
N10835 X1.9797 Y-2.5299
N10840 Y-2.7371
N10845 G2 X1.9539 Y-2.853 I-0.1345 J-0.0308
N10850 X1.8626 Y-2.8865 I-0.095 J0.1177
N10855 G1 X2.1683
N10860 Y-2.8846
N10865 G2 X2.0532 Y-2.7488 I-0.0138 J0.105
N10870 G1 X2.0499 Y-2.7442
N10875 Y-2.7371
N10880 Y-2.2028
N10885 G2 X2.0602 Y-2.116 I0.209 J0.0192
N10890 G1 X2.0606 Y-2.1146 F15.
N10895 X2.0604 Y-2.1131
N10900 X2.0598 Y-2.1117
N10905 X2.0587 Y-2.1106
N10910 X2.0574 Y-2.1099
N10915 X2.053 Y-2.1083
N10920 X2.0516 Y-2.1078 Z-0.0958
N10925 X2.0504 Y-2.1074 Z-0.0951
N10930 X2.0494 Y-2.1071 Z-0.0941
N10935 X2.0488 Y-2.1069 Z-0.0928
N10940 X2.0485 Y-2.1068 Z-0.0913
N10945 G0 Z0.2
N10950 G1 X2.0454 Y-2.1156 F650.
N10955 Z-0.1393 F10.
N10960 X2.0456 Y-2.1157 Z-0.1408 F15.
N10965 X2.0463 Y-2.1159 Z-0.1421
N10970 X2.0473 Y-2.1163 Z-0.1431
N10975 X2.0485 Y-2.1167 Z-0.1438
N10980 X2.0499 Y-2.1172 Z-0.144
N10985 X2.0543 Y-2.1188
N10990 X2.0558 Y-2.119
N10995 X2.0572 Y-2.1188
N11000 X2.0585 Y-2.1182
N11005 X2.0596 Y-2.1172
N11010 X2.0603 Y-2.1159
N11015 G2 X2.0661 Y-2.1002 I0.5585 J-0.1986 F3.
N11020 X2.0722 Y-2.0912 I0.0219 J-0.0084
N11025 G1 X2.0749 Y-2.0888
N11030 X2.0776 Y-2.0864
N11035 X2.0804 Y-2.0839
N11040 X2.0833 Y-2.0814
N11045 X2.0837 Y-2.0811
N11050 X2.0864 Y-2.0788
N11055 X2.0868 Y-2.0785
N11060 X2.0896 Y-2.0763
N11065 X2.0901 Y-2.0759
N11070 X2.0929 Y-2.0739
N11075 X2.0936 Y-2.0734
N11080 X2.0964 Y-2.0715
N11085 X2.0973 Y-2.0709
N11090 X2.1002 Y-2.0691
N11095 X2.1011 Y-2.0686
N11100 G2 X2.1683 Y-2.0535 I0.07 J-0.1547
N11105 G1 X1.8626
N11110 Y-2.0552
N11115 G2 X1.9762 Y-2.191 I0.0126 J-0.1049
N11120 G1 X1.9798 Y-2.1957
N11125 X1.9797 Y-2.2027
N11130 Y-2.4214
N11135 G2 X1.9056 Y-2.4523 I-0.0435 J0.
N11140 G1 X1.6542 Y-2.2035
N11145 G2 X1.6056 Y-2.1032 I0.0461 J0.0843
N11150 X1.6697 Y-2.0535 I0.0733 J-0.0282
N11155 G1 X1.323
N11160 G3 X1.3505 Y-2.0633 I0.0307 J0.0427
N11165 G2 X1.5504 Y-2.195 I-0.123 J-0.4043
N11170 G1 X1.8556 Y-2.4984
N11175 G2 Y-2.5317 I-0.0166 J-0.0167
N11180 X1.5369 Y-2.8429 I-4.3603 J4.1466
N11185 X1.4316 Y-2.8865 I-0.3115 J0.6038
N11190 G1 X1.6886
N11195 Y-2.8846
N11200 G2 X1.6374 Y-2.7698 I-0.0095 J0.0646
N11205 X1.9078 Y-2.4994 I1.4684 J-1.1978
N11210 G1 X1.9114 Y-2.4962
N11215 X1.9155 Y-2.4935
N11220 X1.9198 Y-2.4912
N11225 X1.9243 Y-2.4895
N11230 X1.9291 Y-2.4883
N11235 X1.9339 Y-2.4877
N11240 X1.9389 Y-2.4876
N11245 X1.9437 Y-2.4881
N11250 X1.9486 Y-2.4892
N11255 X1.9532 Y-2.4908
N11260 X1.9577 Y-2.493
N11265 X1.9619 Y-2.4956
N11270 X1.9657 Y-2.4988
N11275 X1.9692 Y-2.5023
N11280 X1.9723 Y-2.5063
N11285 X1.9748 Y-2.5106
N11290 X1.9769 Y-2.5151
N11295 X1.9784 Y-2.5199
N11300 X1.9794 Y-2.5249
N11305 X1.9797 Y-2.5299
N11310 Y-2.7371
N11315 G2 X1.9539 Y-2.853 I-0.1345 J-0.0308
N11320 X1.8626 Y-2.8865 I-0.095 J0.1177
N11325 G1 X2.1683
N11330 Y-2.8846
N11335 G2 X2.0532 Y-2.7488 I-0.0138 J0.105
N11340 G1 X2.0499 Y-2.7442
N11345 Y-2.7371
N11350 Y-2.2028
N11355 G2 X2.0602 Y-2.116 I0.209 J0.0192
N11360 G1 X2.0606 Y-2.1146 F15.
N11365 X2.0604 Y-2.1131
N11370 X2.0598 Y-2.1117
N11375 X2.0587 Y-2.1106
N11380 X2.0574 Y-2.1099
N11385 X2.053 Y-2.1083
N11390 X2.0516 Y-2.1078 Z-0.1438
N11395 X2.0504 Y-2.1074 Z-0.1431
N11400 X2.0494 Y-2.1071 Z-0.1421
N11405 X2.0488 Y-2.1069 Z-0.1408
N11410 X2.0485 Y-2.1068 Z-0.1393
N11415 G0 Z0.2
N11420 G1 X2.0454 Y-2.1156 F650.
N11425 Z-0.1873 F10.
N11430 X2.0456 Y-2.1157 Z-0.1888 F15.
N11435 X2.0463 Y-2.1159 Z-0.1901
N11440 X2.0473 Y-2.1163 Z-0.1911
N11445 X2.0485 Y-2.1167 Z-0.1918
N11450 X2.0499 Y-2.1172 Z-0.192
N11455 X2.0543 Y-2.1188
N11460 X2.0558 Y-2.119
N11465 X2.0572 Y-2.1188
N11470 X2.0585 Y-2.1182
N11475 X2.0596 Y-2.1172
N11480 X2.0603 Y-2.1159
N11485 G2 X2.0661 Y-2.1002 I0.5585 J-0.1986 F3.
N11490 X2.0722 Y-2.0912 I0.0219 J-0.0084
N11495 G1 X2.0749 Y-2.0888
N11500 X2.0776 Y-2.0864
N11505 X2.0804 Y-2.0839
N11510 X2.0833 Y-2.0814
N11515 X2.0837 Y-2.0811
N11520 X2.0864 Y-2.0788
N11525 X2.0868 Y-2.0785
N11530 X2.0896 Y-2.0763
N11535 X2.0901 Y-2.0759
N11540 X2.0929 Y-2.0739
N11545 X2.0936 Y-2.0734
N11550 X2.0964 Y-2.0715
N11555 X2.0973 Y-2.0709
N11560 X2.1002 Y-2.0691
N11565 X2.1011 Y-2.0686
N11570 G2 X2.1683 Y-2.0535 I0.07 J-0.1547
N11575 G1 X1.8626
N11580 Y-2.0552
N11585 G2 X1.9762 Y-2.191 I0.0126 J-0.1049
N11590 G1 X1.9798 Y-2.1957
N11595 X1.9797 Y-2.2027
N11600 Y-2.4214
N11605 G2 X1.9056 Y-2.4523 I-0.0435 J0.
N11610 G1 X1.6542 Y-2.2035
N11615 G2 X1.6056 Y-2.1032 I0.0461 J0.0843
N11620 X1.6697 Y-2.0535 I0.0733 J-0.0282
N11625 G1 X1.323
N11630 G3 X1.3505 Y-2.0633 I0.0307 J0.0427
N11635 G2 X1.5504 Y-2.195 I-0.123 J-0.4043
N11640 G1 X1.8556 Y-2.4984
N11645 G2 Y-2.5317 I-0.0166 J-0.0167
N11650 X1.5369 Y-2.8429 I-4.3603 J4.1466
N11655 X1.4316 Y-2.8865 I-0.3115 J0.6038
N11660 G1 X1.6886
N11665 Y-2.8846
N11670 G2 X1.6374 Y-2.7698 I-0.0095 J0.0646
N11675 X1.9078 Y-2.4994 I1.4684 J-1.1978
N11680 G1 X1.9114 Y-2.4962
N11685 X1.9155 Y-2.4935
N11690 X1.9198 Y-2.4912
N11695 X1.9243 Y-2.4895
N11700 X1.9291 Y-2.4883
N11705 X1.9339 Y-2.4877
N11710 X1.9389 Y-2.4876
N11715 X1.9437 Y-2.4881
N11720 X1.9486 Y-2.4892
N11725 X1.9532 Y-2.4908
N11730 X1.9577 Y-2.493
N11735 X1.9619 Y-2.4956
N11740 X1.9657 Y-2.4988
N11745 X1.9692 Y-2.5023
N11750 X1.9723 Y-2.5063
N11755 X1.9748 Y-2.5106
N11760 X1.9769 Y-2.5151
N11765 X1.9784 Y-2.5199
N11770 X1.9794 Y-2.5249
N11775 X1.9797 Y-2.5299
N11780 Y-2.7371
N11785 G2 X1.9539 Y-2.853 I-0.1345 J-0.0308
N11790 X1.8626 Y-2.8865 I-0.095 J0.1177
N11795 G1 X2.1683
N11800 Y-2.8846
N11805 G2 X2.0532 Y-2.7488 I-0.0138 J0.105
N11810 G1 X2.0499 Y-2.7442
N11815 Y-2.7371
N11820 Y-2.2028
N11825 G2 X2.0602 Y-2.116 I0.209 J0.0192
N11830 G1 X2.0606 Y-2.1146 F15.
N11835 X2.0604 Y-2.1131
N11840 X2.0598 Y-2.1117
N11845 X2.0587 Y-2.1106
N11850 X2.0574 Y-2.1099
N11855 X2.053 Y-2.1083
N11860 X2.0516 Y-2.1078 Z-0.1918
N11865 X2.0504 Y-2.1074 Z-0.1911
N11870 X2.0494 Y-2.1071 Z-0.1901
N11875 X2.0488 Y-2.1069 Z-0.1888
N11880 X2.0485 Y-2.1068 Z-0.1873
N11885 G0 Z0.2
N11890 G1 X-1.7403 Y1.1968 F650.
N11895 Z-0.0433 F10.
N11900 X-1.7401 Y1.1969 Z-0.0448 F15.
N11905 X-1.7395 Y1.1972 Z-0.0461
N11910 X-1.7385 Y1.1976 Z-0.0471
N11915 X-1.7373 Y1.1981 Z-0.0478
N11920 X-1.736 Y1.1987 Z-0.048
N11925 X-1.7317 Y1.2005
N11930 X-1.7304 Y1.2013
N11935 X-1.7295 Y1.2025
N11940 X-1.7289 Y1.2038
N11945 X-1.7288 Y1.2053
N11950 X-1.7292 Y1.2067
N11955 G2 X-1.7409 Y1.2456 I0.1473 J0.0657 F3.
N11960 G1 X-1.7407 Y1.3356
N11965 G2 X-1.6965 Y1.3468 I0.0235 J0.
N11970 G3 X-1.5717 Y1.2991 I0.1096 J0.0997
N11975 X-1.4598 Y1.5033 I0.0031 J0.1311
N11980 X-1.6491 Y1.7685 I-0.8141 J-0.3809
N11985 X-1.7766 Y1.9241 I-0.7899 J-0.5175
N11990 G1 X-1.7783 Y1.9245
N11995 G3 X-2.0867 Y1.5361 I2.8271 J-2.5618
N12000 X-2.1136 Y1.3977 I0.2118 J-0.113
N12005 X-1.9114 Y1.3132 I0.1366 J0.0429
N12010 X-1.858 Y1.3465 I-0.0018 J0.0624
N12015 G2 X-1.8137 Y1.3356 I0.0208 J-0.0109
N12020 X-1.8144 Y1.24 I-0.2958 J-0.0457
N12025 X-1.9176 Y1.1338 I-0.1283 J0.0215
N12030 G1 X-1.6368
N12035 G2 X-1.7295 Y1.2066 I0.0241 J0.1261
N12040 G1 X-1.7302 Y1.2078 F15.
N12045 X-1.7312 Y1.2087
N12050 X-1.7325 Y1.2093
N12055 X-1.7339 Y1.2095
N12060 X-1.7354 Y1.2092
N12065 X-1.7397 Y1.2073
N12070 X-1.741 Y1.2067 Z-0.0478
N12075 X-1.7422 Y1.2062 Z-0.0471
N12080 X-1.7432 Y1.2058 Z-0.0461
N12085 X-1.7438 Y1.2055 Z-0.0448
N12090 X-1.744 Z-0.0433
N12095 G0 Z0.2
N12100 G1 X-1.7403 Y1.1968 F650.
N12105 Z-0.0913 F10.
N12110 X-1.7401 Y1.1969 Z-0.0928 F15.
N12115 X-1.7395 Y1.1972 Z-0.0941
N12120 X-1.7385 Y1.1976 Z-0.0951
N12125 X-1.7373 Y1.1981 Z-0.0958
N12130 X-1.736 Y1.1987 Z-0.096
N12135 X-1.7317 Y1.2005
N12140 X-1.7304 Y1.2013
N12145 X-1.7295 Y1.2025
N12150 X-1.7289 Y1.2038
N12155 X-1.7288 Y1.2053
N12160 X-1.7292 Y1.2067
N12165 G2 X-1.7409 Y1.2456 I0.1473 J0.0657 F3.
N12170 G1 X-1.7407 Y1.3356
N12175 G2 X-1.6965 Y1.3468 I0.0235 J0.
N12180 G3 X-1.5717 Y1.2991 I0.1096 J0.0997
N12185 X-1.4598 Y1.5033 I0.0031 J0.1311
N12190 X-1.6491 Y1.7685 I-0.8141 J-0.3809
N12195 X-1.7766 Y1.9241 I-0.7899 J-0.5175
N12200 G1 X-1.7783 Y1.9245
N12205 G3 X-2.0867 Y1.5361 I2.8271 J-2.5618
N12210 X-2.1136 Y1.3977 I0.2118 J-0.113
N12215 X-1.9114 Y1.3132 I0.1366 J0.0429
N12220 X-1.858 Y1.3465 I-0.0018 J0.0624
N12225 G2 X-1.8137 Y1.3356 I0.0208 J-0.0109
N12230 X-1.8144 Y1.24 I-0.2958 J-0.0457
N12235 X-1.9176 Y1.1338 I-0.1283 J0.0215
N12240 G1 X-1.6368
N12245 G2 X-1.7295 Y1.2066 I0.0241 J0.1261
N12250 G1 X-1.7302 Y1.2078 F15.
N12255 X-1.7312 Y1.2087
N12260 X-1.7325 Y1.2093
N12265 X-1.7339 Y1.2095
N12270 X-1.7354 Y1.2092
N12275 X-1.7397 Y1.2073
N12280 X-1.741 Y1.2067 Z-0.0958
N12285 X-1.7422 Y1.2062 Z-0.0951
N12290 X-1.7432 Y1.2058 Z-0.0941
N12295 X-1.7438 Y1.2055 Z-0.0928
N12300 X-1.744 Z-0.0913
N12305 G0 Z0.2
N12310 G1 X-1.7403 Y1.1968 F650.
N12315 Z-0.1393 F10.
N12320 X-1.7401 Y1.1969 Z-0.1408 F15.
N12325 X-1.7395 Y1.1972 Z-0.1421
N12330 X-1.7385 Y1.1976 Z-0.1431
N12335 X-1.7373 Y1.1981 Z-0.1438
N12340 X-1.736 Y1.1987 Z-0.144
N12345 X-1.7317 Y1.2005
N12350 X-1.7304 Y1.2013
N12355 X-1.7295 Y1.2025
N12360 X-1.7289 Y1.2038
N12365 X-1.7288 Y1.2053
N12370 X-1.7292 Y1.2067
N12375 G2 X-1.7409 Y1.2456 I0.1473 J0.0657 F3.
N12380 G1 X-1.7407 Y1.3356
N12385 G2 X-1.6965 Y1.3468 I0.0235 J0.
N12390 G3 X-1.5717 Y1.2991 I0.1096 J0.0997
N12395 X-1.4598 Y1.5033 I0.0031 J0.1311
N12400 X-1.6491 Y1.7685 I-0.8141 J-0.3809
N12405 X-1.7766 Y1.9241 I-0.7899 J-0.5175
N12410 G1 X-1.7783 Y1.9245
N12415 G3 X-2.0867 Y1.5361 I2.8271 J-2.5618
N12420 X-2.1136 Y1.3977 I0.2118 J-0.113
N12425 X-1.9114 Y1.3132 I0.1366 J0.0429
N12430 X-1.858 Y1.3465 I-0.0018 J0.0624
N12435 G2 X-1.8137 Y1.3356 I0.0208 J-0.0109
N12440 X-1.8144 Y1.24 I-0.2958 J-0.0457
N12445 X-1.9176 Y1.1338 I-0.1283 J0.0215
N12450 G1 X-1.6368
N12455 G2 X-1.7295 Y1.2066 I0.0241 J0.1261
N12460 G1 X-1.7302 Y1.2078 F15.
N12465 X-1.7312 Y1.2087
N12470 X-1.7325 Y1.2093
N12475 X-1.7339 Y1.2095
N12480 X-1.7354 Y1.2092
N12485 X-1.7397 Y1.2073
N12490 X-1.741 Y1.2067 Z-0.1438
N12495 X-1.7422 Y1.2062 Z-0.1431
N12500 X-1.7432 Y1.2058 Z-0.1421
N12505 X-1.7438 Y1.2055 Z-0.1408
N12510 X-1.744 Z-0.1393
N12515 G0 Z0.2
N12520 G1 X-1.7403 Y1.1968 F650.
N12525 Z-0.1873 F10.
N12530 X-1.7401 Y1.1969 Z-0.1888 F15.
N12535 X-1.7395 Y1.1972 Z-0.1901
N12540 X-1.7385 Y1.1976 Z-0.1911
N12545 X-1.7373 Y1.1981 Z-0.1918
N12550 X-1.736 Y1.1987 Z-0.192
N12555 X-1.7317 Y1.2005
N12560 X-1.7304 Y1.2013
N12565 X-1.7295 Y1.2025
N12570 X-1.7289 Y1.2038
N12575 X-1.7288 Y1.2053
N12580 X-1.7292 Y1.2067
N12585 G2 X-1.7409 Y1.2456 I0.1473 J0.0657 F3.
N12590 G1 X-1.7407 Y1.3356
N12595 G2 X-1.6965 Y1.3468 I0.0235 J0.
N12600 G3 X-1.5717 Y1.2991 I0.1096 J0.0997
N12605 X-1.4598 Y1.5033 I0.0031 J0.1311
N12610 X-1.6491 Y1.7685 I-0.8141 J-0.3809
N12615 X-1.7766 Y1.9241 I-0.7899 J-0.5175
N12620 G1 X-1.7783 Y1.9245
N12625 G3 X-2.0867 Y1.5361 I2.8271 J-2.5618
N12630 X-2.1136 Y1.3977 I0.2118 J-0.113
N12635 X-1.9114 Y1.3132 I0.1366 J0.0429
N12640 X-1.858 Y1.3465 I-0.0018 J0.0624
N12645 G2 X-1.8137 Y1.3356 I0.0208 J-0.0109
N12650 X-1.8144 Y1.24 I-0.2958 J-0.0457
N12655 X-1.9176 Y1.1338 I-0.1283 J0.0215
N12660 G1 X-1.6368
N12665 G2 X-1.7295 Y1.2066 I0.0241 J0.1261
N12670 G1 X-1.7302 Y1.2078 F15.
N12675 X-1.7312 Y1.2087
N12680 X-1.7325 Y1.2093
N12685 X-1.7339 Y1.2095
N12690 X-1.7354 Y1.2092
N12695 X-1.7397 Y1.2073
N12700 X-1.741 Y1.2067 Z-0.1918
N12705 X-1.7422 Y1.2062 Z-0.1911
N12710 X-1.7432 Y1.2058 Z-0.1901
N12715 X-1.7438 Y1.2055 Z-0.1888
N12720 X-1.744 Z-0.1873
N12725 G0 Z0.2
N12730 G1 X-1.9325 Y2.0563 F650.
N12735 Z-0.0433 F10.
N12740 X-1.9324 Y2.0565 Z-0.0448 F15.
N12745 X-1.9321 Y2.0571 Z-0.0461
N12750 X-1.9317 Y2.0581 Z-0.0471
N12755 X-1.9311 Y2.0592 Z-0.0478
N12760 X-1.9305 Y2.0606 Z-0.048
N12765 X-1.9285 Y2.0648
N12770 X-1.928 Y2.0662
N12775 X-1.9281 Y2.0677
N12780 X-1.9285 Y2.0691
N12785 X-1.9294 Y2.0702
N12790 X-1.9306 Y2.0711
N12795 G2 X-1.976 Y2.1728 I0.0403 J0.0789 F3.
N12800 X-1.9797 Y2.2027 I0.0573 J0.0224
N12805 G1 Y2.4214
N12810 G2 X-1.9056 Y2.4523 I0.0435 J0.
N12815 G1 X-1.6542 Y2.2035
N12820 G2 X-1.6056 Y2.1032 I-0.0461 J-0.0843
N12825 X-1.6697 Y2.0535 I-0.0733 J0.0282
N12830 G1 X-1.323
N12835 G3 X-1.3505 Y2.0633 I-0.0307 J-0.0427
N12840 G2 X-1.5504 Y2.195 I0.123 J0.4043
N12845 G1 X-1.8556 Y2.4984
N12850 G2 Y2.5317 I0.0166 J0.0167
N12855 X-1.5369 Y2.8429 I4.3603 J-4.1466
N12860 X-1.4316 Y2.8865 I0.3115 J-0.6038
N12865 G1 X-1.6886
N12870 Y2.8846
N12875 G2 X-1.6374 Y2.7697 I0.0095 J-0.0646
N12880 X-1.9078 Y2.4994 I-1.4687 J1.1982
N12885 G1 X-1.9114 Y2.4962
N12890 X-1.9155 Y2.4935
N12895 X-1.9198 Y2.4912
N12900 X-1.9243 Y2.4895
N12905 X-1.9291 Y2.4883
N12910 X-1.9339 Y2.4877
N12915 X-1.9389 Y2.4876
N12920 X-1.9437 Y2.4881
N12925 X-1.9486 Y2.4892
N12930 X-1.9532 Y2.4908
N12935 X-1.9577 Y2.493
N12940 X-1.9619 Y2.4956
N12945 X-1.9657 Y2.4988
N12950 X-1.9692 Y2.5023
N12955 X-1.9723 Y2.5063
N12960 X-1.9748 Y2.5106
N12965 X-1.9769 Y2.5151
N12970 X-1.9784 Y2.5199
N12975 X-1.9794 Y2.5249
N12980 X-1.9797 Y2.5299
N12985 Y2.7371
N12990 G2 X-1.9539 Y2.853 I0.1345 J0.0308
N12995 X-1.8626 Y2.8865 I0.095 J-0.1177
N13000 G1 X-2.1683
N13005 Y2.8846
N13010 G2 X-2.0532 Y2.7488 I0.0138 J-0.105
N13015 G1 X-2.0499 Y2.7442
N13020 Y2.7371
N13025 Y2.2028
N13030 G2 X-2.0661 Y2.1002 I-0.2096 J-0.0195
N13035 X-2.0722 Y2.0912 I-0.0219 J0.0084
N13040 G1 X-2.0749 Y2.0888
N13045 X-2.0776 Y2.0864
N13050 X-2.0804 Y2.0839
N13055 X-2.0833 Y2.0814
N13060 X-2.0837 Y2.0811
N13065 X-2.0864 Y2.0788
N13070 X-2.0868 Y2.0785
N13075 X-2.0896 Y2.0763
N13080 X-2.0901 Y2.0759
N13085 X-2.0929 Y2.0739
N13090 X-2.0936 Y2.0734
N13095 X-2.0964 Y2.0715
N13100 X-2.0973 Y2.0709
N13105 X-2.1002 Y2.0691
N13110 X-2.1011 Y2.0686
N13115 G2 X-2.1683 Y2.0535 I-0.07 J0.1547
N13120 G1 X-1.8626
N13125 G2 X-1.9306 Y2.0711 I0.0056 J0.1626
N13130 G1 X-1.9321 Y2.0715 F15.
N13135 X-1.9335
N13140 X-1.9349 Y2.071
N13145 X-1.9361 Y2.0701
N13150 X-1.9369 Y2.0689
N13155 X-1.939 Y2.0646
N13160 X-1.9396 Y2.0633 Z-0.0478
N13165 X-1.9401 Y2.0621 Z-0.0471
N13170 X-1.9406 Y2.0612 Z-0.0461
N13175 X-1.9409 Y2.0606 Z-0.0448
N13180 X-1.941 Y2.0604 Z-0.0433
N13185 G0 Z0.2
N13190 G1 X-1.9325 Y2.0563 F650.
N13195 Z-0.0913 F10.
N13200 X-1.9324 Y2.0565 Z-0.0928 F15.
N13205 X-1.9321 Y2.0571 Z-0.0941
N13210 X-1.9317 Y2.0581 Z-0.0951
N13215 X-1.9311 Y2.0592 Z-0.0958
N13220 X-1.9305 Y2.0606 Z-0.096
N13225 X-1.9285 Y2.0648
N13230 X-1.928 Y2.0662
N13235 X-1.9281 Y2.0677
N13240 X-1.9285 Y2.0691
N13245 X-1.9294 Y2.0702
N13250 X-1.9306 Y2.0711
N13255 G2 X-1.976 Y2.1728 I0.0403 J0.0789 F3.
N13260 X-1.9797 Y2.2027 I0.0573 J0.0224
N13265 G1 Y2.4214
N13270 G2 X-1.9056 Y2.4523 I0.0435 J0.
N13275 G1 X-1.6542 Y2.2035
N13280 G2 X-1.6056 Y2.1032 I-0.0461 J-0.0843
N13285 X-1.6697 Y2.0535 I-0.0733 J0.0282
N13290 G1 X-1.323
N13295 G3 X-1.3505 Y2.0633 I-0.0307 J-0.0427
N13300 G2 X-1.5504 Y2.195 I0.123 J0.4043
N13305 G1 X-1.8556 Y2.4984
N13310 G2 Y2.5317 I0.0166 J0.0167
N13315 X-1.5369 Y2.8429 I4.3603 J-4.1466
N13320 X-1.4316 Y2.8865 I0.3115 J-0.6038
N13325 G1 X-1.6886
N13330 Y2.8846
N13335 G2 X-1.6374 Y2.7697 I0.0095 J-0.0646
N13340 X-1.9078 Y2.4994 I-1.4687 J1.1982
N13345 G1 X-1.9114 Y2.4962
N13350 X-1.9155 Y2.4935
N13355 X-1.9198 Y2.4912
N13360 X-1.9243 Y2.4895
N13365 X-1.9291 Y2.4883
N13370 X-1.9339 Y2.4877
N13375 X-1.9389 Y2.4876
N13380 X-1.9437 Y2.4881
N13385 X-1.9486 Y2.4892
N13390 X-1.9532 Y2.4908
N13395 X-1.9577 Y2.493
N13400 X-1.9619 Y2.4956
N13405 X-1.9657 Y2.4988
N13410 X-1.9692 Y2.5023
N13415 X-1.9723 Y2.5063
N13420 X-1.9748 Y2.5106
N13425 X-1.9769 Y2.5151
N13430 X-1.9784 Y2.5199
N13435 X-1.9794 Y2.5249
N13440 X-1.9797 Y2.5299
N13445 Y2.7371
N13450 G2 X-1.9539 Y2.853 I0.1345 J0.0308
N13455 X-1.8626 Y2.8865 I0.095 J-0.1177
N13460 G1 X-2.1683
N13465 Y2.8846
N13470 G2 X-2.0532 Y2.7488 I0.0138 J-0.105
N13475 G1 X-2.0499 Y2.7442
N13480 Y2.7371
N13485 Y2.2028
N13490 G2 X-2.0661 Y2.1002 I-0.2096 J-0.0195
N13495 X-2.0722 Y2.0912 I-0.0219 J0.0084
N13500 G1 X-2.0749 Y2.0888
N13505 X-2.0776 Y2.0864
N13510 X-2.0804 Y2.0839
N13515 X-2.0833 Y2.0814
N13520 X-2.0837 Y2.0811
N13525 X-2.0864 Y2.0788
N13530 X-2.0868 Y2.0785
N13535 X-2.0896 Y2.0763
N13540 X-2.0901 Y2.0759
N13545 X-2.0929 Y2.0739
N13550 X-2.0936 Y2.0734
N13555 X-2.0964 Y2.0715
N13560 X-2.0973 Y2.0709
N13565 X-2.1002 Y2.0691
N13570 X-2.1011 Y2.0686
N13575 G2 X-2.1683 Y2.0535 I-0.07 J0.1547
N13580 G1 X-1.8626
N13585 G2 X-1.9306 Y2.0711 I0.0056 J0.1626
N13590 G1 X-1.9321 Y2.0715 F15.
N13595 X-1.9335
N13600 X-1.9349 Y2.071
N13605 X-1.9361 Y2.0701
N13610 X-1.9369 Y2.0689
N13615 X-1.939 Y2.0646
N13620 X-1.9396 Y2.0633 Z-0.0958
N13625 X-1.9401 Y2.0621 Z-0.0951
N13630 X-1.9406 Y2.0612 Z-0.0941
N13635 X-1.9409 Y2.0606 Z-0.0928
N13640 X-1.941 Y2.0604 Z-0.0913
N13645 G0 Z0.2
N13650 G1 X-1.9325 Y2.0563 F650.
N13655 Z-0.1393 F10.
N13660 X-1.9324 Y2.0565 Z-0.1408 F15.
N13665 X-1.9321 Y2.0571 Z-0.1421
N13670 X-1.9317 Y2.0581 Z-0.1431
N13675 X-1.9311 Y2.0592 Z-0.1438
N13680 X-1.9305 Y2.0606 Z-0.144
N13685 X-1.9285 Y2.0648
N13690 X-1.928 Y2.0662
N13695 X-1.9281 Y2.0677
N13700 X-1.9285 Y2.0691
N13705 X-1.9294 Y2.0702
N13710 X-1.9306 Y2.0711
N13715 G2 X-1.976 Y2.1728 I0.0403 J0.0789 F3.
N13720 X-1.9797 Y2.2027 I0.0573 J0.0224
N13725 G1 Y2.4214
N13730 G2 X-1.9056 Y2.4523 I0.0435 J0.
N13735 G1 X-1.6542 Y2.2035
N13740 G2 X-1.6056 Y2.1032 I-0.0461 J-0.0843
N13745 X-1.6697 Y2.0535 I-0.0733 J0.0282
N13750 G1 X-1.323
N13755 G3 X-1.3505 Y2.0633 I-0.0307 J-0.0427
N13760 G2 X-1.5504 Y2.195 I0.123 J0.4043
N13765 G1 X-1.8556 Y2.4984
N13770 G2 Y2.5317 I0.0166 J0.0167
N13775 X-1.5369 Y2.8429 I4.3603 J-4.1466
N13780 X-1.4316 Y2.8865 I0.3115 J-0.6038
N13785 G1 X-1.6886
N13790 Y2.8846
N13795 G2 X-1.6374 Y2.7697 I0.0095 J-0.0646
N13800 X-1.9078 Y2.4994 I-1.4687 J1.1982
N13805 G1 X-1.9114 Y2.4962
N13810 X-1.9155 Y2.4935
N13815 X-1.9198 Y2.4912
N13820 X-1.9243 Y2.4895
N13825 X-1.9291 Y2.4883
N13830 X-1.9339 Y2.4877
N13835 X-1.9389 Y2.4876
N13840 X-1.9437 Y2.4881
N13845 X-1.9486 Y2.4892
N13850 X-1.9532 Y2.4908
N13855 X-1.9577 Y2.493
N13860 X-1.9619 Y2.4956
N13865 X-1.9657 Y2.4988
N13870 X-1.9692 Y2.5023
N13875 X-1.9723 Y2.5063
N13880 X-1.9748 Y2.5106
N13885 X-1.9769 Y2.5151
N13890 X-1.9784 Y2.5199
N13895 X-1.9794 Y2.5249
N13900 X-1.9797 Y2.5299
N13905 Y2.7371
N13910 G2 X-1.9539 Y2.853 I0.1345 J0.0308
N13915 X-1.8626 Y2.8865 I0.095 J-0.1177
N13920 G1 X-2.1683
N13925 Y2.8846
N13930 G2 X-2.0532 Y2.7488 I0.0138 J-0.105
N13935 G1 X-2.0499 Y2.7442
N13940 Y2.7371
N13945 Y2.2028
N13950 G2 X-2.0661 Y2.1002 I-0.2096 J-0.0195
N13955 X-2.0722 Y2.0912 I-0.0219 J0.0084
N13960 G1 X-2.0749 Y2.0888
N13965 X-2.0776 Y2.0864
N13970 X-2.0804 Y2.0839
N13975 X-2.0833 Y2.0814
N13980 X-2.0837 Y2.0811
N13985 X-2.0864 Y2.0788
N13990 X-2.0868 Y2.0785
N13995 X-2.0896 Y2.0763
N14000 X-2.0901 Y2.0759
N14005 X-2.0929 Y2.0739
N14010 X-2.0936 Y2.0734
N14015 X-2.0964 Y2.0715
N14020 X-2.0973 Y2.0709
N14025 X-2.1002 Y2.0691
N14030 X-2.1011 Y2.0686
N14035 G2 X-2.1683 Y2.0535 I-0.07 J0.1547
N14040 G1 X-1.8626
N14045 G2 X-1.9306 Y2.0711 I0.0056 J0.1626
N14050 G1 X-1.9321 Y2.0715 F15.
N14055 X-1.9335
N14060 X-1.9349 Y2.071
N14065 X-1.9361 Y2.0701
N14070 X-1.9369 Y2.0689
N14075 X-1.939 Y2.0646
N14080 X-1.9396 Y2.0633 Z-0.1438
N14085 X-1.9401 Y2.0621 Z-0.1431
N14090 X-1.9406 Y2.0612 Z-0.1421
N14095 X-1.9409 Y2.0606 Z-0.1408
N14100 X-1.941 Y2.0604 Z-0.1393
N14105 G0 Z0.2
N14110 G1 X-1.9325 Y2.0563 F650.
N14115 Z-0.1873 F10.
N14120 X-1.9324 Y2.0565 Z-0.1888 F15.
N14125 X-1.9321 Y2.0571 Z-0.1901
N14130 X-1.9317 Y2.0581 Z-0.1911
N14135 X-1.9311 Y2.0592 Z-0.1918
N14140 X-1.9305 Y2.0606 Z-0.192
N14145 X-1.9285 Y2.0648
N14150 X-1.928 Y2.0662
N14155 X-1.9281 Y2.0677
N14160 X-1.9285 Y2.0691
N14165 X-1.9294 Y2.0702
N14170 X-1.9306 Y2.0711
N14175 G2 X-1.976 Y2.1728 I0.0403 J0.0789 F3.
N14180 X-1.9797 Y2.2027 I0.0573 J0.0224
N14185 G1 Y2.4214
N14190 G2 X-1.9056 Y2.4523 I0.0435 J0.
N14195 G1 X-1.6542 Y2.2035
N14200 G2 X-1.6056 Y2.1032 I-0.0461 J-0.0843
N14205 X-1.6697 Y2.0535 I-0.0733 J0.0282
N14210 G1 X-1.323
N14215 G3 X-1.3505 Y2.0633 I-0.0307 J-0.0427
N14220 G2 X-1.5504 Y2.195 I0.123 J0.4043
N14225 G1 X-1.8556 Y2.4984
N14230 G2 Y2.5317 I0.0166 J0.0167
N14235 X-1.5369 Y2.8429 I4.3603 J-4.1466
N14240 X-1.4316 Y2.8865 I0.3115 J-0.6038
N14245 G1 X-1.6886
N14250 Y2.8846
N14255 G2 X-1.6374 Y2.7697 I0.0095 J-0.0646
N14260 X-1.9078 Y2.4994 I-1.4687 J1.1982
N14265 G1 X-1.9114 Y2.4962
N14270 X-1.9155 Y2.4935
N14275 X-1.9198 Y2.4912
N14280 X-1.9243 Y2.4895
N14285 X-1.9291 Y2.4883
N14290 X-1.9339 Y2.4877
N14295 X-1.9389 Y2.4876
N14300 X-1.9437 Y2.4881
N14305 X-1.9486 Y2.4892
N14310 X-1.9532 Y2.4908
N14315 X-1.9577 Y2.493
N14320 X-1.9619 Y2.4956
N14325 X-1.9657 Y2.4988
N14330 X-1.9692 Y2.5023
N14335 X-1.9723 Y2.5063
N14340 X-1.9748 Y2.5106
N14345 X-1.9769 Y2.5151
N14350 X-1.9784 Y2.5199
N14355 X-1.9794 Y2.5249
N14360 X-1.9797 Y2.5299
N14365 Y2.7371
N14370 G2 X-1.9539 Y2.853 I0.1345 J0.0308
N14375 X-1.8626 Y2.8865 I0.095 J-0.1177
N14380 G1 X-2.1683
N14385 Y2.8846
N14390 G2 X-2.0532 Y2.7488 I0.0138 J-0.105
N14395 G1 X-2.0499 Y2.7442
N14400 Y2.7371
N14405 Y2.2028
N14410 G2 X-2.0661 Y2.1002 I-0.2096 J-0.0195
N14415 X-2.0722 Y2.0912 I-0.0219 J0.0084
N14420 G1 X-2.0749 Y2.0888
N14425 X-2.0776 Y2.0864
N14430 X-2.0804 Y2.0839
N14435 X-2.0833 Y2.0814
N14440 X-2.0837 Y2.0811
N14445 X-2.0864 Y2.0788
N14450 X-2.0868 Y2.0785
N14455 X-2.0896 Y2.0763
N14460 X-2.0901 Y2.0759
N14465 X-2.0929 Y2.0739
N14470 X-2.0936 Y2.0734
N14475 X-2.0964 Y2.0715
N14480 X-2.0973 Y2.0709
N14485 X-2.1002 Y2.0691
N14490 X-2.1011 Y2.0686
N14495 G2 X-2.1683 Y2.0535 I-0.07 J0.1547
N14500 G1 X-1.8626
N14505 G2 X-1.9306 Y2.0711 I0.0056 J0.1626
N14510 G1 X-1.9321 Y2.0715 F15.
N14515 X-1.9335
N14520 X-1.9349 Y2.071
N14525 X-1.9361 Y2.0701
N14530 X-1.9369 Y2.0689
N14535 X-1.939 Y2.0646
N14540 X-1.9396 Y2.0633 Z-0.1918
N14545 X-1.9401 Y2.0621 Z-0.1911
N14550 X-1.9406 Y2.0612 Z-0.1901
N14555 X-1.9409 Y2.0606 Z-0.1888
N14560 X-1.941 Y2.0604 Z-0.1873
N14565 G0 Z0.6

(2D Pocket11)
N14570 G1 X-0.1541 Y1.0911 F650.
N14575 G0 Z0.6
N14580 Z0.2
N14585 G1 Z-0.0203 F10.
N14590 X-0.1542 Y1.0912 Z-0.0218
N14595 X-0.1548 Y1.0916 Z-0.0231
N14600 X-0.1557 Y1.0921 Z-0.0241
N14605 X-0.1568 Y1.0928 Z-0.0248
N14610 X-0.158 Y1.0936 Z-0.025
N14615 X-0.2091 Y1.1262
N14620 X-0.2171 Y1.1315 F3.
N14625 G3 X-0.2288 Y1.126 I-0.0042 J-0.0062
N14630 G2 X-0.2317 Y1.099 I-0.7708 J0.0716
N14635 G3 X-0.2172 Y1.0934 I0.0079 J-0.001
N14640 G1 X-0.1878 Y1.1363
N14645 G3 X-0.1902 Y1.1476 I-0.0066 J0.0045
N14650 G2 X-0.243 Y1.1866 I0.2163 J0.3483
N14655 G3 X-0.2535 Y1.182 I-0.0042 J-0.0048
N14660 G1 X-0.2546 Y1.1446
N14665 G2 X-0.2578 Y1.1028 I-0.4586 J0.0139
N14670 X-0.2643 Y1.0607 I-0.6987 J0.0855
N14675 G3 X-0.2501 Y1.0543 I0.0079 J-0.0014
N14680 G1 X-0.1702 Y1.1559
N14685 G3 X-0.1723 Y1.1677 I-0.0063 J0.0049
N14690 G2 X-0.2716 Y1.2544 I0.1984 J0.3272
N14695 G3 X-0.2809 Y1.2508 I-0.0041 J-0.0033
N14700 G2 X-0.2984 Y1.034 I-0.8045 J-0.0444
N14705 X-0.3033 Y1.0133 I-0.6173 J0.1353
N14710 G3 X-0.2893 Y1.0063 I0.0078 J-0.002
N14715 G1 X-0.1535 Y1.1747
N14720 G3 X-0.1557 Y1.1866 I-0.0062 J0.005
N14725 G2 X-0.2954 Y1.3358 I0.1811 J0.3096
N14730 X-0.3042 Y1.3551 I0.2848 J0.1409
N14735 G3 X-0.3127 Y1.3746 I-0.4918 J-0.2037
N14740 G1 X-0.3136 Y1.3758
N14745 X-0.3148 Y1.3766
N14750 X-0.3162 Y1.377
N14755 X-0.3177 Y1.3768
N14760 X-0.319 Y1.3761
N14765 X-0.32 Y1.375
N14770 X-0.3205 Y1.3736
N14775 X-0.3206 Y1.3721
N14780 G2 X-0.3049 Y1.1717 I-1.0061 J-0.1795
N14785 X-0.3408 Y0.974 I-0.6331 J0.0129
N14790 G1 X-0.3454 Y0.9616
N14795 G3 X-0.3317 Y0.9537 I0.0075 J-0.0028
N14800 G1 X-0.1389 Y1.1902
N14805 G3 X-0.1411 Y1.2022 I-0.0062 J0.0051
N14810 G2 X-0.2765 Y1.3452 I0.167 J0.2936
N14815 X-0.3121 Y1.4232 I1.2556 J0.6211
N14820 X-0.3194 Y1.4423 I0.2819 J0.1189
N14825 G3 X-0.3266 Y1.4615 I-0.4117 J-0.1421
N14830 X-0.3434 Y1.4696 I-0.0128 J-0.0051
N14835 G1 X-0.3503 Y1.4675
N14840 G3 X-0.3595 Y1.4517 I0.0036 J-0.0127
N14845 X-0.3486 Y1.4079 I3.7684 J0.9179
N14850 G2 X-0.3392 Y1.3637 I-0.5178 J-0.1325
N14855 X-0.3263 Y1.1646 I-0.9742 J-0.1632
N14860 X-0.3656 Y0.9689 I-0.618 J0.0225
N14865 X-0.4016 Y0.891 I-0.5622 J0.2119
N14870 G1 X-0.4015 Y0.7087
N14875 X-0.4017 Y0.7079
N14880 X-0.4021 Y0.7071
N14885 X-0.4028 Y0.7066
N14890 X-0.6304 Y0.5852
N14895 X-0.6311 Y0.5849
N14900 X-0.6319
N14905 X-0.6326 Y0.5852
N14910 X-0.643 Y0.5902
N14915 G2 X-0.6881 Y0.5775 I-0.1631 J0.4925
N14920 G3 X-0.6895 Y0.567 I0.0013 J-0.0055
N14925 G1 X-0.6707 Y0.557
N14930 X-0.6688 Y0.5563
N14935 X-0.6668 Y0.5561
N14940 X-0.6648 Y0.5563
N14945 X-0.6629 Y0.5571
N14950 X-0.6613 Y0.5583
N14955 X-0.5997 Y0.6184
N14960 G3 X-0.6085 Y0.6315 I-0.0056 J0.0057
N14965 G2 X-0.7694 Y0.5925 I-0.1865 J0.4185
N14970 G3 X-0.7722 Y0.5825 I0.0003 J-0.0055
N14975 G1 X-0.6875 Y0.537
N14980 X-0.6855 Y0.5363
N14985 X-0.6834 Y0.5361
N14990 X-0.6813 Y0.5364
N14995 X-0.6794 Y0.5373
N15000 X-0.6778 Y0.5387
N15005 X-0.5598 Y0.6668
N15010 G3 X-0.5698 Y0.6791 I-0.0059 J0.0054
N15015 G2 X-0.6302 Y0.6489 I-0.2368 J0.3981
N15020 X-0.8287 Y0.6186 I-0.1614 J0.3918
N15025 G3 X-0.8342 Y0.6085 I-0.0005 J-0.0063
N15030 X-0.8119 Y0.584 I0.1423 J0.1073
N15035 X-0.786 Y0.5633 I0.1775 J0.195
N15040 G1 X-0.7026 Y0.5183
N15045 G3 X-0.6928 Y0.5201 I0.0038 J0.007
N15050 G1 X-0.5076 Y0.731
N15055 G3 X-0.5188 Y0.7423 I-0.006 J0.0053
N15060 G2 X-0.6519 Y0.6635 I-0.2855 J0.3305
N15065 X-0.7599 Y0.6398 I-0.138 J0.3703
N15070 X-0.8702 Y0.6462 I-0.0314 J0.4131
N15075 G3 X-0.8772 Y0.6368 I-0.0012 J-0.0064
N15080 X-0.8446 Y0.5881 I0.2401 J0.1253
N15085 X-0.8019 Y0.5481 I0.1876 J0.1573
N15090 X-0.78 Y0.534 I0.1249 J0.1702
N15095 G1 X-0.7173 Y0.5003
N15100 G3 X-0.7073 Y0.5023 I0.0038 J0.007
N15105 G1 X-0.1234 Y1.2077
N15110 G3 X-0.1257 Y1.2198 I-0.0062 J0.0051
N15115 G2 X-0.2558 Y1.3555 I0.1518 J0.2758
N15120 X-0.2863 Y1.4228 I0.9877 J0.4886
N15125 X-0.3135 Y1.4915 I2.1848 J0.9039
N15130 G3 X-0.3296 Y1.4988 I-0.0116 J-0.0044
N15135 G2 X-0.3787 Y1.4843 I-0.1142 J0.2972
N15140 G3 X-0.3878 Y1.4697 I0.0024 J-0.0116
N15145 X-0.3775 Y1.4316 I1.4669 J0.3772
N15150 G2 X-0.3683 Y1.3933 I-0.4626 J-0.1319
N15155 X-0.3482 Y1.2025 I-1.0354 J-0.2052
N15160 X-0.3754 Y1.0126 I-0.6185 J-0.0085
N15165 X-0.5454 Y0.7514 I-0.5402 J0.1657
N15170 X-0.8444 Y0.6635 I-0.2458 J0.2835
N15175 X-0.8778 Y0.6706 I0.0363 J0.2538
N15180 X-0.9105 Y0.6806 I0.2055 J0.7265
N15185 G3 X-0.9185 Y0.6723 I-0.002 J-0.0061
N15190 X-0.8759 Y0.5915 I0.3602 J0.1381
N15195 X-0.8117 Y0.5267 I0.2128 J0.1467
N15200 G1 X-0.7315 Y0.4835
N15205 G3 X-0.7216 Y0.4854 I0.0038 J0.007
N15210 G1 X-0.106 Y1.2261
N15215 G3 X-0.1085 Y1.2383 I-0.0062 J0.0051
N15220 G2 X-0.2338 Y1.3663 I0.1346 J0.2572
N15225 G1 X-0.2843 Y1.4798
N15230 G2 X-0.2923 Y1.5026 I0.3255 J0.1273
N15235 G3 X-0.3001 Y1.5255 I-0.496 J-0.1555
N15240 X-0.3154 Y1.5317 I-0.0104 J-0.0038
N15245 G2 X-0.4098 Y1.5041 I-0.1278 J0.2622
N15250 G3 X-0.4188 Y1.491 I0.0012 J-0.0104
N15255 X-0.4077 Y1.4517 I1.4808 J0.3984
N15260 G2 X-0.3973 Y1.4123 I-0.6044 J-0.18
N15265 X-0.3777 Y1.1298 I-0.8917 J-0.2039
N15270 X-0.4741 Y0.8634 I-0.5464 J0.0472
N15275 X-0.6232 Y0.7292 I-0.3618 J0.2521
N15280 X-0.8189 Y0.6854 I-0.1731 J0.3142
N15285 X-0.8863 Y0.6978 I0.0184 J0.2904
N15290 X-0.95 Y0.7233 I0.1247 J0.4038
N15295 G3 X-0.9587 Y0.7161 I-0.0028 J-0.0055
N15300 X-0.918 Y0.6137 I0.5245 J0.1494
N15305 X-0.8506 Y0.5265 I0.2761 J0.1437
N15310 X-0.8252 Y0.5064 I0.1683 J0.1861
N15315 X-0.7976 Y0.4894 I0.1676 J0.2419
N15320 G1 X-0.7484 Y0.463
N15325 G3 X-0.7385 Y0.4649 I0.0038 J0.007
N15330 G1 X-0.0857 Y1.2473
N15335 G3 X-0.0883 Y1.2596 I-0.0061 J0.0051
N15340 G2 X-0.2087 Y1.3787 I0.1144 J0.236
N15345 G1 X-0.2585 Y1.4899
N15350 G2 X-0.2724 Y1.5288 I0.6548 J0.2561
N15355 G3 X-0.2855 Y1.5679 I-2.2053 J-0.7166
N15360 X-0.2997 Y1.5728 I-0.009 J-0.0031
N15365 G2 X-0.447 Y1.5303 I-0.1428 J0.2184
N15370 G3 X-0.4558 Y1.5188 I-0.0002 J-0.009
N15375 X-0.4443 Y1.4816 I0.9963 J0.2864
N15380 G2 X-0.4336 Y1.4442 I-0.4713 J-0.1548
N15385 X-0.4023 Y1.2537 I-1.2361 J-0.3011
N15390 X-0.4167 Y1.0612 I-0.597 J-0.0521
N15395 X-0.4867 Y0.8942 I-0.5525 J0.1331
N15400 X-0.6149 Y0.7662 I-0.3377 J0.2101
N15405 X-0.7517 Y0.716 I-0.1901 J0.3069
N15410 X-0.8969 Y0.7296 I-0.045 J0.3017
N15415 X-0.9464 Y0.7522 I0.095 J0.2734
N15420 X-0.992 Y0.7819 I0.2477 J0.43
N15425 G3 X-1.0011 Y0.7762 I-0.0034 J-0.0047
N15430 X-0.9462 Y0.6066 I0.6741 J0.1247
N15435 X-0.8272 Y0.474 I0.2834 J0.1347
N15440 G1 X-0.7657 Y0.441
N15445 G3 X-0.7558 Y0.4429 I0.0038 J0.007
N15450 G1 X-0.0657 Y1.2679
N15455 G3 X-0.0686 Y1.2804 I-0.0061 J0.0051
N15460 G2 X-0.1844 Y1.3908 I0.0947 J0.2152
N15465 G1 X-0.2332 Y1.4998
N15470 G2 X-0.2519 Y1.5518 I0.9529 J0.3728
N15475 G1 X-0.2726 Y1.6144
N15480 G3 X-0.2856 Y1.6178 I-0.0076 J-0.0025
N15485 G2 X-0.4851 Y1.5614 I-0.1571 J0.1745
N15490 G3 X-0.4938 Y1.5517 I-0.0014 J-0.0075
N15495 G1 X-0.46 Y1.4378
N15500 G2 X-0.4294 Y1.2537 I-1.2186 J-0.2968
N15505 X-0.4431 Y1.0676 I-0.5718 J-0.0516
N15510 X-0.5087 Y0.9101 I-0.5275 J0.1271
N15515 X-0.6292 Y0.7892 I-0.316 J0.1947
N15520 X-0.7975 Y0.7414 I-0.168 J0.2712
N15525 X-0.9645 Y0.7935 I0.0003 J0.2949
N15530 X-0.9982 Y0.8206 I0.1619 J0.235
N15535 X-1.0288 Y0.8512 I0.4816 J0.5119
N15540 G3 X-1.0381 Y0.847 I-0.0039 J-0.0037
N15545 X-1.0105 Y0.6985 I0.8692 J0.0843
N15550 X-0.9496 Y0.5603 I0.5018 J0.1388
N15555 X-0.8995 Y0.4971 I0.3127 J0.1965
N15560 X-0.8359 Y0.4476 I0.221 J0.2185
N15565 G1 X-0.7834 Y0.4195
N15570 G3 X-0.7735 Y0.4214 I0.0038 J0.007
N15575 G1 X-0.0463 Y1.2879
N15580 G3 X-0.0495 Y1.3005 I-0.0061 J0.0051
N15585 G2 X-0.161 Y1.4024 I0.0756 J0.1945
N15590 G1 X-0.2088 Y1.5093
N15595 X-0.2484 Y1.6196
N15600 G2 X-0.2555 Y1.6437 I0.3426 J0.1131
N15605 G3 X-0.2625 Y1.6677 I-0.4465 J-0.1173
N15610 X-0.2742 Y1.6696 I-0.0063 J-0.002
N15615 G2 X-0.5251 Y1.6008 I-0.1683 J0.122
N15620 G3 X-0.5337 Y1.5933 I-0.0025 J-0.0058
N15625 G1 X-0.4904 Y1.451
N15630 G2 X-0.4567 Y1.2688 I-1.3038 J-0.3352
N15635 X-0.4663 Y1.0838 I-0.5587 J-0.0639
N15640 X-0.5245 Y0.9341 I-0.5126 J0.1131
N15645 X-0.6345 Y0.817 I-0.3049 J0.1763
N15650 X-0.787 Y0.7676 I-0.1646 J0.2478
N15655 X-0.9417 Y0.8098 I-0.0107 J0.2652
N15660 X-1.0067 Y0.8648 I0.1781 J0.2759
N15665 X-1.0591 Y0.932 I0.4196 J0.3812
N15670 G1 X-1.0602 Y0.9332
N15675 X-1.0616 Y0.934
N15680 X-1.0632 Y0.9343
N15685 X-1.0648 Y0.9341
N15690 X-1.0663 Y0.9333
N15695 X-1.0675 Y0.9322
N15700 X-1.0682 Y0.9307
N15705 X-1.0684 Y0.9291
N15710 G3 X-1.0517 Y0.7601 I1.0342 J0.017
N15715 X-0.9999 Y0.5983 I0.6507 J0.119
N15720 X-0.9353 Y0.4976 I0.4103 J0.1924
N15725 X-0.843 Y0.4216 I0.2569 J0.2177
N15730 G1 X-0.8003 Y0.3987
N15735 G3 X-0.7904 Y0.4006 I0.0038 J0.007
N15740 G1 X-0.0302 Y1.3038
N15745 G3 X-0.0338 Y1.3165 I-0.0061 J0.0052
N15750 G2 X-0.1429 Y1.4113 I0.0599 J0.1791
N15755 G1 X-0.1901 Y1.5167
N15760 X-0.2415 Y1.6624
N15765 G2 X-0.2499 Y1.6916 I0.4689 J0.1508
N15770 G3 X-0.2583 Y1.7209 I-0.5013 J-0.1285
N15775 X-0.2686 Y1.7212 I-0.0052 J-0.0017
N15780 G2 X-0.3954 Y1.6097 I-0.1727 J0.0685
N15785 X-0.5604 Y1.6457 I-0.0469 J0.1811
N15790 G3 X-0.5686 Y1.6403 I-0.0032 J-0.004
N15795 G1 X-0.505 Y1.4268
N15800 G2 X-0.4757 Y1.2536 I-1.1913 J-0.2902
N15805 X-0.4881 Y1.0784 I-0.529 J-0.0507
N15810 X-0.5462 Y0.9372 I-0.4853 J0.1169
N15815 X-0.6536 Y0.8286 I-0.2792 J0.1687
N15820 X-0.7964 Y0.7877 I-0.1437 J0.2319
N15825 X-0.9383 Y0.8316 I-0.0008 J0.2487
N15830 X-1.0184 Y0.9092 I0.1919 J0.2785
N15835 X-1.0778 Y1.0036 I0.6015 J0.4442
N15840 G1 X-1.0788 Y1.0049
N15845 X-1.0801 Y1.0058
N15850 X-1.0817 Y1.0062
N15855 X-1.0833 Y1.0061
N15860 X-1.0848 Y1.0055
N15865 X-1.086 Y1.0045
N15870 X-1.0868 Y1.0031
N15875 X-1.0872 Y1.0015
