%
O01001
(Using high feed G1 F650. instead of G0.)
(T1 D=0.078 CR=0. - ZMIN=-0.7 - flat end mill)
(T2 D=0.5 CR=0. - ZMIN=-1.05 - flat end mill)
N10 G90 G94 G17
N15 G20
N20 G53 G0 Z0.

(2D Adaptive3)
N25 T2 M6
N30 S7640 M3
N35 G54
N40 G53 G0 X0. Y0.
N45 M11
N50 M13
N55 G0 A0. B0.
N60 M10
N65 M12
N70 M8
N75 G1 X-3.4331 Y-2.4873 F650.
N80 G0 G43 Z0.6 H2
N85 T1
N90 G0 Z0.2
N95 Z0.1
N100 G3 X-3.4356 Y-2.4667 Z0.0486 I0.2344 J0.0385 F126.06
N105 X-3.4362 Y-2.446 Z-0.0028 I0.2368 J0.018
N110 X-3.4351 Y-2.4253 Z-0.0542 I0.2375 J-0.0028
N115 X-3.4321 Y-2.4048 Z-0.1055 I0.2363 J-0.0234
N120 X-3.4274 Y-2.3846 Z-0.1569 I0.2334 J-0.044
N125 X-3.421 Y-2.365 Z-0.2083 I0.2287 J-0.0641
N130 X-3.4128 Y-2.3459 Z-0.2597 I0.2222 J-0.0838
N135 X-3.403 Y-2.3276 Z-0.3111 I0.2141 J-0.1029
N140 X-3.3917 Y-2.3103 Z-0.3625 I0.2043 J-0.1211
N145 X-2.9612 Y-2.4488 Z-0.3937 I0.193 J-0.1385
N150 X-3.4362 I-0.2375 J0.
N155 X-2.9612 I0.2375 J0.
N160 S7639
N165 G1 X-2.9611 Y-2.436 F126.051
N170 X-2.9565 Y-2.3849
N175 X-2.9543 Y-2.3793
N180 X-2.9525 Y-2.3736
N185 X-2.9511 Y-2.3678
N190 X-2.95 Y-2.3619
N195 X-2.9493 Y-2.3559
N200 X-2.9488 Y-2.3499
N205 X-2.9487 Y-2.3439
N210 X-2.9488 Y-2.3379
N215 X-2.9492 Y-2.3319
N220 X-2.9498 Y-2.326
N225 X-2.9507 Y-2.32
N230 X-2.9518 Y-2.3141
N235 X-2.9531 Y-2.3083
N240 X-2.9546 Y-2.3025
N245 X-2.9563 Y-2.2967
N250 X-2.9582 Y-2.291
N255 X-2.9603 Y-2.2854
N260 X-2.9626 Y-2.2799
N265 X-2.965 Y-2.2744
N270 X-2.9676 Y-2.269
N275 X-2.9704 Y-2.2636
N280 X-2.9733 Y-2.2584
N285 X-2.9763 Y-2.2532
N290 X-2.9795 Y-2.2481
N295 X-2.9829 Y-2.2431
N300 X-2.9863 Y-2.2382
N305 X-2.9899 Y-2.2334
N310 X-2.9936 Y-2.2287
N315 X-2.9975 Y-2.2241
N320 X-3.0014 Y-2.2196
N325 X-3.0055 Y-2.2152
N330 X-3.0097 Y-2.2109
N335 X-3.014 Y-2.2067
N340 X-3.0184 Y-2.2026
N345 X-3.0228 Y-2.1986
N350 X-3.0274 Y-2.1947
N355 X-3.0321 Y-2.191
N360 X-3.0368 Y-2.1873
N365 X-3.0417 Y-2.1837
N370 X-3.0466 Y-2.1803
N375 X-3.0516 Y-2.177
N380 X-3.0566 Y-2.1738
N385 X-3.0618 Y-2.1707
N390 X-3.067 Y-2.1677
N395 X-3.0723 Y-2.1648
N400 X-3.0776 Y-2.1621
N405 X-3.083 Y-2.1594
N410 X-3.0884 Y-2.1569
N415 X-3.0939 Y-2.1545
N420 X-3.0995 Y-2.1522
N425 X-3.1051 Y-2.1501
N430 X-3.1107 Y-2.148
N435 X-3.1164 Y-2.1461
N440 X-3.1221 Y-2.1443
N445 X-3.1279 Y-2.1426
N450 X-3.1337 Y-2.1411
N455 X-3.1395 Y-2.1396
N460 X-3.1453 Y-2.1383
N465 X-3.1512 Y-2.1371
N470 X-3.1571 Y-2.136
N475 X-3.1631 Y-2.1351
N480 X-3.169 Y-2.1343
N485 X-3.175 Y-2.1335
N490 X-3.1809 Y-2.1329
N495 X-3.1869 Y-2.1325
N500 X-3.1929 Y-2.1321
N505 X-3.1989 Y-2.1319
N510 X-3.2049 Y-2.1318
N515 X-3.2109
N520 X-3.2169 Y-2.1319
N525 X-3.2229 Y-2.1322
N530 X-3.2289 Y-2.1325
N535 X-3.2349 Y-2.133
N540 X-3.2408 Y-2.1336
N545 X-3.2468 Y-2.1343
N550 X-3.2527 Y-2.1352
N555 X-3.2586 Y-2.1361
N560 X-3.2645 Y-2.1372
N565 X-3.2704 Y-2.1384
N570 X-3.2763 Y-2.1397
N575 X-3.2821 Y-2.1411
N580 X-3.2879 Y-2.1426
N585 X-3.2937 Y-2.1443
N590 X-3.2994 Y-2.146
N595 X-3.3051 Y-2.1479
N600 X-3.3108 Y-2.1499
N605 X-3.3164 Y-2.1519
N610 X-3.322 Y-2.1541
N615 X-3.3276 Y-2.1564
N620 X-3.3331 Y-2.1588
N625 X-3.3385 Y-2.1613
N630 X-3.3439 Y-2.164
N635 X-3.3493 Y-2.1667
N640 X-3.3546 Y-2.1695
N645 X-3.3598 Y-2.1724
N650 X-3.365 Y-2.1754
N655 X-3.3701 Y-2.1785
N660 X-3.3752 Y-2.1818
N665 X-3.3802 Y-2.1851
N670 X-3.3851 Y-2.1885
N675 X-3.39 Y-2.192
N680 X-3.3948 Y-2.1956
N685 X-3.3995 Y-2.1992
N690 X-3.4042 Y-2.203
N695 X-3.4088 Y-2.2069
N700 X-3.4133 Y-2.2108
N705 X-3.4178 Y-2.2148
N710 X-3.4221 Y-2.219
N715 X-3.4264 Y-2.2232
N720 X-3.4306 Y-2.2274
N725 X-3.4348 Y-2.2318
N730 X-3.4388 Y-2.2362
N735 X-3.4428 Y-2.2407
N740 X-3.4466 Y-2.2453
N745 X-3.4504 Y-2.25
N750 X-3.4541 Y-2.2547
N755 X-3.4577 Y-2.2595
N760 X-3.4612 Y-2.2644
N765 X-3.4647 Y-2.2693
N770 X-3.468 Y-2.2743
N775 X-3.4712 Y-2.2793
N780 X-3.4744 Y-2.2844
N785 X-3.4774 Y-2.2896
N790 X-3.4804 Y-2.2948
N795 X-3.4832 Y-2.3001
N800 X-3.4859 Y-2.3055
N805 X-3.4886 Y-2.3108
N810 X-3.4911 Y-2.3163
N815 X-3.4936 Y-2.3218
N820 X-3.4959 Y-2.3273
N825 X-3.4981 Y-2.3328
N830 X-3.5003 Y-2.3385
N835 X-3.5023 Y-2.3441
N840 X-3.5042 Y-2.3498
N845 X-3.506 Y-2.3555
N850 X-3.5077 Y-2.3613
N855 X-3.5093 Y-2.367
N860 X-3.5108 Y-2.3729
N865 X-3.5122 Y-2.3787
N870 X-3.5134 Y-2.3846
N875 X-3.5146 Y-2.3905
N880 X-3.5156 Y-2.3964
N885 X-3.5166 Y-2.4023
N890 X-3.5174 Y-2.4082
N895 X-3.5181 Y-2.4142
N900 X-3.5187 Y-2.4202
N905 X-3.5192 Y-2.4261
N910 X-3.5196 Y-2.4321
N915 X-3.5198 Y-2.4381
N920 X-3.52 Y-2.4441
N925 Y-2.4501
N930 Y-2.4561
N935 X-3.5198 Y-2.4621
N940 X-3.5195 Y-2.4681
N945 X-3.5191 Y-2.4741
N950 X-3.5185 Y-2.4801
N955 X-3.5179 Y-2.486
N960 X-3.5172 Y-2.492
N965 X-3.5163 Y-2.4979
N970 X-3.5153 Y-2.5039
N975 X-3.5143 Y-2.5098
N980 X-3.5131 Y-2.5156
N985 X-3.5118 Y-2.5215
N990 X-3.5104 Y-2.5273
N995 X-3.5088 Y-2.5331
N1000 X-3.5072 Y-2.5389
N1005 X-3.5055 Y-2.5447
N1010 X-3.5036 Y-2.5504
N1015 X-3.5017 Y-2.556
N1020 X-3.4996 Y-2.5617
N1025 X-3.4975 Y-2.5673
N1030 X-3.4952 Y-2.5728
N1035 X-3.4929 Y-2.5783
N1040 X-3.4904 Y-2.5838
N1045 X-3.4878 Y-2.5892
N1050 X-3.4852 Y-2.5946
N1055 X-3.4824 Y-2.5999
N1060 X-3.4795 Y-2.6052
N1065 X-3.4766 Y-2.6104
N1070 X-3.4735 Y-2.6156
N1075 X-3.4703 Y-2.6207
N1080 X-3.4671 Y-2.6257
N1085 X-3.4637 Y-2.6307
N1090 X-3.4603 Y-2.6356
N1095 X-3.4568 Y-2.6405
N1100 X-3.4531 Y-2.6453
N1105 X-3.4494 Y-2.65
N1110 X-3.4456 Y-2.6546
N1115 X-3.4417 Y-2.6592
N1120 X-3.4378 Y-2.6637
N1125 X-3.4337 Y-2.6681
N1130 X-3.4296 Y-2.6725
N1135 X-3.4254 Y-2.6767
N1140 X-3.4211 Y-2.6809
N1145 X-3.4167 Y-2.685
N1150 X-3.4123 Y-2.6891
N1155 X-3.4077 Y-2.693
N1160 X-3.4031 Y-2.6969
N1165 X-3.3985 Y-2.7006
N1170 X-3.3937 Y-2.7043
N1175 X-3.3889 Y-2.7079
N1180 X-3.3841 Y-2.7114
N1185 X-3.3791 Y-2.7148
N1190 X-3.3741 Y-2.7182
N1195 X-3.3691 Y-2.7214
N1200 X-3.364 Y-2.7245
N1205 X-3.3588 Y-2.7276
N1210 X-3.3536 Y-2.7305
N1215 X-3.3483 Y-2.7333
N1220 X-3.3429 Y-2.7361
N1225 X-3.3376 Y-2.7387
N1230 X-3.3321 Y-2.7413
N1235 X-3.3266 Y-2.7437
N1240 X-3.3211 Y-2.746
N1245 X-3.3155 Y-2.7483
N1250 X-3.3099 Y-2.7504
N1255 X-3.3043 Y-2.7524
N1260 X-3.2986 Y-2.7543
N1265 X-3.2929 Y-2.7562
N1270 X-3.2871 Y-2.7579
N1275 X-3.2813 Y-2.7595
N1280 X-3.2755 Y-2.7609
N1285 X-3.2697 Y-2.7623
N1290 X-3.2638 Y-2.7636
N1295 X-3.2579 Y-2.7647
N1300 X-3.252 Y-2.7658
N1305 X-3.2461 Y-2.7667
N1310 X-3.2402 Y-2.7676
N1315 X-3.2342 Y-2.7683
N1320 X-3.2282 Y-2.7689
N1325 X-3.2223 Y-2.7694
N1330 X-3.2163 Y-2.7698
N1335 X-3.2103 Y-2.77
N1340 X-3.2043 Y-2.7702
N1345 X-3.1983 Y-2.7703
N1350 X-3.1923 Y-2.7702
N1355 X-3.1863 Y-2.77
N1360 X-3.1803 Y-2.7697
N1365 X-3.1743 Y-2.7693
N1370 X-3.1683 Y-2.7688
N1375 X-3.1624 Y-2.7682
N1380 X-3.1564 Y-2.7675
N1385 X-3.1505 Y-2.7666
N1390 X-3.1445 Y-2.7657
N1395 X-3.1386 Y-2.7646
N1400 X-3.1327 Y-2.7634
N1405 X-3.1269 Y-2.7621
N1410 X-3.1211 Y-2.7607
N1415 X-3.1152 Y-2.7592
N1420 X-3.1095 Y-2.7576
N1425 X-3.1037 Y-2.7559
N1430 X-3.098 Y-2.7541
N1435 X-3.0923 Y-2.7521
N1440 X-3.0867 Y-2.7501
N1445 X-3.0811 Y-2.7479
N1450 X-3.0755 Y-2.7457
N1455 X-3.07 Y-2.7433
N1460 X-3.0645 Y-2.7409
N1465 X-3.0591 Y-2.7383
N1470 X-3.0537 Y-2.7357
N1475 X-3.0484 Y-2.7329
N1480 X-3.0431 Y-2.7301
N1485 X-3.0379 Y-2.7271
N1490 X-3.0327 Y-2.7241
N1495 X-3.0276 Y-2.7209
N1500 X-3.0226 Y-2.7177
N1505 X-3.0176 Y-2.7143
N1510 X-3.0126 Y-2.7109
N1515 X-3.0078 Y-2.7074
N1520 X-3.003 Y-2.7038
N1525 X-2.9983 Y-2.7001
N1530 X-2.9936 Y-2.6963
N1535 X-2.989 Y-2.6924
N1540 X-2.9845 Y-2.6885
N1545 X-2.9801 Y-2.6844
N1550 X-2.9757 Y-2.6803
N1555 X-2.9714 Y-2.6761
N1560 X-2.9672 Y-2.6718
N1565 X-2.9631 Y-2.6675
N1570 X-2.9591 Y-2.663
N1575 X-2.9551 Y-2.6585
N1580 X-2.9512 Y-2.6539
N1585 X-2.9475 Y-2.6493
N1590 X-2.9438 Y-2.6446
N1595 X-2.9401 Y-2.6398
N1600 X-2.9366 Y-2.6349
N1605 X-2.9332 Y-2.63
N1610 X-2.9299 Y-2.625
N1615 X-2.9266 Y-2.62
N1620 X-2.9235 Y-2.6148
N1625 X-2.9204 Y-2.6097
N1630 X-2.9175 Y-2.6045
N1635 X-2.9146 Y-2.5992
N1640 X-2.9119 Y-2.5939
N1645 X-2.9092 Y-2.5885
N1650 X-2.9066 Y-2.5831
N1655 X-2.9015 Y-2.5722
N1660 X-2.899 Y-2.5667
N1665 X-2.8966 Y-2.5613
N1670 X-2.8942 Y-2.5558
N1675 X-2.8918 Y-2.5502
N1680 X-2.8895 Y-2.5447
N1685 X-2.8873 Y-2.5391
N1690 X-2.8851 Y-2.5335
N1695 X-2.8829 Y-2.5279
N1700 X-2.8809 Y-2.5223
N1705 X-2.8788 Y-2.5167
N1710 X-2.8769 Y-2.511
N1715 X-2.875 Y-2.5053
N1720 X-2.8732 Y-2.4996
N1725 X-2.8714 Y-2.4938
N1730 X-2.8697 Y-2.4881
N1735 X-2.8681 Y-2.4823
N1740 X-2.8666 Y-2.4765
N1745 X-2.8652 Y-2.4707
N1750 X-2.8638 Y-2.4648
N1755 X-2.8626 Y-2.459
N1760 X-2.8614 Y-2.4531
N1765 X-2.8603 Y-2.4472
N1770 X-2.8593 Y-2.4413
N1775 X-2.8584 Y-2.4353
N1780 X-2.8575 Y-2.4294
N1785 X-2.8568 Y-2.4234
N1790 X-2.8562 Y-2.4175
N1795 X-2.8557 Y-2.4115
N1800 X-2.8552 Y-2.4055
N1805 X-2.8549 Y-2.3995
N1810 X-2.8547 Y-2.3935
N1815 X-2.8545 Y-2.3875
N1820 Y-2.3815
N1825 X-2.8546 Y-2.3755
N1830 X-2.8548 Y-2.3695
N1835 X-2.8551 Y-2.3635
N1840 X-2.8555 Y-2.3575
N1845 X-2.856 Y-2.3516
N1850 X-2.8566 Y-2.3456
N1855 X-2.8573 Y-2.3396
N1860 X-2.8582 Y-2.3337
N1865 X-2.8591 Y-2.3278
N1870 X-2.8602 Y-2.3219
N1875 X-2.8613 Y-2.316
N1880 X-2.8626 Y-2.3101
N1885 X-2.864 Y-2.3043
N1890 X-2.8654 Y-2.2985
N1895 X-2.867 Y-2.2927
N1900 X-2.8687 Y-2.2869
N1905 X-2.8705 Y-2.2812
N1910 X-2.8724 Y-2.2755
N1915 X-2.8744 Y-2.2698
N1920 X-2.8765 Y-2.2642
N1925 X-2.8787 Y-2.2586
N1930 X-2.881 Y-2.2531
N1935 X-2.8834 Y-2.2476
N1940 X-2.8859 Y-2.2422
N1945 X-2.8886 Y-2.2368
N1950 X-2.8913 Y-2.2314
N1955 X-2.8941 Y-2.2261
N1960 X-2.897 Y-2.2209
N1965 X-2.9 Y-2.2157
N1970 X-2.9031 Y-2.2105
N1975 X-2.9062 Y-2.2054
N1980 X-2.9095 Y-2.2004
N1985 X-2.9129 Y-2.1954
N1990 X-2.9163 Y-2.1905
N1995 X-2.9199 Y-2.1857
N2000 X-2.9235 Y-2.1809
N2005 X-2.9272 Y-2.1762
N2010 X-2.931 Y-2.1715
N2015 X-2.9349 Y-2.1669
N2020 X-2.9388 Y-2.1624
N2025 X-2.9428 Y-2.158
N2030 X-2.947 Y-2.1536
N2035 X-2.9511 Y-2.1493
N2040 X-2.9554 Y-2.1451
N2045 X-2.9597 Y-2.1409
N2050 X-2.9641 Y-2.1369
N2055 X-2.9686 Y-2.1329
N2060 X-2.9731 Y-2.1289
N2065 X-2.9778 Y-2.1251
N2070 X-2.9824 Y-2.1213
N2075 X-2.9872 Y-2.1176
N2080 X-2.992 Y-2.114
N2085 X-2.9968 Y-2.1105
N2090 X-3.0017 Y-2.1071
N2095 X-3.0067 Y-2.1037
N2100 X-3.0117 Y-2.1005
N2105 X-3.0168 Y-2.0973
N2110 X-3.022 Y-2.0942
N2115 X-3.0272 Y-2.0912
N2120 X-3.0324 Y-2.0882
N2125 X-3.0377 Y-2.0854
N2130 X-3.043 Y-2.0827
N2135 X-3.0484 Y-2.08
N2140 X-3.0538 Y-2.0774
N2145 X-3.0593 Y-2.0749
N2150 X-3.0648 Y-2.0726
N2155 X-3.0703 Y-2.0703
N2160 X-3.0759 Y-2.068
N2165 X-3.0815 Y-2.0659
N2170 X-3.0872 Y-2.0639
N2175 X-3.0928 Y-2.062
N2180 X-3.0986 Y-2.0601
N2185 X-3.1043 Y-2.0584
N2190 X-3.1101 Y-2.0567
N2195 X-3.1158 Y-2.0551
N2200 X-3.1217 Y-2.0537
N2205 X-3.1275 Y-2.0523
N2210 X-3.1334 Y-2.051
N2215 X-3.1392 Y-2.0498
N2220 X-3.1451 Y-2.0487
N2225 X-3.1511 Y-2.0477
N2230 X-3.157 Y-2.0468
N2235 X-3.1629 Y-2.046
N2240 X-3.1689 Y-2.0453
N2245 X-3.1749 Y-2.0446
N2250 X-3.1808 Y-2.0441
N2255 X-3.1868 Y-2.0437
N2260 X-3.1928 Y-2.0433
N2265 X-3.1988 Y-2.0431
N2270 X-3.2048 Y-2.0429
N2275 X-3.2108 Y-2.0428
N2280 X-3.2168 Y-2.0429
N2285 X-3.2228 Y-2.043
N2290 X-3.2288 Y-2.0432
N2295 X-3.2348 Y-2.0435
N2300 X-3.2408 Y-2.0439
N2305 X-3.2468 Y-2.0444
N2310 X-3.2527 Y-2.045
N2315 X-3.2587 Y-2.0456
N2320 X-3.2646 Y-2.0464
N2325 X-3.2706 Y-2.0473
N2330 X-3.2765 Y-2.0482
N2335 X-3.2824 Y-2.0493
N2340 X-3.2883 Y-2.0504
N2345 X-3.2942 Y-2.0516
N2350 X-3.3 Y-2.0529
N2355 X-3.3059 Y-2.0543
N2360 X-3.3117 Y-2.0558
N2365 X-3.3175 Y-2.0574
N2370 X-3.3232 Y-2.0591
N2375 X-3.329 Y-2.0608
N2380 X-3.3347 Y-2.0626
N2385 X-3.3404 Y-2.0646
N2390 X-3.346 Y-2.0666
N2395 X-3.3516 Y-2.0687
N2400 X-3.3572 Y-2.0709
N2405 X-3.3628 Y-2.0731
N2410 X-3.3683 Y-2.0755
N2415 X-3.3738 Y-2.0779
N2420 X-3.3792 Y-2.0804
N2425 X-3.3847 Y-2.083
N2430 X-3.39 Y-2.0857
N2435 X-3.3954 Y-2.0884
N2440 X-3.4006 Y-2.0913
N2445 X-3.4059 Y-2.0942
N2450 X-3.4111 Y-2.0972
N2455 X-3.4162 Y-2.1003
N2460 X-3.4213 Y-2.1034
N2465 X-3.4264 Y-2.1066
N2470 X-3.4314 Y-2.1099
N2475 X-3.4364 Y-2.1133
N2480 X-3.4413 Y-2.1167
N2485 X-3.4462 Y-2.1203
N2490 X-3.451 Y-2.1238
N2495 X-3.4557 Y-2.1275
N2500 X-3.4604 Y-2.1312
N2505 X-3.4651 Y-2.135
N2510 X-3.4696 Y-2.1389
N2515 X-3.4742 Y-2.1428
N2520 X-3.4786 Y-2.1468
N2525 X-3.483 Y-2.1509
N2530 X-3.4874 Y-2.1551
N2535 X-3.4917 Y-2.1593
N2540 X-3.4959 Y-2.1635
N2545 X-3.5001 Y-2.1678
N2550 X-3.5042 Y-2.1722
N2555 X-3.5082 Y-2.1767
N2560 X-3.5122 Y-2.1812
N2565 X-3.5161 Y-2.1857
N2570 X-3.5199 Y-2.1903
N2575 X-3.5236 Y-2.195
N2580 X-3.532 Y-2.2047
N2585 X-3.5411 Y-2.2137
N2590 X-3.5509 Y-2.222
N2595 X-3.5613 Y-2.2295
N2600 X-3.5722 Y-2.2362
N2605 X-3.5837 Y-2.2421
N2610 X-3.5955 Y-2.247
N2615 X-3.6077 Y-2.251
N2620 X-3.6201 Y-2.2541
N2625 X-3.6327 Y-2.2562
N2630 X-3.6455 Y-2.2573
N2635 X-3.6583 Y-2.2575
N2640 X-3.6739 Y-2.2578
N2645 X-3.6892 Y-2.2611
N2650 X-3.7037 Y-2.267
N2655 X-3.7168 Y-2.2754
N2660 X-3.7282 Y-2.2861
N2665 X-3.7375 Y-2.2986
N2670 X-3.7444 Y-2.3127
N2675 X-3.7486 Y-2.3277
N2680 X-3.75 Y-2.3433
N2685 Y-2.6168
N2690 X-3.7498 Y-2.62
N2695 X-3.705 Y-2.6448
N2700 X-3.6616 Y-2.6722
N2705 X-3.6192 Y-2.701
N2710 X-3.577 Y-2.7301
N2715 X-3.5557 Y-2.7443
N2720 X-3.5449 Y-2.7512
N2725 X-3.5014 Y-2.7785
N2730 X-3.4902 Y-2.7847
N2735 X-3.4818 Y-2.7892
N2740 G3 X-3.4368 Y-2.6999 I0.0218 J0.045 F126.06
N2745 G1 X-3.6768 Y-2.5742
N2750 G3 X-3.75 Y-2.6168 I-0.0232 J-0.0443
N2755 G1 Y-2.788 F126.051
N2760 G3 X-3.7188 Y-2.8326 I0.05 J0.0017 F126.06
N2765 G1 X-3.328 Y-2.9913
N2770 X-3.3156 Y-2.9964
N2775 G3 X-3.2985 Y-3. I0.0188 J0.0463
N2780 G1 X-3.0218 F126.051
N2785 X-3.0186 Y-2.9998
N2790 X-2.9926 Y-2.9556
N2795 X-2.9644 Y-2.9128
N2800 X-2.9251 Y-2.8562
N2805 X-2.9178 Y-2.8456
N2810 X-2.9118 Y-2.8368
N2815 X-2.9066 Y-2.8291
N2820 X-2.902 Y-2.822
N2825 X-2.8934 Y-2.8089
N2830 X-2.8853 Y-2.7962
N2835 X-2.8776 Y-2.784
N2840 X-2.8704 Y-2.7721
N2845 X-2.8636 Y-2.7608
N2850 X-2.8572 Y-2.7498
N2855 X-2.8512 Y-2.7393
N2860 X-2.8454 Y-2.7288
N2865 X-2.8397 Y-2.7182
N2870 X-2.8341 Y-2.7076
N2875 X-2.8286 Y-2.6969
N2880 X-2.8233 Y-2.6862
N2885 X-2.8181 Y-2.6754
N2890 X-2.8155 Y-2.6699
N2895 X-2.813 Y-2.6645
N2900 X-2.8105 Y-2.659
N2905 X-2.8081 Y-2.6535
N2910 X-2.8057 Y-2.648
N2915 X-2.8033 Y-2.6425
N2920 X-2.801 Y-2.637
N2925 X-2.7987 Y-2.6314
N2930 X-2.7965 Y-2.6259
N2935 X-2.7943 Y-2.6203
N2940 X-2.7922 Y-2.6147
N2945 X-2.7901 Y-2.609
N2950 X-2.788 Y-2.6034
N2955 X-2.786 Y-2.5978
N2960 X-2.7841 Y-2.5921
N2965 X-2.7822 Y-2.5864
N2970 X-2.7803 Y-2.5807
N2975 X-2.7785 Y-2.575
N2980 X-2.7767 Y-2.5692
N2985 X-2.775 Y-2.5635
N2990 X-2.7734 Y-2.5577
N2995 X-2.7718 Y-2.5519
N3000 X-2.7703 Y-2.5461
N3005 X-2.7688 Y-2.5403
N3010 X-2.7674 Y-2.5345
N3015 X-2.766 Y-2.5286
N3020 X-2.7647 Y-2.5228
N3025 X-2.7634 Y-2.5169
N3030 X-2.7622 Y-2.511
N3035 X-2.7611 Y-2.5051
N3040 X-2.7601 Y-2.4992
N3045 X-2.759 Y-2.4933
N3050 X-2.7581 Y-2.4874
N3055 X-2.7572 Y-2.4815
N3060 X-2.7564 Y-2.4755
N3065 X-2.7557 Y-2.4696
N3070 X-2.755 Y-2.4636
N3075 X-2.7544 Y-2.4576
N3080 X-2.7538 Y-2.4517
N3085 X-2.7533 Y-2.4457
N3090 X-2.7529 Y-2.4397
N3095 X-2.7526 Y-2.4337
N3100 X-2.7523 Y-2.4277
N3105 X-2.7521 Y-2.4217
N3110 X-2.752 Y-2.4157
N3115 X-2.7519 Y-2.4097
N3120 Y-2.4037
N3125 X-2.752 Y-2.3977
N3130 X-2.7522 Y-2.3917
N3135 X-2.7524 Y-2.3857
N3140 X-2.7527 Y-2.3797
N3145 X-2.7531 Y-2.3737
N3150 X-2.7535 Y-2.3678
N3155 X-2.754 Y-2.3618
N3160 X-2.7546 Y-2.3558
N3165 X-2.7553 Y-2.3498
N3170 X-2.7561 Y-2.3439
N3175 X-2.7569 Y-2.3379
N3180 X-2.7578 Y-2.332
N3185 X-2.7587 Y-2.3261
N3190 X-2.7598 Y-2.3202
N3195 X-2.7609 Y-2.3143
N3200 X-2.7621 Y-2.3084
N3205 X-2.7634 Y-2.3025
N3210 X-2.7647 Y-2.2967
N3215 X-2.7662 Y-2.2909
N3220 X-2.7677 Y-2.2851
N3225 X-2.7692 Y-2.2793
N3230 X-2.7709 Y-2.2735
N3235 X-2.7726 Y-2.2678
N3240 X-2.7744 Y-2.262
N3245 X-2.7763 Y-2.2563
N3250 X-2.7782 Y-2.2507
N3255 X-2.7803 Y-2.245
N3260 X-2.7824 Y-2.2394
N3265 X-2.7846 Y-2.2338
N3270 X-2.7868 Y-2.2282
N3275 X-2.7891 Y-2.2227
N3280 X-2.7915 Y-2.2172
N3285 X-2.794 Y-2.2117
N3290 X-2.7965 Y-2.2063
N3295 X-2.7991 Y-2.2009
N3300 X-2.8018 Y-2.1955
N3305 X-2.8046 Y-2.1902
N3310 X-2.8074 Y-2.1849
N3315 X-2.8103 Y-2.1797
N3320 X-2.8133 Y-2.1744
N3325 X-2.8163 Y-2.1693
N3330 X-2.8194 Y-2.1641
N3335 X-2.8226 Y-2.159
N3340 X-2.8258 Y-2.154
N3345 X-2.8291 Y-2.149
N3350 X-2.8325 Y-2.144
N3355 X-2.836 Y-2.1391
N3360 X-2.8395 Y-2.1342
N3365 X-2.843 Y-2.1294
N3370 X-2.8467 Y-2.1247
N3375 X-2.8504 Y-2.1199
N3380 X-2.8541 Y-2.1153
N3385 X-2.8579 Y-2.1106
N3390 X-2.8618 Y-2.1061
N3395 X-2.8658 Y-2.1015
N3400 X-2.8698 Y-2.0971
N3405 X-2.8738 Y-2.0927
N3410 X-2.878 Y-2.0883
N3415 X-2.8822 Y-2.084
N3420 X-2.8864 Y-2.0797
N3425 X-2.8907 Y-2.0755
N3430 X-2.895 Y-2.0714
N3435 X-2.8994 Y-2.0673
N3440 X-2.9039 Y-2.0633
N3445 X-2.9084 Y-2.0594
N3450 X-2.913 Y-2.0555
N3455 X-2.9176 Y-2.0516
N3460 X-2.9222 Y-2.0478
N3465 X-2.9269 Y-2.0441
N3470 X-2.9317 Y-2.0405
N3475 X-2.9365 Y-2.0369
N3480 X-2.9414 Y-2.0334
N3485 X-2.9463 Y-2.0299
N3490 X-2.9512 Y-2.0265
N3495 X-2.9562 Y-2.0232
N3500 X-2.9612 Y-2.0199
N3505 X-2.9663 Y-2.0167
N3510 X-2.9714 Y-2.0136
N3515 X-2.9766 Y-2.0105
N3520 X-2.9818 Y-2.0075
N3525 X-2.987 Y-2.0046
N3530 X-2.9923 Y-2.0017
N3535 X-2.9976 Y-1.9989
N3540 X-3.0029 Y-1.9962
N3545 X-3.0083 Y-1.9935
N3550 X-3.0137 Y-1.991
N3555 X-3.0192 Y-1.9884
N3560 X-3.0247 Y-1.986
N3565 X-3.0302 Y-1.9836
N3570 X-3.0357 Y-1.9813
N3575 X-3.0413 Y-1.9791
N3580 X-3.0469 Y-1.9769
N3585 X-3.0525 Y-1.9748
N3590 X-3.0582 Y-1.9728
N3595 X-3.0638 Y-1.9709
N3600 X-3.0695 Y-1.969
N3605 X-3.0753 Y-1.9672
N3610 X-3.081 Y-1.9655
N3615 X-3.0868 Y-1.9638
N3620 X-3.0926 Y-1.9623
N3625 X-3.0984 Y-1.9608
N3630 X-3.1042 Y-1.9593
N3635 X-3.1101 Y-1.958
N3640 X-3.1159 Y-1.9567
N3645 X-3.1218 Y-1.9555
N3650 X-3.1277 Y-1.9544
N3655 X-3.1336 Y-1.9533
N3660 X-3.1395 Y-1.9523
N3665 X-3.1454 Y-1.9514
N3670 X-3.1514 Y-1.9506
N3675 X-3.1573 Y-1.9498
N3680 X-3.1633 Y-1.9492
N3685 X-3.1693 Y-1.9486
N3690 X-3.1752 Y-1.948
N3695 X-3.1812 Y-1.9476
N3700 X-3.1872 Y-1.9472
N3705 X-3.1932 Y-1.9469
N3710 X-3.1992 Y-1.9467
N3715 X-3.2052 Y-1.9465
N3720 X-3.2112 Y-1.9464
N3725 X-3.2172
N3730 X-3.2232 Y-1.9465
N3735 X-3.2292 Y-1.9466
N3740 X-3.2352 Y-1.9468
N3745 X-3.2412 Y-1.9471
N3750 X-3.2472 Y-1.9475
N3755 X-3.2532 Y-1.948
N3760 X-3.2591 Y-1.9485
N3765 X-3.2651 Y-1.9491
N3770 X-3.2711 Y-1.9497
N3775 X-3.277 Y-1.9505
N3780 X-3.283 Y-1.9513
N3785 X-3.2889 Y-1.9522
N3790 X-3.2948 Y-1.9531
N3795 X-3.3007 Y-1.9541
N3800 X-3.3066 Y-1.9552
N3805 X-3.3125 Y-1.9564
N3810 X-3.3184 Y-1.9577
N3815 X-3.3242 Y-1.959
N3820 X-3.3301 Y-1.9604
N3825 X-3.3359 Y-1.9618
N3830 X-3.3417 Y-1.9634
N3835 X-3.3475 Y-1.965
N3840 X-3.3532 Y-1.9667
N3845 X-3.359 Y-1.9684
N3850 X-3.3647 Y-1.9702
N3855 X-3.3704 Y-1.9721
N3860 X-3.3761 Y-1.9741
N3865 X-3.3817 Y-1.9761
N3870 X-3.3873 Y-1.9782
N3875 X-3.3929 Y-1.9803
N3880 X-3.3985 Y-1.9826
N3885 X-3.404 Y-1.9849
N3890 X-3.4096 Y-1.9872
N3895 X-3.415 Y-1.9897
N3900 X-3.4205 Y-1.9922
N3905 X-3.4259 Y-1.9947
N3910 X-3.4313 Y-1.9973
N3915 X-3.4367 Y-2.
N3920 X-3.442 Y-2.0028
N3925 X-3.4873 Y-2.0269
N3930 X-3.4989 Y-2.0322
N3935 X-3.5106 Y-2.0374
N3940 X-3.5227 Y-2.0417
N3945 X-3.5351 Y-2.045
N3950 X-3.5477 Y-2.0474
N3955 X-3.5605 Y-2.0488
N3960 X-3.5733 Y-2.0492
N3965 X-3.5861 Y-2.0486
N3970 X-3.5988 Y-2.047
N3975 X-3.6114 Y-2.0445
N3980 X-3.6237 Y-2.041
N3985 X-3.6357 Y-2.0365
N3990 X-3.6474 Y-2.0312
N3995 X-3.6586 Y-2.025
N4000 X-3.6693 Y-2.0179
N4005 X-3.7097 Y-1.9864
N4010 X-3.7116 Y-1.9839
N4015 X-3.7417 Y-1.9423
N4020 X-3.7438 Y-1.9404
N4025 X-3.7467 Y-1.9402
N4030 X-3.7491 Y-1.9418
N4035 X-3.75 Y-1.9445
N4040 G3 X-3.7415 Y-1.9707 I0.05 J0.0017 F126.06
N4045 G1 X-3.7398 Y-1.9732
N4050 X-3.0615 Y-2.978
N4055 G3 X-3.0218 Y-3. I0.0414 J0.028
N4060 G1 X-2.8568 F126.051
N4065 X-2.8536 Y-2.9998
N4070 X-2.8286 Y-2.9551
N4075 X-2.8037 Y-2.9103
N4080 X-2.7793 Y-2.8652
N4085 X-2.7558 Y-2.8196
N4090 X-2.7336 Y-2.7734
N4095 X-2.7132 Y-2.7264
N4100 X-2.6948 Y-2.6785
N4105 X-2.6794 Y-2.6313
N4110 X-2.6678 Y-2.5872
N4115 X-2.6592 Y-2.5454
N4120 X-2.6534 Y-2.5054
N4125 X-2.65 Y-2.467
N4130 X-2.6488 Y-2.4298
N4135 X-2.6496 Y-2.3938
N4140 X-2.6524 Y-2.3589
N4145 X-2.6571 Y-2.325
N4150 X-2.6635 Y-2.292
N4155 X-2.6717 Y-2.2599
N4160 X-2.6815 Y-2.2287
N4165 X-2.6929 Y-2.1984
N4170 X-2.706 Y-2.1691
N4175 X-2.7205 Y-2.1407
N4180 X-2.723 Y-2.1365
N4185 X-2.7319 Y-2.1232
N4190 X-2.7424 Y-2.1111
N4195 X-2.7543 Y-2.1004
N4200 X-2.7669 Y-2.0905
N4205 X-2.7836 Y-2.0769
N4210 X-2.8118 Y-2.0538
N4215 X-2.8268 Y-2.0413
N4220 X-2.838 Y-2.0319
N4225 X-2.8568 Y-2.0158
N4230 X-2.89 Y-1.987
N4235 X-2.9018 Y-1.9765
N4240 X-2.9168 Y-1.963
N4245 X-2.9381 Y-1.9458
N4250 X-2.9561 Y-1.9328
N4255 X-2.9756 Y-1.9203
N4260 X-2.9966 Y-1.9084
N4265 X-3.0191 Y-1.8974
N4270 X-3.0429 Y-1.8872
N4275 X-3.0681 Y-1.8782
N4280 X-3.0945 Y-1.8704
N4285 X-3.1219 Y-1.8639
N4290 X-3.1502 Y-1.8589
N4295 X-3.1794 Y-1.8554
N4300 X-3.2093 Y-1.8536
N4305 X-3.2396 Y-1.8534
N4310 X-3.2704 Y-1.8549
N4315 X-3.3014 Y-1.8582
N4320 X-3.352 Y-1.8665
N4325 X-3.4032 Y-1.8697
N4330 X-3.4543 Y-1.866
N4335 X-3.505 Y-1.8581
N4340 X-3.5554 Y-1.8486
N4345 X-3.606 Y-1.8403
N4350 X-3.6525 Y-1.8188
N4355 X-3.6528 Y-1.8186
N4360 X-3.6643 Y-1.8117
N4365 X-3.6771 Y-1.8076
N4370 X-3.6905 Y-1.8063
N4375 X-3.7038 Y-1.8081
N4380 X-3.7164 Y-1.8127
N4385 X-3.7277 Y-1.82
N4390 X-3.7371 Y-1.8295
N4395 X-3.7441 Y-1.841
N4400 X-3.7485 Y-1.8536
N4405 X-3.75 Y-1.867
N4410 G3 X-3.7088 Y-1.9145 I0.05 J0.0017 F126.06
N4415 G1 X-2.9603 Y-2.0482
N4420 G3 X-2.9168 Y-1.963 I0.0088 J0.0492
N4425 G1 X-2.9318 Y-1.9495 F126.051
N4430 X-2.9401 Y-1.942
N4435 X-2.9618 Y-1.9218
N4440 X-2.9768 Y-1.9077
N4445 X-2.9881 Y-1.897
N4450 X-3.0068 Y-1.879
N4455 X-3.0218 Y-1.8644
N4460 X-3.0343 Y-1.852
N4465 X-3.0455 Y-1.8419
N4470 X-3.0555 Y-1.8339
N4475 X-3.0662 Y-1.8262
N4480 X-3.079 Y-1.8181
N4485 X-3.0929 Y-1.8103
N4490 X-3.1085 Y-1.8028
N4495 X-3.1261 Y-1.7954
N4500 X-3.1446 Y-1.7889
N4505 X-3.1653 Y-1.7829
N4510 X-3.1883 Y-1.7776
N4515 X-3.2389 Y-1.7689
N4520 X-3.2897 Y-1.762
N4525 X-3.3404 Y-1.7546
N4530 X-3.3911 Y-1.7467
N4535 X-3.4411 Y-1.7357
N4540 X-3.491 Y-1.7237
N4545 X-3.5313 Y-1.7152
N4550 X-3.582 Y-1.7074
N4555 X-3.6309 Y-1.6918
N4560 X-3.6662 Y-1.6701
N4565 X-3.6779 Y-1.6647
N4570 X-3.6906 Y-1.6622
N4575 X-3.7035 Y-1.6627
N4580 X-3.716 Y-1.6662
N4585 X-3.7273 Y-1.6725
N4590 X-3.7368 Y-1.6813
N4595 X-3.744 Y-1.692
N4600 X-3.7485 Y-1.7042
N4605 X-3.75 Y-1.717
N4610 G3 X-3.7131 Y-1.7635 I0.05 J0.0017 F126.06
N4615 G1 X-3.0839 Y-1.9344
N4620 G3 X-3.0343 Y-1.852 I0.0131 J0.0483
N4625 G1 X-3.0518 Y-1.8344 F126.051
N4630 X-3.0641 Y-1.822
N4635 X-3.0818 Y-1.8038
N4640 X-3.0968 Y-1.7882
N4645 X-3.117 Y-1.7666
N4650 X-3.1273 Y-1.7567
N4655 X-3.1367 Y-1.7486
N4660 X-3.1486 Y-1.7394
N4665 X-3.164 Y-1.7289
N4670 X-3.1838 Y-1.717
N4675 X-3.2118 Y-1.7022
N4680 X-3.2584 Y-1.6808
N4685 X-3.3061 Y-1.662
N4690 X-3.3545 Y-1.6451
N4695 X-3.4036 Y-1.6303
N4700 X-3.452 Y-1.6134
N4705 X-3.5003 Y-1.5962
N4710 X-3.5328 Y-1.5862
N4715 X-3.559 Y-1.5797
N4720 X-3.6094 Y-1.5702
N4725 X-3.6556 Y-1.5479
N4730 X-3.667 Y-1.5416
N4735 X-3.6796 Y-1.538
N4740 X-3.6926 Y-1.5371
N4745 X-3.7055 Y-1.5391
N4750 X-3.7177 Y-1.5438
N4755 X-3.7286 Y-1.5511
N4760 X-3.7376 Y-1.5605
N4765 X-3.7444 Y-1.5717
N4770 X-3.7486 Y-1.5841
N4775 X-3.75 Y-1.5971
N4780 G3 X-3.7176 Y-1.6421 I0.05 J0.0017 F126.06
N4785 G1 X-3.1722 Y-1.8463
N4790 G3 X-3.117 Y-1.7666 I0.0175 J0.0468
N4795 G1 X-3.1268 Y-1.7561 F126.051
N4800 X-3.1352 Y-1.747
N4805 X-3.1568 Y-1.7232
N4810 X-3.1624 Y-1.717
N4815 X-3.1718 Y-1.7064
N4820 X-3.1888 Y-1.687
N4825 X-3.2018 Y-1.672
N4830 X-3.2147 Y-1.657
N4835 X-3.2319 Y-1.6389
N4840 X-3.2454 Y-1.6261
N4845 X-3.2653 Y-1.6094
N4850 X-3.2917 Y-1.5896
N4855 X-3.3234 Y-1.5684
N4860 X-3.3571 Y-1.5487
N4865 X-3.4027 Y-1.5253
N4870 X-3.4493 Y-1.504
N4875 X-3.4962 Y-1.4832
N4880 X-3.526 Y-1.4718
N4885 X-3.549 Y-1.4645
N4890 X-3.5987 Y-1.4517
N4895 X-3.6459 Y-1.4319
N4900 X-3.6529 Y-1.427
N4905 X-3.6646 Y-1.4204
N4910 X-3.6775 Y-1.4166
N4915 X-3.6909 Y-1.4157
N4920 X-3.7042 Y-1.4176
N4925 X-3.7167 Y-1.4225
N4930 X-3.7279 Y-1.4299
N4935 X-3.7372 Y-1.4396
N4940 X-3.7442 Y-1.451
N4945 X-3.7485 Y-1.4637
N4950 X-3.75 Y-1.4771
N4955 G3 X-3.7216 Y-1.5205 I0.05 J0.0017 F126.06
N4960 G1 X-3.2753 Y-1.7334
N4965 G3 X-3.2147 Y-1.657 I0.0215 J0.0451
N4970 G1 X-3.2168 Y-1.6546 F126.051
N4975 X-3.2318 Y-1.6367
N4980 X-3.2467 Y-1.6184
N4985 X-3.2642 Y-1.5971
N4990 X-3.2767 Y-1.5813
N4995 X-3.2917 Y-1.5623
N5000 X-3.3067 Y-1.543
N5005 X-3.3113 Y-1.5371
N5010 X-3.3226 Y-1.5221
N5015 X-3.3288 Y-1.5138
N5020 X-3.3427 Y-1.497
N5025 X-3.3554 Y-1.4833
N5030 X-3.3705 Y-1.4687
N5035 X-3.387 Y-1.4545
N5040 X-3.4048 Y-1.4408
N5045 X-3.4472 Y-1.4119
N5050 X-3.4851 Y-1.3883
N5055 X-3.5114 Y-1.3739
N5060 X-3.5332 Y-1.3634
N5065 X-3.5521 Y-1.3557
N5070 X-3.5688 Y-1.35
N5075 X-3.6181 Y-1.336
N5080 X-3.6633 Y-1.3118
N5085 X-3.6738 Y-1.3061
N5090 X-3.6854 Y-1.3027
N5095 X-3.6973 Y-1.302
N5100 X-3.7092 Y-1.3038
N5105 X-3.7204 Y-1.3082
N5110 X-3.7303 Y-1.3149
N5115 X-3.7386 Y-1.3236
N5120 X-3.7448 Y-1.3338
N5125 X-3.7487 Y-1.3452
N5130 X-3.75 Y-1.3571
N5135 G3 X-3.7247 Y-1.3989 I0.05 J0.0017 F126.06
N5140 G1 X-3.3945 Y-1.5858
N5145 G3 X-3.3288 Y-1.5138 I0.0246 J0.0435
N5150 G1 X-3.345 Y-1.4921 F126.051
N5155 X-3.3517 Y-1.4828
N5160 X-3.3773 Y-1.4471
N5165 X-3.3817 Y-1.4409
N5170 X-3.3981 Y-1.4171
N5175 X-3.4083 Y-1.4021
N5180 X-3.4267 Y-1.3745
N5185 X-3.4344 Y-1.3641
N5190 X-3.4427 Y-1.354
N5195 X-3.452 Y-1.344
N5200 X-3.4769 Y-1.3199
N5205 X-3.5006 Y-1.2995
N5210 X-3.5199 Y-1.2846
N5215 X-3.5368 Y-1.2731
N5220 X-3.552 Y-1.264
N5225 X-3.5666 Y-1.2562
N5230 X-3.5796 Y-1.2503
N5235 X-3.6273 Y-1.2316
N5240 X-3.6698 Y-1.2064
N5245 X-3.6812 Y-1.2014
N5250 X-3.6933 Y-1.1991
N5255 X-3.7057 Y-1.1998
N5260 X-3.7176 Y-1.2033
N5265 X-3.7284 Y-1.2094
N5270 X-3.7374 Y-1.2179
N5275 X-3.7443 Y-1.2282
N5280 X-3.7486 Y-1.2398
N5285 X-3.75 Y-1.2522
N5290 G3 X-3.7273 Y-1.2923 I0.05 J0.0017 F126.06
N5295 G1 X-3.4966 Y-1.4425
N5300 G3 X-3.4267 Y-1.3745 I0.0273 J0.0419
N5305 G1 X-3.4283 Y-1.3721 F126.051
N5310 X-3.4417 Y-1.3513
N5315 X-3.4572 Y-1.3271
N5320 X-3.4666 Y-1.3121
N5325 X-3.4758 Y-1.2971
N5330 X-3.4867 Y-1.2792
N5335 X-3.494 Y-1.2672
N5340 X-3.5017 Y-1.2542
N5345 X-3.508 Y-1.2445
N5350 X-3.5198 Y-1.2283
N5355 X-3.5312 Y-1.2143
N5360 X-3.5425 Y-1.2021
N5365 X-3.5527 Y-1.1922
N5370 X-3.5633 Y-1.183
N5375 X-3.5735 Y-1.1751
N5380 X-3.583 Y-1.1686
N5385 X-3.5927 Y-1.1626
N5390 X-3.6025 Y-1.1575
N5395 X-3.649 Y-1.1359
N5400 X-3.6616 Y-1.1299
N5405 X-3.6753 Y-1.1266
N5410 X-3.6893 Y-1.1262
N5415 X-3.7031 Y-1.1289
N5420 X-3.716 Y-1.1344
N5425 X-3.7275 Y-1.1425
N5430 X-3.737 Y-1.1528
N5435 X-3.7441 Y-1.1649
N5440 X-3.7485 Y-1.1782
N5445 X-3.75 Y-1.1922
N5450 G3 X-3.7247 Y-1.2339 I0.05 J0.0017 F126.06
N5455 G1 X-3.5704 Y-1.3212
N5460 G3 X-3.5017 Y-1.2542 I0.0246 J0.0435
N5465 G1 X-3.5202 Y-1.2222 F126.051
N5470 X-3.5287 Y-1.2072
N5475 X-3.5452 Y-1.1772
N5480 X-3.5576 Y-1.1539
N5485 X-3.5648 Y-1.1419
N5490 X-3.5694 Y-1.1351
N5495 X-3.5746 Y-1.1284
N5500 X-3.5802 Y-1.1218
N5505 X-3.5857 Y-1.1161
N5510 X-3.5912 Y-1.1109
N5515 X-3.5976 Y-1.1056
N5520 X-3.6039 Y-1.101
N5525 X-3.61 Y-1.097
N5530 X-3.6543 Y-1.0713
N5535 X-3.6554 Y-1.0705
N5540 X-3.6666 Y-1.0638
N5545 X-3.679 Y-1.0597
N5550 X-3.692 Y-1.0584
N5555 X-3.7049 Y-1.06
N5560 X-3.7172 Y-1.0644
N5565 X-3.7282 Y-1.0715
N5570 X-3.7374 Y-1.0808
N5575 X-3.7443 Y-1.0919
N5580 X-3.7485 Y-1.1042
N5585 X-3.75 Y-1.1172
N5590 G3 X-3.5799 Y-1.2191 I0.118 J0.0041 F126.06
N5595 X-3.5576 Y-1.1539 I-0.0215 J0.0437
N5600 G1 X-3.5617 Y-1.1463 F126.051
N5605 X-3.5691 Y-1.1322
N5610 X-3.5769 Y-1.1172
N5615 X-3.5844 Y-1.1022
N5620 X-3.5978 Y-1.0752
N5625 X-3.6015 Y-1.0685
N5630 X-3.6048 Y-1.0634
N5635 X-3.6083 Y-1.0585
N5640 X-3.6121 Y-1.0539
N5645 X-3.6163 Y-1.0492
N5650 X-3.6206 Y-1.045
N5655 X-3.6251 Y-1.0411
N5660 X-3.6299 Y-1.0374
N5665 X-3.6413 Y-1.0297
N5670 X-3.6533 Y-1.0231
N5675 X-3.6664 Y-1.0191
N5680 X-3.68 Y-1.0176
N5685 X-3.6936 Y-1.0189
N5690 X-3.7068 Y-1.0228
N5695 X-3.7189 Y-1.0292
N5700 X-3.7295 Y-1.0379
N5705 X-3.7382 Y-1.0484
N5710 X-3.7447 Y-1.0605
N5715 X-3.7487 Y-1.0736
N5720 X-3.75 Y-1.0872
N5725 G3 X-3.7485 Y-1.114 I0.6162 J0.0215 F126.06
N5730 X-3.5978 Y-1.0752 I0.0787 J0.0062
N5735 G1 X-3.5993 Y-1.0722 F126.051
N5740 X-3.6067 Y-1.057
N5745 X-3.6217 Y-1.0253
N5750 X-3.6244 Y-1.0199
N5755 X-3.6277 Y-1.0149
N5760 X-3.6315 Y-1.0103
N5765 X-3.6357 Y-1.006
N5770 X-3.6402 Y-1.0021
N5775 X-3.6408 Y-1.0017
N5780 X-3.6526 Y-0.9947
N5785 X-3.6656 Y-0.9903
N5790 X-3.6792 Y-0.9885
N5795 X-3.6929 Y-0.9895
N5800 X-3.7062 Y-0.9931
N5805 X-3.7184 Y-0.9994
N5810 X-3.7291 Y-1.0079
N5815 X-3.738 Y-1.0184
N5820 X-3.7446 Y-1.0304
N5825 X-3.7486 Y-1.0436
N5830 X-3.75 Y-1.0572
N5835 G3 X-3.7442 Y-1.0804 I0.0571 J0.002 F126.06
N5840 X-3.6217 Y-1.0253 I0.0603 J0.0296
N5845 G1 X-3.6356 Y-0.9944 F126.051
N5850 X-3.6383 Y-0.989
N5855 X-3.6417 Y-0.9841
N5860 X-3.6456 Y-0.9795
N5865 X-3.6501 Y-0.9755
N5870 X-3.662 Y-0.9685
N5875 X-3.6751 Y-0.9643
N5880 X-3.6889 Y-0.9631
N5885 X-3.7025 Y-0.9649
N5890 X-3.7155 Y-0.9697
N5895 X-3.7271 Y-0.9772
N5900 X-3.7367 Y-0.9871
N5905 X-3.744 Y-0.9988
N5910 X-3.7485 Y-1.0119
N5915 X-3.75 Y-1.0256
N5920 G3 X-3.7443 Y-1.0462 I0.0463 J0.0016 F126.06
N5925 X-3.6356 Y-0.9944 I0.0529 J0.029
N5930 G1 X-3.641 Y-0.9822 F126.051
N5935 X-3.647 Y-0.9686
N5940 X-3.6496 Y-0.9632
N5945 X-3.653 Y-0.9583
N5950 X-3.657 Y-0.9538
N5955 X-3.6676 Y-0.9466
N5960 X-3.6795 Y-0.9419
N5965 X-3.6922 Y-0.9401
N5970 X-3.705 Y-0.9412
N5975 X-3.7171 Y-0.9451
N5980 X-3.7281 Y-0.9518
N5985 X-3.7373 Y-0.9607
N5990 X-3.7442 Y-0.9715
N5995 X-3.7485 Y-0.9835
N6000 X-3.75 Y-0.9963
N6005 G3 X-3.7452 Y-1.0142 I0.0409 J0.0014 F126.06
N6010 X-3.647 Y-0.9686 I0.0478 J0.0256
N6015 G1 X-3.6517 Y-0.9578 F126.051
N6020 X-3.6541 Y-0.9522
N6025 X-3.6583 Y-0.9447
N6030 X-3.6611 Y-0.941
N6035 X-3.6646 Y-0.9372
N6040 X-3.6667 Y-0.9353
N6045 X-3.6704 Y-0.9323
N6050 X-3.6742 Y-0.9299
N6055 X-3.6816 Y-0.9263
N6060 X-3.6891 Y-0.924
N6065 X-3.6966 Y-0.923
N6070 X-3.7041 Y-0.9231
N6075 X-3.7083 Y-0.9238
N6080 G3 X-3.7419 Y-0.988 I0.0094 J-0.0458 F126.06
N6085 G1 X-2.8983 Y-2.9716
N6090 G3 X-2.8568 Y-3. I0.0431 J0.0183
N6095 G1 X-2.7136 F126.051
N6100 X-2.712 Y-2.9999
N6105 X-2.6883 Y-2.9544
N6110 X-2.6655 Y-2.9086
N6115 X-2.6437 Y-2.8621
N6120 X-2.6234 Y-2.8151
N6125 X-2.6047 Y-2.7673
N6130 X-2.588 Y-2.7188
N6135 X-2.5735 Y-2.6697
N6140 X-2.5614 Y-2.6198
N6145 X-2.5522 Y-2.5708
N6150 X-2.5461 Y-2.5235
N6155 X-2.5428 Y-2.4775
N6160 X-2.5421 Y-2.4329
N6165 X-2.5439 Y-2.3894
N6170 X-2.548 Y-2.3472
N6175 X-2.5543 Y-2.3062
N6180 X-2.5582 Y-2.2879
N6185 X-2.5636 Y-2.2694
N6190 X-2.5717 Y-2.2519
N6195 X-2.5823 Y-2.2357
N6200 X-2.5952 Y-2.2214
N6205 X-2.61 Y-2.209
N6210 X-2.6169 Y-2.2042
N6215 X-2.627 Y-2.1969
N6220 X-2.6619 Y-2.1714
N6225 X-2.6919 Y-2.1489
N6230 X-2.7076 Y-2.1369
N6235 X-2.727 Y-2.1219
N6240 X-2.7369 Y-2.1142
N6245 X-2.7543 Y-2.1004
N6250 G3 X-2.8338 Y-2.1451 I-0.0297 J-0.0402 F126.06
N6255 G1 X-2.7617 Y-2.9545
N6260 G3 X-2.7136 Y-3. I0.0498 J0.0044
N6265 G1 X-2.5869 F126.051
N6270 X-2.5853 Y-2.9999
N6275 X-2.5617 Y-2.9544
N6280 X-2.5397 Y-2.9081
N6285 X-2.5194 Y-2.861
N6290 X-2.5009 Y-2.8132
N6295 X-2.4842 Y-2.7647
N6300 X-2.4697 Y-2.7155
N6305 X-2.4574 Y-2.6658
N6310 X-2.4474 Y-2.6155
N6315 X-2.44 Y-2.5647
N6320 X-2.4353 Y-2.5137
N6325 X-2.4333 Y-2.4625
N6330 X-2.434 Y-2.4192
N6335 X-2.4364 Y-2.3873
N6340 X-2.4374 Y-2.3797
N6345 X-2.4411 Y-2.3614
N6350 X-2.4474 Y-2.3438
N6355 X-2.4562 Y-2.3274
N6360 X-2.4672 Y-2.3123
N6365 X-2.4803 Y-2.299
N6370 X-2.4952 Y-2.2877
N6375 X-2.5119 Y-2.2766
N6380 X-2.5419 Y-2.2564
N6385 X-2.5569 Y-2.2462
N6390 X-2.5869 Y-2.2254
N6395 X-2.61 Y-2.209
N6400 G3 X-2.6874 Y-2.2545 I-0.0275 J-0.0417 F126.06
N6405 G1 X-2.635 Y-2.9538
N6410 G3 X-2.5869 Y-3. I0.0499 J0.0037
N6415 G1 X-2.4669 F126.051
N6420 X-2.4653 Y-2.9999
N6425 X-2.4417 Y-2.9544
N6430 X-2.4201 Y-2.9079
N6435 X-2.4005 Y-2.8605
N6440 X-2.3831 Y-2.8123
N6445 X-2.3677 Y-2.7634
N6450 X-2.3544 Y-2.7139
N6455 X-2.3434 Y-2.6638
N6460 X-2.3347 Y-2.6133
N6465 X-2.3284 Y-2.5624
N6470 X-2.3254 Y-2.5205
N6475 X-2.325 Y-2.4891
N6480 X-2.3261 Y-2.4614
N6485 X-2.3269 Y-2.4535
N6490 X-2.3297 Y-2.4365
N6495 X-2.3348 Y-2.4201
N6500 X-2.342 Y-2.4044
N6505 X-2.3511 Y-2.3899
N6510 X-2.3622 Y-2.3766
N6515 X-2.3748 Y-2.365
N6520 X-2.3889 Y-2.3551
N6525 X-2.3919 Y-2.3533
N6530 X-2.4069 Y-2.344
N6535 X-2.4369 Y-2.3253
N6540 X-2.4519 Y-2.3157
N6545 X-2.4735 Y-2.3019
N6550 X-2.4952 Y-2.2877
N6555 G3 X-2.5708 Y-2.335 I-0.0258 J-0.0428 F126.06
N6560 G1 X-2.515 Y-2.9545
N6565 G3 X-2.4669 Y-3. I0.0498 J0.0045
N6570 G1 X-2.347 F126.051
N6575 X-2.3454 Y-2.9999
N6580 X-2.3224 Y-2.9541
N6585 X-2.3017 Y-2.9072
N6590 X-2.283 Y-2.8594
N6595 X-2.2665 Y-2.8109
N6600 X-2.2522 Y-2.7617
N6605 X-2.2399 Y-2.7119
N6610 X-2.23 Y-2.6616
N6615 X-2.2235 Y-2.6158
N6620 X-2.2205 Y-2.5806
N6625 X-2.2197 Y-2.552
N6630 X-2.2204 Y-2.528
N6635 X-2.2213 Y-2.5175
N6640 X-2.224 Y-2.4997
N6645 X-2.2292 Y-2.4825
N6650 X-2.2367 Y-2.4662
N6655 X-2.2464 Y-2.451
N6660 X-2.2581 Y-2.4373
N6665 X-2.2715 Y-2.4254
N6670 X-2.2865 Y-2.4155
N6675 X-2.317 Y-2.398
N6680 X-2.3529 Y-2.3768
N6685 X-2.362 Y-2.3714
N6690 X-2.3889 Y-2.3551
N6695 G3 X-2.4629 Y-2.4049 I-0.0244 J-0.0436 F126.06
N6700 G1 X-2.3948 Y-2.9562
N6705 G3 X-2.347 Y-3. I0.0496 J0.0061
N6710 G1 X-2.2337 F126.051
N6715 X-2.2321 Y-2.9999
N6720 X-2.2086 Y-2.9543
N6725 X-2.1877 Y-2.9076
N6730 X-2.1691 Y-2.8598
N6735 X-2.1529 Y-2.8111
N6740 X-2.1392 Y-2.7617
N6745 X-2.1287 Y-2.7143
N6750 X-2.1222 Y-2.6749
N6755 X-2.1188 Y-2.6421
N6760 X-2.1175 Y-2.6149
N6765 X-2.1176 Y-2.592
N6770 X-2.119 Y-2.5699
N6775 X-2.1191 Y-2.5694
N6780 X-2.1224 Y-2.5519
N6785 X-2.1281 Y-2.5351
N6790 X-2.1361 Y-2.5191
N6795 X-2.1461 Y-2.5044
N6800 X-2.1581 Y-2.4913
N6805 X-2.1718 Y-2.4798
N6810 X-2.1869 Y-2.4704
N6815 X-2.197 Y-2.465
N6820 X-2.212 Y-2.4569
N6825 X-2.242 Y-2.4405
N6830 X-2.2486 Y-2.4368
N6835 X-2.2753 Y-2.4218
N6840 X-2.2865 Y-2.4155
N6845 G3 X-2.3591 Y-2.4676 I-0.0232 J-0.0443 F126.06
N6850 G1 X-2.2814 Y-2.9579
N6855 G3 X-2.2337 Y-3. I0.0494 J0.0078
N6860 G1 X-2.122 F126.051
N6865 X-2.1188 Y-2.9998
N6870 X-2.0961 Y-2.956
N6875 X-2.0754 Y-2.9096
N6880 X-2.0577 Y-2.8631
N6885 X-2.0433 Y-2.8179
N6890 X-2.0323 Y-2.7751
N6895 X-2.0247 Y-2.7365
N6900 X-2.0203 Y-2.7054
N6905 X-2.0182 Y-2.6793
N6910 X-2.0175 Y-2.655
N6915 X-2.0182 Y-2.6342
N6920 X-2.0189 Y-2.6252
N6925 X-2.022 Y-2.6064
N6930 X-2.0277 Y-2.5883
N6935 X-2.036 Y-2.5711
N6940 X-2.0468 Y-2.5554
N6945 X-2.0597 Y-2.5415
N6950 X-2.0745 Y-2.5295
N6955 X-2.0909 Y-2.5199
N6960 X-2.122 Y-2.5042
N6965 X-2.137 Y-2.4965
N6970 X-2.167 Y-2.481
N6975 X-2.1869 Y-2.4704
N6980 G3 X-2.2579 Y-2.5253 I-0.022 J-0.0449 F126.06
N6985 G1 X-2.1693 Y-2.96
N6990 G3 X-2.122 Y-3. I0.049 J0.01
N6995 G1 X-2.0088 F126.051
N7000 X-2.0072 Y-2.9999
N7005 X-1.9872 Y-2.961
N7010 X-1.9694 Y-2.9208
N7015 X-1.9543 Y-2.8809
N7020 X-1.9421 Y-2.8423
N7025 X-1.9328 Y-2.8058
N7030 X-1.9267 Y-2.7744
N7035 X-1.9228 Y-2.7458
N7040 X-1.9209 Y-2.7218
N7045 X-1.9204 Y-2.7001
N7050 X-1.9211 Y-2.6795
N7055 X-1.9218 Y-2.6717
N7060 X-1.9249 Y-2.6526
N7065 X-1.9309 Y-2.6342
N7070 X-1.9395 Y-2.6169
N7075 X-1.9506 Y-2.601
N7080 X-1.964 Y-2.587
N7085 X-1.9793 Y-2.5751
N7090 X-1.9961 Y-2.5656
N7095 X-2.017 Y-2.5558
N7100 X-2.032 Y-2.5487
N7105 X-2.047 Y-2.5414
N7110 X-2.0846 Y-2.523
N7115 X-2.0909 Y-2.5199
N7120 G3 X-2.1597 Y-2.5786 I-0.0206 J-0.0456 F126.06
N7125 G1 X-2.0553 Y-2.9631
N7130 G3 X-2.0088 Y-3. I0.0483 J0.0131
N7135 G1 X-1.9038 F126.051
N7140 X-1.9006 Y-2.9998
N7145 X-1.8838 Y-2.9675
N7150 X-1.8688 Y-2.9341
N7155 X-1.8561 Y-2.9007
N7160 X-1.8458 Y-2.8685
N7165 X-1.8377 Y-2.8371
N7170 X-1.8322 Y-2.8095
N7175 X-1.8286 Y-2.7845
N7180 X-1.8267 Y-2.762
N7185 X-1.8262 Y-2.742
N7190 X-1.8268 Y-2.7225
N7195 X-1.8282 Y-2.705
N7200 X-1.8321 Y-2.6874
N7205 X-1.8384 Y-2.6705
N7210 X-1.8471 Y-2.6547
N7215 X-1.858 Y-2.6403
N7220 X-1.8709 Y-2.6277
N7225 X-1.8854 Y-2.617
N7230 X-1.9014 Y-2.6085
N7235 X-1.9271 Y-2.5972
N7240 X-1.9421 Y-2.5905
N7245 X-1.972 Y-2.5768
N7250 X-1.9961 Y-2.5656
N7255 G3 X-2.0631 Y-2.6275 I-0.0196 J-0.046 F126.06
N7260 G1 X-1.9495 Y-2.9659
N7265 G3 X-1.9038 Y-3. I0.0474 J0.0159
N7270 G1 X-1.7988 F126.051
N7275 X-1.7972 Y-2.9999
N7280 X-1.7829 Y-2.9716
N7285 X-1.7702 Y-2.9426
N7290 X-1.7595 Y-2.9138
N7295 X-1.7508 Y-2.8855
N7300 X-1.744 Y-2.858
N7305 X-1.7395 Y-2.8344
N7310 X-1.7366 Y-2.8121
N7315 X-1.7351 Y-2.792
N7320 X-1.7348 Y-2.7733
N7325 X-1.7354 Y-2.7555
N7330 X-1.737 Y-2.739
N7335 X-1.7409 Y-2.7221
N7340 X-1.7472 Y-2.7059
N7345 X-1.7558 Y-2.6909
N7350 X-1.7665 Y-2.6773
N7355 X-1.7791 Y-2.6654
N7360 X-1.7934 Y-2.6554
N7365 X-1.8089 Y-2.6477
N7370 X-1.8221 Y-2.6423
N7375 X-1.8521 Y-2.6297
N7380 X-1.8823 Y-2.6168
N7385 X-1.8971 Y-2.6104
N7390 X-1.9014 Y-2.6085
N7395 G3 X-1.9661 Y-2.6742 I-0.0186 J-0.0464 F126.06
N7400 G1 X-1.8432 Y-2.9692
N7405 G3 X-1.7988 Y-3. I0.0462 J0.0192
N7410 G1 X-1.7021 F126.051
N7415 X-1.7005 Y-2.9999
N7420 X-1.6884 Y-2.976
N7425 X-1.6777 Y-2.9516
N7430 X-1.6686 Y-2.9271
N7435 X-1.661 Y-2.9025
N7440 X-1.6551 Y-2.8789
N7445 X-1.6511 Y-2.8577
N7450 X-1.6485 Y-2.8384
N7455 X-1.6472 Y-2.8198
N7460 X-1.6468 Y-2.8029
N7465 X-1.6475 Y-2.7863
N7470 X-1.6503 Y-2.769
N7475 X-1.6556 Y-2.7522
N7480 X-1.6631 Y-2.7363
N7485 X-1.6727 Y-2.7216
N7490 X-1.6842 Y-2.7084
N7495 X-1.6975 Y-2.6969
N7500 X-1.7123 Y-2.6873
N7505 X-1.7282 Y-2.6799
N7510 X-1.7471 Y-2.6725
N7515 X-1.7771 Y-2.6606
N7520 X-1.7921 Y-2.6546
N7525 X-1.8089 Y-2.6477
N7530 G3 X-1.871 Y-2.7167 I-0.0173 J-0.0469 F126.06
N7535 G1 X-1.7452 Y-2.9721
N7540 G3 X-1.7021 Y-3. I0.0449 J0.0221
N7545 G1 X-1.6121 F126.051
N7550 X-1.6105 Y-2.9999
N7555 X-1.6002 Y-2.9799
N7560 X-1.5909 Y-2.9593
N7565 X-1.5829 Y-2.9383
N7570 X-1.5767 Y-2.919
N7575 X-1.5718 Y-2.8997
N7580 X-1.5684 Y-2.8827
N7585 X-1.5659 Y-2.8651
N7590 X-1.5646 Y-2.8494
N7595 X-1.5642 Y-2.8332
N7600 X-1.5646 Y-2.8187
N7605 X-1.5651 Y-2.8126
N7610 X-1.5677 Y-2.7961
N7615 X-1.5726 Y-2.7802
N7620 X-1.5797 Y-2.7651
N7625 X-1.5889 Y-2.7511
N7630 X-1.6 Y-2.7386
N7635 X-1.6127 Y-2.7278
N7640 X-1.6269 Y-2.7189
N7645 X-1.6421 Y-2.7121
N7650 X-1.6571 Y-2.7067
N7655 X-1.6721 Y-2.7011
N7660 X-1.7021 Y-2.6899
N7665 X-1.7282 Y-2.6799
N7670 G3 X-1.7874 Y-2.7529 I-0.0163 J-0.0473 F126.06
N7675 G1 X-1.6532 Y-2.9758
N7680 G3 X-1.6121 Y-3. I0.0428 J0.0258
N7685 G1 X-1.5289 F126.051
N7690 X-1.5257 Y-2.9998
N7695 X-1.5169 Y-2.9828
N7700 X-1.5089 Y-2.9652
N7705 X-1.5023 Y-2.9477
N7710 X-1.4968 Y-2.9305
N7715 X-1.4925 Y-2.9141
N7720 X-1.4894 Y-2.8983
N7725 X-1.4872 Y-2.8831
N7730 X-1.486 Y-2.8684
N7735 X-1.4856 Y-2.854
N7740 X-1.486 Y-2.8404
N7745 X-1.4887 Y-2.8237
N7750 X-1.4937 Y-2.8075
N7755 X-1.501 Y-2.7923
N7760 X-1.5104 Y-2.7782
N7765 X-1.5218 Y-2.7657
N7770 X-1.5348 Y-2.7549
N7775 X-1.5493 Y-2.7461
N7780 X-1.5648 Y-2.7394
N7785 X-1.5821 Y-2.7335
N7790 X-1.5971 Y-2.7283
N7795 X-1.6271 Y-2.7176
N7800 X-1.6421 Y-2.7121
N7805 G3 X-1.6988 Y-2.788 I-0.0154 J-0.0476 F126.06
N7810 G1 X-1.5684 Y-2.9783
N7815 G3 X-1.5289 Y-3. I0.0412 J0.0283
N7820 G1 X-1.4472 F126.051
N7825 X-1.4456 Y-2.9999
N7830 X-1.4378 Y-2.9847
N7835 X-1.431 Y-2.9692
N7840 X-1.4255 Y-2.9547
N7845 X-1.4209 Y-2.9399
N7850 X-1.4174 Y-2.9262
N7855 X-1.4147 Y-2.9118
N7860 X-1.4129 Y-2.8989
N7865 X-1.4118 Y-2.885
N7870 X-1.4116 Y-2.8725
N7875 X-1.412 Y-2.8595
N7880 X-1.4152 Y-2.8415
N7885 X-1.4213 Y-2.8243
N7890 X-1.4302 Y-2.8084
N7895 X-1.4416 Y-2.7941
N7900 X-1.4552 Y-2.7819
N7905 X-1.4706 Y-2.7722
N7910 X-1.4874 Y-2.7651
N7915 X-1.5072 Y-2.7587
N7920 X-1.5283 Y-2.7517
N7925 X-1.5521 Y-2.7438
N7930 X-1.5648 Y-2.7394
N7935 G3 X-1.618 Y-2.819 I-0.0146 J-0.0478 F126.06
N7940 G1 X-1.484 Y-2.9818
N7945 G3 X-1.4472 Y-3. I0.0386 J0.0318
N7950 G1 X-1.3722 F126.051
N7955 X-1.3706 Y-2.9999
N7960 X-1.3638 Y-2.9863
N7965 X-1.3583 Y-2.9737
N7970 X-1.3534 Y-2.9603
N7975 X-1.3494 Y-2.9474
N7980 X-1.3465 Y-2.9353
N7985 X-1.344 Y-2.9222
N7990 X-1.3425 Y-2.9104
N7995 X-1.3417 Y-2.8982
N8000 X-1.3415 Y-2.8861
N8005 Y-2.8849
N8010 X-1.3435 Y-2.8685
N8015 X-1.3479 Y-2.8527
N8020 X-1.3548 Y-2.8377
N8025 X-1.3638 Y-2.824
N8030 X-1.3748 Y-2.8118
N8035 X-1.3876 Y-2.8014
N8040 X-1.4018 Y-2.7931
N8045 X-1.4172 Y-2.7872
N8050 X-1.435 Y-2.7817
N8055 X-1.4622 Y-2.7732
N8060 X-1.4772 Y-2.7684
N8065 X-1.4874 Y-2.7651
N8070 G3 X-1.5373 Y-2.8477 I-0.0138 J-0.0481 F126.06
N8075 G1 X-1.4066 Y-2.9846
N8080 G3 X-1.3722 Y-3. I0.0362 J0.0345
N8085 G1 X-1.3039 F126.051
N8090 X-1.3023 Y-2.9999
N8095 X-1.2969 Y-2.9892
N8100 X-1.2918 Y-2.9777
N8105 X-1.2878 Y-2.9671
N8110 X-1.2842 Y-2.9556
N8115 X-1.2814 Y-2.9446
N8120 X-1.2793 Y-2.934
N8125 X-1.2778 Y-2.9226
N8130 X-1.2769 Y-2.9122
N8135 X-1.278 Y-2.8944
N8140 X-1.282 Y-2.877
N8145 X-1.2887 Y-2.8605
N8150 X-1.298 Y-2.8454
N8155 X-1.3097 Y-2.832
N8160 X-1.3235 Y-2.8206
N8165 X-1.3389 Y-2.8117
N8170 X-1.3556 Y-2.8054
N8175 X-1.3853 Y-2.7967
N8180 X-1.4022 Y-2.7917
N8185 X-1.4172 Y-2.7872
N8190 G3 X-1.4634 Y-2.8727 I-0.0129 J-0.0483 F126.06
N8195 G1 X-1.3356 Y-2.9873
N8200 G3 X-1.3039 Y-3. I0.0334 J0.0372
N8205 G1 X-1.244 F126.051
N8210 X-1.2408 Y-2.9998
N8215 X-1.2361 Y-2.991
N8220 X-1.2321 Y-2.9821
N8225 X-1.2283 Y-2.9722
N8230 X-1.2253 Y-2.963
N8235 X-1.2228 Y-2.9535
N8240 X-1.2207 Y-2.9434
N8245 X-1.2194 Y-2.9341
N8250 X-1.2185 Y-2.9242
N8255 X-1.2194 Y-2.9073
N8260 X-1.2231 Y-2.8908
N8265 X-1.2294 Y-2.8751
N8270 X-1.2383 Y-2.8607
N8275 X-1.2495 Y-2.8479
N8280 X-1.2626 Y-2.8372
N8285 X-1.2773 Y-2.8288
N8290 X-1.2932 Y-2.823
N8295 X-1.3122 Y-2.8178
N8300 X-1.3335 Y-2.8117
N8305 X-1.3556 Y-2.8054
N8310 G3 X-1.398 Y-2.8936 I-0.0121 J-0.0485 F126.06
N8315 G1 X-1.2726 Y-2.9897
N8320 G3 X-1.244 Y-3. I0.0304 J0.0397
N8325 G1 X-1.184 F126.051
N8330 X-1.1824 Y-2.9999
N8335 X-1.1784 Y-2.9921
N8340 X-1.1746 Y-2.9832
N8345 X-1.1714 Y-2.9747
N8350 X-1.1689 Y-2.9663
N8355 X-1.1666 Y-2.957
N8360 X-1.1649 Y-2.9482
N8365 X-1.1638 Y-2.9396
N8370 X-1.1641 Y-2.9226
N8375 X-1.1673 Y-2.906
N8380 X-1.1733 Y-2.8901
N8385 X-1.1819 Y-2.8756
N8390 X-1.193 Y-2.8628
N8395 X-1.2061 Y-2.852
N8400 X-1.2208 Y-2.8437
N8405 X-1.2368 Y-2.8381
N8410 X-1.2522 Y-2.8341
N8415 X-1.2822 Y-2.826
N8420 X-1.2932 Y-2.823
N8425 G3 X-1.3317 Y-2.9138 I-0.0115 J-0.0487 F126.06
N8430 G1 X-1.2127 Y-2.9899
N8435 X-1.2092 Y-2.9922
N8440 G3 X-1.184 Y-3. I0.0269 J0.0421
N8445 G1 X-1.1322 F126.051
N8450 X-1.1306 Y-2.9999
N8455 X-1.1276 Y-2.9947
N8460 X-1.1248 Y-2.9894
N8465 X-1.1223 Y-2.984
N8470 X-1.12 Y-2.9784
N8475 X-1.1179 Y-2.9728
N8480 X-1.1161 Y-2.9671
N8485 X-1.1145 Y-2.9613
N8490 X-1.1132 Y-2.9554
N8495 X-1.1122 Y-2.9495
N8500 X-1.1114 Y-2.9336
N8505 X-1.1136 Y-2.9179
N8510 X-1.1186 Y-2.9028
N8515 X-1.1263 Y-2.8888
N8520 X-1.1364 Y-2.8765
N8525 X-1.1485 Y-2.8663
N8530 X-1.1623 Y-2.8584
N8535 X-1.1774 Y-2.8531
N8540 X-1.2072 Y-2.8457
N8545 X-1.2368 Y-2.8381
N8550 G3 X-1.2828 Y-2.8907 I-0.0086 J-0.0389 F126.06
N8555 X-1.1322 Y-3. I0.1564 J0.0571
N8560 G1 X-1.079 F126.051
N8565 X-1.0774 Y-2.9999
N8570 X-1.0742 Y-2.9933
N8575 X-1.0713 Y-2.9863
N8580 X-1.0686 Y-2.9788
N8585 X-1.0665 Y-2.9716
N8590 X-1.0662 Y-2.9699
N8595 X-1.064 Y-2.9547
N8600 X-1.0646 Y-2.9393
N8605 X-1.0678 Y-2.9243
N8610 X-1.0735 Y-2.91
N8615 X-1.0817 Y-2.897
N8620 X-1.092 Y-2.8856
N8625 X-1.1041 Y-2.8761
N8630 X-1.1176 Y-2.8689
N8635 X-1.1322 Y-2.8641
N8640 X-1.1472 Y-2.8605
N8645 X-1.1628 Y-2.8567
N8650 X-1.1774 Y-2.8531
N8655 G3 X-1.2184 Y-2.9018 I-0.0075 J-0.0353 F126.06
N8660 X-1.079 Y-3. I0.1449 J0.0576
N8665 G1 X-1.0377 F126.051
N8670 X-1.0361 Y-2.9999
N8675 X-1.0331 Y-2.9948
N8680 X-1.0303 Y-2.9895
N8685 X-1.0278 Y-2.984
N8690 X-1.0236 Y-2.969
N8695 X-1.0223 Y-2.9534
N8700 X-1.024 Y-2.9379
N8705 X-1.0286 Y-2.923
N8710 X-1.0359 Y-2.9092
N8715 X-1.0458 Y-2.8971
N8720 X-1.0578 Y-2.8871
N8725 X-1.0714 Y-2.8795
N8730 X-1.0863 Y-2.8747
N8735 G3 X-1.1228 Y-2.9019 I-0.0057 J-0.0305 F126.06
N8740 X-1.0377 Y-3. I0.0882 J-0.0094
N8745 G1 X-0.9973 F126.051
N8750 X-0.9952 Y-2.9999
N8755 X-0.9922 Y-2.9947
N8760 X-0.9895 Y-2.9894
N8765 X-0.989 Y-2.9882
N8770 X-0.9844 Y-2.9741
N8775 X-0.9827 Y-2.9594
N8780 X-0.9839 Y-2.9446
N8785 X-0.9879 Y-2.9304
N8790 X-0.9947 Y-2.9172
N8795 X-1.0039 Y-2.9056
N8800 X-1.0152 Y-2.8961
N8805 X-1.0282 Y-2.8889
N8810 X-1.0423 Y-2.8844
N8815 G3 X-1.0758 Y-2.9095 I-0.0051 J-0.0282 F126.06
N8820 X-0.9973 Y-3. I0.0814 J-0.0087
N8825 G1 X-0.9748 F126.051
N8830 X-0.9673 Y-2.9991
N8835 X-0.9598 Y-2.9971
N8840 X-0.9584 Y-2.9964
N8845 X-0.9528 Y-2.9844
N8850 X-0.9496 Y-2.9716
N8855 X-0.9488 Y-2.9583
N8860 X-0.9505 Y-2.9451
N8865 X-0.9547 Y-2.9326
N8870 X-0.9612 Y-2.921
N8875 X-0.9698 Y-2.9108
N8880 X-0.9801 Y-2.9025
N8885 X-0.9918 Y-2.8963
N8890 X-1.0045 Y-2.8924
N8895 G3 X-1.0371 Y-2.9117 I-0.0049 J-0.0288 F126.06
N8900 X-0.9598 Y-2.9971 I0.0624 J-0.0212
N8905 G1 X-0.9523 Y-2.9938 F126.051
N8910 X-0.9489 Y-2.9917
N8915 X-0.9431 Y-2.9872
N8920 X-0.9373 Y-2.981
N8925 X-0.9341 Y-2.9767
N8930 X-0.93 Y-2.9692
N8935 X-0.9275 Y-2.9617
N8940 X-0.9261 Y-2.9542
N8945 X-0.9259 Y-2.9467
N8950 X-0.9269 Y-2.9392
N8955 X-0.9291 Y-2.9317
N8960 X-0.9324 Y-2.9246
N8965 X-0.9373 Y-2.9174
N8970 X-0.9379 Y-2.9167
N8975 X-0.9415 Y-2.9129
N8980 X-0.9451 Y-2.9098
N8985 X-0.9523 Y-2.9052
N8990 X-0.9563 Y-2.9032
N8995 X-0.9604 Y-2.9017
N9000 X-0.9673 Y-2.9
N9005 X-0.9823 Y-2.897
N9010 X-1.0123 Y-2.8908
N9015 X-1.0436 Y-2.8841
N9020 X-1.0573 Y-2.8811
N9025 X-1.0872 Y-2.8745
N9030 X-1.1022 Y-2.8711
N9035 X-1.1322 Y-2.8641
N9040 X-1.1355 Y-2.8638 Z-0.3935 F126.06
N9045 X-1.1387 Y-2.8635 Z-0.393
N9050 X-1.1419 Y-2.8632 Z-0.3921
N9055 X-1.1453 Y-2.8636 Z-0.3908
N9060 X-1.1485 Y-2.864 Z-0.389
N9065 X-1.1515 Y-2.8644 Z-0.3868
N9070 X-1.1542 Y-2.8647 Z-0.3843
N9075 X-1.1567 Y-2.8656 Z-0.3813
N9080 X-1.1587 Y-2.8663 Z-0.378
N9085 X-1.1603 Y-2.8669 Z-0.3744
N9090 X-1.1615 Y-2.8673 Z-0.3706
N9095 X-1.1622 Y-2.8675 Z-0.3667
N9100 X-1.1625 Y-2.8676 Z-0.3628
N9105 G0 Z0.2
N9110 G1 X-3.4331 Y2.4102 F650.
N9115 G0 Z0.1
N9120 S7640
N9125 G3 X-3.4356 Y2.4308 Z0.0486 I0.2344 J0.0385 F126.06
N9130 X-3.4362 Y2.4515 Z-0.0028 I0.2368 J0.018
N9135 X-3.4351 Y2.4722 Z-0.0542 I0.2375 J-0.0028
N9140 X-3.4321 Y2.4927 Z-0.1055 I0.2363 J-0.0234
N9145 X-3.4274 Y2.5129 Z-0.1569 I0.2334 J-0.044
N9150 X-3.421 Y2.5326 Z-0.2083 I0.2287 J-0.0641
N9155 X-3.4128 Y2.5516 Z-0.2597 I0.2222 J-0.0838
N9160 X-3.403 Y2.5699 Z-0.3111 I0.2141 J-0.1029
N9165 X-3.3917 Y2.5872 Z-0.3625 I0.2043 J-0.1211
N9170 X-2.9612 Y2.4488 Z-0.3937 I0.193 J-0.1385
N9175 X-3.4362 I-0.2375 J0.
N9180 X-2.9612 I0.2375 J0.
N9185 S7639
N9190 G1 X-2.9611 Y2.4616 F126.051
N9195 X-2.9565 Y2.5126
N9200 X-2.9553 Y2.5156
N9205 X-2.9533 Y2.5213
N9210 X-2.9517 Y2.527
N9215 X-2.9505 Y2.5329
N9220 X-2.9496 Y2.5389
N9225 X-2.949 Y2.5448
N9230 X-2.9488 Y2.5508
N9235 Y2.5568
N9240 X-2.949 Y2.5628
N9245 X-2.9496 Y2.5688
N9250 X-2.9503 Y2.5747
N9255 X-2.9513 Y2.5807
N9260 X-2.9525 Y2.5865
N9265 X-2.9539 Y2.5924
N9270 X-2.9556 Y2.5981
N9275 X-2.9574 Y2.6039
N9280 X-2.9594 Y2.6095
N9285 X-2.9615 Y2.6151
N9290 X-2.9639 Y2.6206
N9295 X-2.9664 Y2.6261
N9300 X-2.9691 Y2.6314
N9305 X-2.9719 Y2.6367
N9310 X-2.9749 Y2.6419
N9315 X-2.978 Y2.6471
N9320 X-2.9813 Y2.6521
N9325 X-2.9847 Y2.657
N9330 X-2.9883 Y2.6619
N9335 X-2.9919 Y2.6666
N9340 X-2.9957 Y2.6713
N9345 X-2.9996 Y2.6758
N9350 X-3.0036 Y2.6803
N9355 X-3.0078 Y2.6846
N9360 X-3.012 Y2.6889
N9365 X-3.0163 Y2.693
N9370 X-3.0208 Y2.6971
N9375 X-3.0253 Y2.701
N9380 X-3.0299 Y2.7048
N9385 X-3.0346 Y2.7085
N9390 X-3.0394 Y2.7122
N9395 X-3.0443 Y2.7156
N9400 X-3.0493 Y2.719
N9405 X-3.0543 Y2.7223
N9410 X-3.0594 Y2.7254
N9415 X-3.0646 Y2.7285
N9420 X-3.0698 Y2.7314
N9425 X-3.0751 Y2.7342
N9430 X-3.0805 Y2.7369
N9435 X-3.0859 Y2.7395
N9440 X-3.0914 Y2.7419
N9445 X-3.0969 Y2.7443
N9450 X-3.1025 Y2.7465
N9455 X-3.1081 Y2.7486
N9460 X-3.1138 Y2.7505
N9465 X-3.1195 Y2.7524
N9470 X-3.1252 Y2.7541
N9475 X-3.131 Y2.7557
N9480 X-3.1368 Y2.7572
N9485 X-3.1427 Y2.7586
N9490 X-3.1485 Y2.7599
N9495 X-3.1544 Y2.761
N9500 X-3.1603 Y2.762
N9505 X-3.1663 Y2.7629
N9510 X-3.1722 Y2.7637
N9515 X-3.1782 Y2.7643
N9520 X-3.1842 Y2.7648
N9525 X-3.1902 Y2.7653
N9530 X-3.1961 Y2.7655
N9535 X-3.2021 Y2.7657
N9540 X-3.2081
N9545 X-3.2141
N9550 X-3.2201 Y2.7655
N9555 X-3.2261 Y2.7652
N9560 X-3.2321 Y2.7647
N9565 X-3.2381 Y2.7642
N9570 X-3.2441 Y2.7635
N9575 X-3.25 Y2.7627
N9580 X-3.2559 Y2.7618
N9585 X-3.2618 Y2.7608
N9590 X-3.2677 Y2.7597
N9595 X-3.2736 Y2.7584
N9600 X-3.2795 Y2.7571
N9605 X-3.2853 Y2.7556
N9610 X-3.2911 Y2.754
N9615 X-3.2968 Y2.7523
N9620 X-3.3025 Y2.7505
N9625 X-3.3082 Y2.7486
N9630 X-3.3139 Y2.7465
N9635 X-3.3195 Y2.7444
N9640 X-3.325 Y2.7422
N9645 X-3.3305 Y2.7398
N9650 X-3.336 Y2.7373
N9655 X-3.3414 Y2.7348
N9660 X-3.3468 Y2.7321
N9665 X-3.3521 Y2.7293
N9670 X-3.3574 Y2.7265
N9675 X-3.3626 Y2.7235
N9680 X-3.3678 Y2.7204
N9685 X-3.3729 Y2.7173
N9690 X-3.3779 Y2.714
N9695 X-3.3829 Y2.7106
N9700 X-3.3878 Y2.7072
N9705 X-3.3926 Y2.7036
N9710 X-3.3974 Y2.7
N9715 X-3.4021 Y2.6962
N9720 X-3.4067 Y2.6924
N9725 X-3.4113 Y2.6885
N9730 X-3.4157 Y2.6845
N9735 X-3.4201 Y2.6805
N9740 X-3.4245 Y2.6763
N9745 X-3.4287 Y2.6721
N9750 X-3.4329 Y2.6677
N9755 X-3.437 Y2.6633
N9760 X-3.441 Y2.6589
N9765 X-3.4449 Y2.6543
N9770 X-3.4487 Y2.6497
N9775 X-3.4524 Y2.645
N9780 X-3.4561 Y2.6402
N9785 X-3.4596 Y2.6354
N9790 X-3.4631 Y2.6305
N9795 X-3.4665 Y2.6255
N9800 X-3.4698 Y2.6205
N9805 X-3.4729 Y2.6154
N9810 X-3.476 Y2.6103
N9815 X-3.479 Y2.6051
N9820 X-3.4819 Y2.5998
N9825 X-3.4847 Y2.5945
N9830 X-3.4874 Y2.5892
N9835 X-3.49 Y2.5837
N9840 X-3.4925 Y2.5783
N9845 X-3.4949 Y2.5728
N9850 X-3.4971 Y2.5672
N9855 X-3.4993 Y2.5616
N9860 X-3.5014 Y2.556
N9865 X-3.5033 Y2.5503
N9870 X-3.5052 Y2.5446
N9875 X-3.507 Y2.5389
N9880 X-3.5086 Y2.5331
N9885 X-3.5101 Y2.5273
N9890 X-3.5116 Y2.5215
N9895 X-3.5129 Y2.5156
N9900 X-3.5141 Y2.5098
N9905 X-3.5152 Y2.5039
N9910 X-3.5162 Y2.4979
N9915 X-3.517 Y2.492
N9920 X-3.5178 Y2.4861
N9925 X-3.5184 Y2.4801
N9930 X-3.519 Y2.4741
N9935 X-3.5194 Y2.4681
N9940 X-3.5197 Y2.4621
N9945 X-3.5199 Y2.4561
N9950 X-3.52 Y2.4501
N9955 Y2.4441
N9960 X-3.5199 Y2.4381
N9965 X-3.5196 Y2.4322
N9970 X-3.5193 Y2.4262
N9975 X-3.5188 Y2.4202
N9980 X-3.5182 Y2.4142
N9985 X-3.5175 Y2.4083
N9990 X-3.5167 Y2.4023
N9995 X-3.5158 Y2.3964
N10000 X-3.5148 Y2.3905
N10005 X-3.5136 Y2.3846
N10010 X-3.5124 Y2.3787
N10015 X-3.511 Y2.3729
N10020 X-3.5095 Y2.367
N10025 X-3.508 Y2.3613
N10030 X-3.5063 Y2.3555
N10035 X-3.5045 Y2.3498
N10040 X-3.5026 Y2.3441
N10045 X-3.5006 Y2.3384
N10050 X-3.4985 Y2.3328
N10055 X-3.4963 Y2.3272
N10060 X-3.494 Y2.3217
N10065 X-3.4915 Y2.3162
N10070 X-3.489 Y2.3108
N10075 X-3.4864 Y2.3054
N10080 X-3.4837 Y2.3
N10085 X-3.4808 Y2.2947
N10090 X-3.4779 Y2.2895
N10095 X-3.4749 Y2.2843
N10100 X-3.4718 Y2.2792
N10105 X-3.4686 Y2.2741
N10110 X-3.4653 Y2.2691
N10115 X-3.4619 Y2.2641
N10120 X-3.4584 Y2.2593
N10125 X-3.4548 Y2.2545
N10130 X-3.4511 Y2.2497
N10135 X-3.4474 Y2.245
N10140 X-3.4435 Y2.2404
N10145 X-3.4396 Y2.2359
N10150 X-3.4356 Y2.2314
N10155 X-3.4315 Y2.227
N10160 X-3.4273 Y2.2227
N10165 X-3.4231 Y2.2185
N10170 X-3.4187 Y2.2144
N10175 X-3.4143 Y2.2103
N10180 X-3.4098 Y2.2063
N10185 X-3.4053 Y2.2024
N10190 X-3.4006 Y2.1986
N10195 X-3.3959 Y2.1949
N10200 X-3.3911 Y2.1912
N10205 X-3.3863 Y2.1877
N10210 X-3.3814 Y2.1842
N10215 X-3.3764 Y2.1809
N10220 X-3.3714 Y2.1776
N10225 X-3.3663 Y2.1744
N10230 X-3.3612 Y2.1713
N10235 X-3.356 Y2.1684
N10240 X-3.3507 Y2.1655
N10245 X-3.3454 Y2.1627
N10250 X-3.34 Y2.16
N10255 X-3.3346 Y2.1574
N10260 X-3.3292 Y2.1549
N10265 X-3.3236 Y2.1525
N10270 X-3.3181 Y2.1503
N10275 X-3.3125 Y2.1481
N10280 X-3.3069 Y2.146
N10285 X-3.3012 Y2.144
N10290 X-3.2955 Y2.1422
N10295 X-3.2898 Y2.1404
N10300 X-3.284 Y2.1388
N10305 X-3.2782 Y2.1373
N10310 X-3.2724 Y2.1358
N10315 X-3.2665 Y2.1345
N10320 X-3.2606 Y2.1333
N10325 X-3.2547 Y2.1322
N10330 X-3.2488 Y2.1312
N10335 X-3.2429 Y2.1303
N10340 X-3.2369 Y2.1296
N10345 X-3.231 Y2.1289
N10350 X-3.225 Y2.1283
N10355 X-3.219 Y2.1279
N10360 X-3.213 Y2.1276
N10365 X-3.207 Y2.1274
N10370 X-3.201 Y2.1273
N10375 X-3.195
N10380 X-3.189 Y2.1274
N10385 X-3.183 Y2.1277
N10390 X-3.177 Y2.128
N10395 X-3.1711 Y2.1285
N10400 X-3.1651 Y2.129
N10405 X-3.1591 Y2.1297
N10410 X-3.1532 Y2.1305
N10415 X-3.1472 Y2.1314
N10420 X-3.1413 Y2.1324
N10425 X-3.1354 Y2.1336
N10430 X-3.1296 Y2.1348
N10435 X-3.1237 Y2.1361
N10440 X-3.1179 Y2.1376
N10445 X-3.1121 Y2.1392
N10450 X-3.1063 Y2.1408
N10455 X-3.1006 Y2.1426
N10460 X-3.0949 Y2.1445
N10465 X-3.0893 Y2.1465
N10470 X-3.0836 Y2.1486
N10475 X-3.0781 Y2.1508
N10480 X-3.0725 Y2.1531
N10485 X-3.067 Y2.1555
N10490 X-3.0616 Y2.158
N10495 X-3.0562 Y2.1606
N10500 X-3.0508 Y2.1633
N10505 X-3.0455 Y2.1661
N10510 X-3.0403 Y2.169
N10515 X-3.0351 Y2.172
N10520 X-3.0299 Y2.1752
N10525 X-3.0249 Y2.1783
N10530 X-3.0198 Y2.1816
N10535 X-3.0149 Y2.185
N10540 X-3.01 Y2.1885
N10545 X-3.0052 Y2.1921
N10550 X-3.0004 Y2.1957
N10555 X-2.9957 Y2.1995
N10560 X-2.9911 Y2.2033
N10565 X-2.9866 Y2.2072
N10570 X-2.9821 Y2.2112
N10575 X-2.9777 Y2.2153
N10580 X-2.9734 Y2.2195
N10585 X-2.9691 Y2.2237
N10590 X-2.965 Y2.228
N10595 X-2.9609 Y2.2324
N10600 X-2.9569 Y2.2369
N10605 X-2.953 Y2.2415
N10610 X-2.9492 Y2.2461
N10615 X-2.9454 Y2.2508
N10620 X-2.9418 Y2.2555
N10625 X-2.9382 Y2.2604
N10630 X-2.9348 Y2.2653
N10635 X-2.9314 Y2.2702
N10640 X-2.9281 Y2.2752
N10645 X-2.9249 Y2.2803
N10650 X-2.9218 Y2.2855
N10655 X-2.9188 Y2.2907
N10660 X-2.9159 Y2.2959
N10665 X-2.9131 Y2.3012
N10670 X-2.9104 Y2.3066
N10675 X-2.9078 Y2.312
N10680 X-2.9027 Y2.3228
N10685 X-2.9002 Y2.3283
N10690 X-2.8977 Y2.3338
N10695 X-2.8953 Y2.3393
N10700 X-2.8929 Y2.3448
N10705 X-2.8906 Y2.3503
N10710 X-2.8883 Y2.3558
N10715 X-2.8861 Y2.3614
N10720 X-2.8839 Y2.367
N10725 X-2.8818 Y2.3726
N10730 X-2.8798 Y2.3783
N10735 X-2.8778 Y2.3839
N10740 X-2.8759 Y2.3896
N10745 X-2.874 Y2.3953
N10750 X-2.8722 Y2.4011
N10755 X-2.8705 Y2.4068
N10760 X-2.8689 Y2.4126
N10765 X-2.8673 Y2.4184
N10770 X-2.8659 Y2.4242
N10775 X-2.8645 Y2.43
N10780 X-2.8632 Y2.4359
N10785 X-2.8619 Y2.4418
N10790 X-2.8608 Y2.4476
N10795 X-2.8597 Y2.4536
N10800 X-2.8588 Y2.4595
N10805 X-2.8579 Y2.4654
N10810 X-2.8572 Y2.4714
N10815 X-2.8565 Y2.4773
N10820 X-2.8559 Y2.4833
N10825 X-2.8554 Y2.4893
N10830 X-2.8551 Y2.4953
N10835 X-2.8548 Y2.5013
N10840 X-2.8546 Y2.5073
N10845 X-2.8545 Y2.5133
N10850 X-2.8546 Y2.5193
N10855 X-2.8547 Y2.5253
N10860 X-2.855 Y2.5313
N10865 X-2.8553 Y2.5372
N10870 X-2.8558 Y2.5432
N10875 X-2.8564 Y2.5492
N10880 X-2.857 Y2.5552
N10885 X-2.8578 Y2.5611
N10890 X-2.8587 Y2.567
N10895 X-2.8597 Y2.573
N10900 X-2.8608 Y2.5789
N10905 X-2.862 Y2.5847
N10910 X-2.8633 Y2.5906
N10915 X-2.8648 Y2.5964
N10920 X-2.8663 Y2.6022
N10925 X-2.8679 Y2.608
N10930 X-2.8697 Y2.6137
N10935 X-2.8715 Y2.6194
N10940 X-2.8735 Y2.6251
N10945 X-2.8756 Y2.6307
N10950 X-2.8777 Y2.6363
N10955 X-2.88 Y2.6419
N10960 X-2.8823 Y2.6474
N10965 X-2.8848 Y2.6529
N10970 X-2.8874 Y2.6583
N10975 X-2.89 Y2.6637
N10980 X-2.8928 Y2.669
N10985 X-2.8957 Y2.6743
N10990 X-2.8986 Y2.6795
N10995 X-2.9017 Y2.6847
N11000 X-2.9048 Y2.6898
N11005 X-2.908 Y2.6948
N11010 X-2.9114 Y2.6998
N11015 X-2.9148 Y2.7048
N11020 X-2.9183 Y2.7097
N11025 X-2.9218 Y2.7145
N11030 X-2.9255 Y2.7192
N11035 X-2.9293 Y2.7239
N11040 X-2.9331 Y2.7285
N11045 X-2.937 Y2.733
N11050 X-2.941 Y2.7375
N11055 X-2.9451 Y2.7419
N11060 X-2.9492 Y2.7463
N11065 X-2.9535 Y2.7505
N11070 X-2.9578 Y2.7547
N11075 X-2.9621 Y2.7588
N11080 X-2.9666 Y2.7629
N11085 X-2.9711 Y2.7668
N11090 X-2.9757 Y2.7707
N11095 X-2.9856 Y2.7788
N11100 X-2.9949 Y2.7877
N11105 X-3.0034 Y2.7972
N11110 X-3.0112 Y2.8074
N11115 X-3.0182 Y2.8181
N11120 X-3.0244 Y2.8294
N11125 X-3.0296 Y2.841
N11130 X-3.034 Y2.8531
N11135 X-3.0374 Y2.8655
N11140 X-3.0398 Y2.878
N11145 X-3.0413 Y2.8908
N11150 X-3.0418 Y2.9036
N11155 X-3.0415 Y2.9114
N11160 X-3.0423 Y2.9266
N11165 X-3.0458 Y2.9415
N11170 X-3.0518 Y2.9554
N11175 X-3.0603 Y2.9681
N11180 X-3.0708 Y2.9791
N11185 X-3.0832 Y2.988
N11190 X-3.0969 Y2.9946
N11195 X-3.1116 Y2.9986
N11200 X-3.1268 Y3.
N11205 X-3.3667
N11210 X-3.3699 Y2.9998
N11215 X-3.3945 Y2.9549
N11220 X-3.4219 Y2.9115
N11225 X-3.4506 Y2.869
N11230 X-3.4797 Y2.8268
N11235 X-3.4938 Y2.8054
N11240 X-3.5007 Y2.7946
N11245 X-3.528 Y2.7512
N11250 X-3.5343 Y2.74
N11255 X-3.5388 Y2.7315
N11260 G3 X-3.4495 Y2.6866 I0.045 J-0.0218 F126.06
N11265 G1 X-3.3241 Y2.9269
N11270 G3 X-3.3667 Y3. I-0.0443 J0.0231
N11275 G1 X-3.5394 F126.051
N11280 G3 X-3.584 Y2.9687 I0.0017 J-0.05 F126.06
N11285 G1 X-3.7414 Y2.5786
N11290 X-3.7464 Y2.5661
N11295 G3 X-3.75 Y2.5491 I0.0464 J-0.0187
N11300 G1 Y2.2719 F126.051
N11305 X-3.7498 Y2.2687
N11310 X-3.7044 Y2.245
N11315 X-3.6604 Y2.2185
N11320 X-3.6175 Y2.1906
N11325 X-3.5747 Y2.1623
N11330 X-3.5315 Y2.1347
N11335 X-3.4873 Y2.1087
N11340 X-3.4499 Y2.0894
N11345 X-3.4161 Y2.0742
N11350 X-3.3844 Y2.0622
N11355 X-3.3543 Y2.0526
N11360 X-3.3252 Y2.0452
N11365 X-3.297 Y2.0396
N11370 X-3.2694 Y2.0357
N11375 X-3.2425 Y2.0335
N11380 X-3.216 Y2.0329
N11385 X-3.1901 Y2.0336
N11390 X-3.1647 Y2.0359
N11395 X-3.1399 Y2.0394
N11400 X-3.1155 Y2.0444
N11405 X-3.0917 Y2.0506
N11410 X-3.0685 Y2.0581
N11415 X-3.0459 Y2.0668
N11420 X-3.0241 Y2.0767
N11425 X-3.0029 Y2.0877
N11430 X-2.9825 Y2.0999
N11435 X-2.9629 Y2.1132
N11440 X-2.9441 Y2.1274
N11445 X-2.9261 Y2.1427
N11450 X-2.9082 Y2.1599
N11455 X-2.8898 Y2.1796
N11460 X-2.8715 Y2.2015
N11465 X-2.8539 Y2.2252
N11470 X-2.8376 Y2.25
N11475 X-2.8227 Y2.2755
N11480 X-2.8095 Y2.3015
N11485 X-2.798 Y2.3277
N11490 X-2.7882 Y2.354
N11495 X-2.7801 Y2.3802
N11500 X-2.7735 Y2.4064
N11505 X-2.7686 Y2.4323
N11510 X-2.7652 Y2.458
N11515 X-2.7632 Y2.4836
N11520 X-2.7628 Y2.5088
N11525 X-2.7637 Y2.5338
N11530 X-2.766 Y2.5585
N11535 X-2.7697 Y2.5828
N11540 X-2.7747 Y2.6068
N11545 X-2.781 Y2.6304
N11550 X-2.7886 Y2.6535
N11555 X-2.7975 Y2.6762
N11560 X-2.819 Y2.7227
N11565 X-2.8405 Y2.7693
N11570 X-2.8421 Y2.782
N11575 X-2.8428 Y2.7948
N11580 X-2.8425 Y2.8076
N11585 X-2.8412 Y2.8203
N11590 X-2.8389 Y2.833
N11595 X-2.8259 Y2.8826
N11600 X-2.7998 Y2.9243
N11605 X-2.7949 Y2.9348
N11610 X-2.7925 Y2.9463
N11615 X-2.7929 Y2.958
N11620 X-2.796 Y2.9692
N11625 X-2.8017 Y2.9794
N11630 X-2.8096 Y2.988
N11635 X-2.8193 Y2.9946
N11640 X-2.8302 Y2.9986
N11645 X-2.8418 Y3.
N11650 G3 X-2.8711 Y2.9893 I0.0017 J-0.05 F126.06
N11655 G1 X-3.731 Y2.3094
N11660 G3 X-3.75 Y2.2719 I0.031 J-0.0392
N11665 G1 Y2.1069 F126.051
N11670 X-3.7498 Y2.1037
N11675 X-3.7043 Y2.0802
N11680 X-3.6587 Y2.0567
N11685 X-3.6129 Y2.0336
N11690 X-3.5666 Y2.0116
N11695 X-3.5196 Y1.9912
N11700 X-3.4717 Y1.973
N11705 X-3.4271 Y1.9588
N11710 X-3.3859 Y1.9481
N11715 X-3.3462 Y1.9402
N11720 X-3.3081 Y1.9349
N11725 X-3.2716 Y1.9318
N11730 X-3.2365 Y1.9308
N11735 X-3.2026 Y1.9318
N11740 X-3.1694 Y1.9347
N11745 X-3.1371 Y1.9393
N11750 X-3.1057 Y1.9456
N11755 X-3.0751 Y1.9535
N11760 X-3.0455 Y1.963
N11765 X-3.0167 Y1.9741
N11770 X-2.9889 Y1.9866
N11775 X-2.9619 Y2.0007
N11780 X-2.9355 Y2.0164
N11785 X-2.9095 Y2.0338
N11790 X-2.8841 Y2.0531
N11795 X-2.8594 Y2.0741
N11800 X-2.8356 Y2.0968
N11805 X-2.8129 Y2.121
N11810 X-2.7915 Y2.1466
N11815 X-2.7715 Y2.1733
N11820 X-2.7532 Y2.2011
N11825 X-2.7365 Y2.2298
N11830 X-2.7215 Y2.2591
N11835 X-2.7083 Y2.289
N11840 X-2.6969 Y2.3194
N11845 X-2.6874 Y2.3501
N11850 X-2.6796 Y2.3809
N11855 X-2.6736 Y2.4119
N11860 X-2.6695 Y2.443
N11865 X-2.6671 Y2.474
N11870 X-2.6664 Y2.5048
N11875 X-2.6675 Y2.5355
N11880 X-2.6703 Y2.5659
N11885 X-2.6779 Y2.6166
N11890 X-2.6804 Y2.6678
N11895 X-2.6793 Y2.719
N11900 X-2.6766 Y2.7702
N11905 X-2.6748 Y2.8215
N11910 X-2.662 Y2.8711
N11915 X-2.6372 Y2.916
N11920 X-2.604 Y2.955
N11925 X-2.5649 Y2.9883
N11930 X-2.5624 Y2.9914
N11935 X-2.5623 Y2.9954
N11940 X-2.5645 Y2.9987
N11945 X-2.5684 Y3.
N11950 G3 X-2.5965 Y2.9901 I0.0017 J-0.05 F126.06
N11955 G1 X-2.597 Y2.9897
N11960 X-3.7299 Y2.1453
N11965 G3 X-3.75 Y2.1069 I0.0299 J-0.0401
N11970 G1 Y1.972 F126.051
N11975 X-3.7499 Y1.9704
N11980 X-3.7044 Y1.9469
N11985 X-3.6581 Y1.9246
N11990 X-3.6112 Y1.904
N11995 X-3.5636 Y1.8851
N12000 X-3.5151 Y1.8683
N12005 X-3.4659 Y1.8538
N12010 X-3.4172 Y1.8422
N12015 X-3.3703 Y1.8338
N12020 X-3.3248 Y1.8283
N12025 X-3.2807 Y1.8255
N12030 X-3.2378 Y1.8251
N12035 X-3.1962 Y1.8271
N12040 X-3.1559 Y1.8314
N12045 X-3.117 Y1.8377
N12050 X-3.0791 Y1.846
N12055 X-3.0568 Y1.8523
N12060 X-3.0417 Y1.8575
N12065 X-3.0274 Y1.8646
N12070 X-3.014 Y1.8734
N12075 X-3.0018 Y1.8838
N12080 X-2.9881 Y1.897
N12085 X-2.9768 Y1.9077
N12090 X-2.9562 Y1.927
N12095 X-2.9401 Y1.942
N12100 X-2.9318 Y1.9495
N12105 X-2.9018 Y1.9765
N12110 X-2.89 Y1.987
N12115 X-2.8556 Y2.0169
N12120 X-2.838 Y2.0319
N12125 X-2.8268 Y2.0413
N12130 X-2.8118 Y2.0538
N12135 X-2.7819 Y2.0783
N12140 X-2.765 Y2.0919
N12145 X-2.7461 Y2.1069
N12150 X-2.7199 Y2.1299
N12155 X-2.7054 Y2.1441
N12160 X-2.6903 Y2.1607
N12165 X-2.6751 Y2.1794
N12170 X-2.6606 Y2.1994
N12175 X-2.6464 Y2.2215
N12180 X-2.6328 Y2.2458
N12185 X-2.6199 Y2.272
N12190 X-2.6082 Y2.2996
N12195 X-2.5978 Y2.3284
N12200 X-2.5889 Y2.3584
N12205 X-2.5815 Y2.3898
N12210 X-2.5758 Y2.4221
N12215 X-2.5697 Y2.473
N12220 X-2.5662 Y2.5242
N12225 X-2.5631 Y2.5753
N12230 X-2.5592 Y2.6265
N12235 X-2.5479 Y2.6765
N12240 X-2.5318 Y2.7252
N12245 X-2.5134 Y2.773
N12250 X-2.4969 Y2.8166
N12255 X-2.4814 Y2.8655
N12260 X-2.4578 Y2.9109
N12265 X-2.4532 Y2.9225
N12270 X-2.4511 Y2.9348
N12275 X-2.4515 Y2.9473
N12280 X-2.4545 Y2.9594
N12285 X-2.4598 Y2.9707
N12290 X-2.4673 Y2.9806
N12295 X-2.4767 Y2.9888
N12300 X-2.4876 Y2.9949
N12305 X-2.4995 Y2.9987
N12310 X-2.5119 Y3.
N12315 G3 X-2.5576 Y2.9657 I0.0017 J-0.05 F126.06
N12320 G1 X-2.8232 Y2.1629
N12325 G3 X-2.7461 Y2.1069 I0.0475 J-0.0157
N12330 G1 X-2.7369 Y2.1143 F126.051
N12335 X-2.7069 Y2.1375
N12340 X-2.6919 Y2.1489
N12345 X-2.6619 Y2.1714
N12350 X-2.627 Y2.1969
N12355 X-2.6169 Y2.2042
N12360 X-2.6109 Y2.2084
N12365 X-2.6003 Y2.2168
N12370 X-2.5904 Y2.2256
N12375 X-2.5807 Y2.2352
N12380 X-2.5701 Y2.247
N12385 X-2.56 Y2.2596
N12390 X-2.5492 Y2.2747
N12395 X-2.5388 Y2.291
N12400 X-2.5276 Y2.3113
N12405 X-2.517 Y2.333
N12410 X-2.5056 Y2.3603
N12415 X-2.4932 Y2.3955
N12420 X-2.479 Y2.4447
N12425 X-2.4658 Y2.4943
N12430 X-2.4517 Y2.5436
N12435 X-2.4366 Y2.5926
N12440 X-2.4211 Y2.6415
N12445 X-2.4042 Y2.6898
N12450 X-2.3869 Y2.7381
N12455 X-2.376 Y2.7728
N12460 X-2.3691 Y2.8001
N12465 X-2.3593 Y2.8504
N12470 X-2.339 Y2.8975
N12475 X-2.3326 Y2.9087
N12480 X-2.3286 Y2.9209
N12485 X-2.327 Y2.9337
N12490 X-2.3281 Y2.9466
N12495 X-2.3316 Y2.959
N12500 X-2.3375 Y2.9704
N12505 X-2.3456 Y2.9805
N12510 X-2.3555 Y2.9888
N12515 X-2.3668 Y2.9949
N12520 X-2.3791 Y2.9987
N12525 X-2.3919 Y3.
N12530 G3 X-2.4373 Y2.9667 I0.0017 J-0.05 F126.06
N12535 G1 X-2.6856 Y2.2669
N12540 G3 X-2.6109 Y2.2084 I0.0471 J-0.0167
N12545 G1 X-2.5848 Y2.2269 F126.051
N12550 X-2.5569 Y2.2462
N12555 X-2.5412 Y2.2569
N12560 X-2.5119 Y2.2766
N12565 X-2.499 Y2.2862
N12570 X-2.4901 Y2.2936
N12575 X-2.4798 Y2.3031
N12580 X-2.4688 Y2.3145
N12585 X-2.4565 Y2.3289
N12590 X-2.4415 Y2.3485
N12595 X-2.4232 Y2.3754
N12600 X-2.4003 Y2.4134
N12605 X-2.3764 Y2.4588
N12610 X-2.3544 Y2.5051
N12615 X-2.3336 Y2.5519
N12620 X-2.314 Y2.5994
N12625 X-2.2964 Y2.6475
N12630 X-2.2786 Y2.6956
N12635 X-2.2611 Y2.7438
N12640 X-2.2514 Y2.7753
N12645 X-2.245 Y2.8012
N12650 X-2.2355 Y2.8515
N12655 X-2.215 Y2.8985
N12660 X-2.2089 Y2.9113
N12665 X-2.2057 Y2.925
N12670 X-2.2055 Y2.9391
N12675 X-2.2082 Y2.953
N12680 X-2.2138 Y2.966
N12685 X-2.222 Y2.9775
N12690 X-2.2324 Y2.987
N12695 X-2.2445 Y2.9941
N12700 X-2.2579 Y2.9985
N12705 X-2.272 Y3.
N12710 G3 X-2.3163 Y2.9696 I0.0017 J-0.05 F126.06
N12715 G1 X-2.5841 Y2.3388
N12720 G3 X-2.5119 Y2.2766 I0.046 J-0.0195
N12725 G1 X-2.4964 Y2.2869 F126.051
N12730 X-2.4735 Y2.3019
N12735 X-2.4502 Y2.3169
N12740 X-2.4369 Y2.3253
N12745 X-2.4024 Y2.3469
N12750 X-2.3919 Y2.3533
N12755 X-2.3784 Y2.3624
N12760 X-2.3655 Y2.3723
N12765 X-2.3509 Y2.3847
N12770 X-2.335 Y2.3999
N12775 X-2.3171 Y2.419
N12780 X-2.299 Y2.4407
N12785 X-2.278 Y2.4691
N12790 X-2.2527 Y2.5074
N12795 X-2.2269 Y2.5518
N12800 X-2.2035 Y2.5974
N12805 X-2.1827 Y2.6442
N12810 X-2.1635 Y2.6918
N12815 X-2.1446 Y2.7394
N12820 X-2.134 Y2.7706
N12825 X-2.1272 Y2.7953
N12830 X-2.1162 Y2.8453
N12835 X-2.0972 Y2.893
N12840 X-2.0964 Y2.8941
N12845 X-2.09 Y2.9057
N12850 X-2.0859 Y2.9184
N12855 X-2.0845 Y2.9317
N12860 X-2.0856 Y2.945
N12865 X-2.0894 Y2.9578
N12870 X-2.0956 Y2.9696
N12875 X-2.104 Y2.9799
N12880 X-2.1142 Y2.9885
N12885 X-2.126 Y2.9948
N12890 X-2.1387 Y2.9987
N12895 X-2.152 Y3.
N12900 G3 X-2.1953 Y2.9717 I0.0017 J-0.05 F126.06
N12905 G1 X-2.4614 Y2.4186
N12910 G3 X-2.3919 Y2.3533 I0.0451 J-0.0217
N12915 G1 X-2.362 Y2.3714 F126.051
N12920 X-2.3529 Y2.3768
N12925 X-2.317 Y2.398
N12930 X-2.287 Y2.4152
N12935 X-2.272 Y2.4237
N12940 X-2.257 Y2.4321
N12945 X-2.238 Y2.4441
N12950 X-2.2243 Y2.4538
N12955 X-2.2108 Y2.4646
N12960 X-2.1953 Y2.4785
N12965 X-2.1791 Y2.4947
N12970 X-2.1607 Y2.5154
N12975 X-2.1393 Y2.5423
N12980 X-2.1183 Y2.572
N12985 X-2.0989 Y2.6031
N12990 X-2.0789 Y2.6396
N12995 X-2.0568 Y2.6858
N13000 X-2.0351 Y2.7323
N13005 X-2.0226 Y2.7632
N13010 X-2.0146 Y2.7865
N13015 X-2.0086 Y2.8081
N13020 X-1.9977 Y2.8582
N13025 X-1.9757 Y2.9045
N13030 X-1.9705 Y2.9168
N13035 X-1.9679 Y2.9298
N13040 X-1.9681 Y2.9432
N13045 X-1.971 Y2.9562
N13050 X-1.9766 Y2.9683
N13055 X-1.9845 Y2.9791
N13060 X-1.9945 Y2.9879
N13065 X-2.0061 Y2.9945
N13070 X-2.0188 Y2.9986
N13075 X-2.032 Y3.
N13080 G3 X-2.0745 Y2.9733 I0.0017 J-0.05 F126.06
N13085 G1 X-2.3241 Y2.4999
N13090 G3 X-2.257 Y2.4321 I0.0442 J-0.0233
N13095 G1 X-2.2486 Y2.4368 F126.051
N13100 X-2.242 Y2.4405
N13105 X-2.212 Y2.4569
N13110 X-2.1936 Y2.4668
N13115 X-2.1654 Y2.4818
N13120 X-2.1364 Y2.4968
N13125 X-2.122 Y2.5042
N13130 X-2.1058 Y2.5134
N13135 X-2.0944 Y2.5208
N13140 X-2.0812 Y2.5304
N13145 X-2.0663 Y2.5427
N13150 X-2.0491 Y2.5584
N13155 X-2.032 Y2.5761
N13160 X-2.0145 Y2.5962
N13165 X-1.9979 Y2.6176
N13170 X-1.9825 Y2.6401
N13175 X-1.9559 Y2.6839
N13180 X-1.9313 Y2.7289
N13185 X-1.9167 Y2.7593
N13190 X-1.9073 Y2.7819
N13195 X-1.9001 Y2.8028
N13200 X-1.886 Y2.8521
N13205 X-1.8653 Y2.899
N13210 X-1.8627 Y2.9027
N13215 X-1.856 Y2.9143
N13220 X-1.852 Y2.9272
N13225 X-1.8509 Y2.9406
N13230 X-1.8528 Y2.9539
N13235 X-1.8575 Y2.9665
N13240 X-1.8649 Y2.9778
N13245 X-1.8745 Y2.9871
N13250 X-1.886 Y2.9942
N13255 X-1.8987 Y2.9985
N13260 X-1.9121 Y3.
N13265 G3 X-1.9535 Y2.9751 I0.0017 J-0.05 F126.06
N13270 G1 X-2.1862 Y2.5747
N13275 G3 X-2.122 Y2.5042 I0.0432 J-0.0251
N13280 G1 X-2.092 Y2.5193 F126.051
N13285 X-2.062 Y2.5341
N13290 X-2.0462 Y2.5418
N13295 X-2.032 Y2.5487
N13300 X-2.015 Y2.5568
N13305 X-1.9938 Y2.5667
N13310 X-1.9775 Y2.5754
N13315 X-1.965 Y2.5829
N13320 X-1.9516 Y2.5921
N13325 X-1.9374 Y2.603
N13330 X-1.9231 Y2.6154
N13335 X-1.9086 Y2.6294
N13340 X-1.8943 Y2.6449
N13345 X-1.8805 Y2.6617
N13350 X-1.8501 Y2.703
N13355 X-1.8277 Y2.737
N13360 X-1.8132 Y2.762
N13365 X-1.8026 Y2.7827
N13370 X-1.7946 Y2.8011
N13375 X-1.7886 Y2.8172
N13380 X-1.7733 Y2.8661
N13385 X-1.7496 Y2.9115
N13390 X-1.7431 Y2.9219
N13395 X-1.739 Y2.9334
N13400 X-1.7376 Y2.9455
N13405 X-1.739 Y2.9576
N13410 X-1.743 Y2.9691
N13415 X-1.7495 Y2.9795
N13420 X-1.7581 Y2.9881
N13425 X-1.7684 Y2.9946
N13430 X-1.78 Y2.9986
N13435 X-1.7921 Y3.
N13440 G3 X-1.832 Y2.9776 I0.0017 J-0.05 F126.06
N13445 G1 X-2.0551 Y2.6403
N13450 G3 X-1.9938 Y2.5667 I0.0417 J-0.0276
N13455 G1 X-1.972 Y2.5769 F126.051
N13460 X-1.9421 Y2.5905
N13465 X-1.9271 Y2.5972
N13470 X-1.8971 Y2.6104
N13475 X-1.8671 Y2.6233
N13480 X-1.8524 Y2.6305
N13485 X-1.8405 Y2.6371
N13490 X-1.8285 Y2.6448
N13495 X-1.8163 Y2.6536
N13500 X-1.8038 Y2.6636
N13505 X-1.7915 Y2.6748
N13510 X-1.7793 Y2.6871
N13515 X-1.7498 Y2.7206
N13520 X-1.7286 Y2.7476
N13525 X-1.7133 Y2.7694
N13530 X-1.7023 Y2.7873
N13535 X-1.6931 Y2.8043
N13540 X-1.6862 Y2.8188
N13545 X-1.6804 Y2.8332
N13550 X-1.6639 Y2.8818
N13555 X-1.6414 Y2.918
N13560 X-1.6361 Y2.9294
N13565 X-1.6336 Y2.9418
N13570 X-1.634 Y2.9545
N13575 X-1.6374 Y2.9667
N13580 X-1.6436 Y2.9778
N13585 X-1.6521 Y2.9871
N13590 X-1.6627 Y2.9941
N13595 X-1.6745 Y2.9985
N13600 X-1.6871 Y3.
N13605 G3 X-1.7261 Y2.9791 I0.0017 J-0.05 F126.06
N13610 G1 X-1.9258 Y2.699
N13615 G3 X-1.8671 Y2.6233 I0.0407 J-0.029
N13620 G1 X-1.8521 Y2.6297 F126.051
N13625 X-1.8221 Y2.6423
N13630 X-1.7921 Y2.6546
N13635 X-1.7743 Y2.6618
N13640 X-1.7471 Y2.6725
N13645 X-1.7327 Y2.679
N13650 X-1.7225 Y2.6842
N13655 X-1.7121 Y2.6904
N13660 X-1.7014 Y2.6975
N13665 X-1.6907 Y2.7056
N13670 X-1.68 Y2.7146
N13675 X-1.6557 Y2.7377
N13680 X-1.6365 Y2.758
N13685 X-1.6224 Y2.7747
N13690 X-1.6109 Y2.7901
N13695 X-1.6013 Y2.8045
N13700 X-1.5939 Y2.8172
N13705 X-1.5872 Y2.8302
N13710 X-1.5664 Y2.8771
N13715 X-1.5403 Y2.9212
N13720 X-1.5348 Y2.932
N13725 X-1.532 Y2.9438
N13730 X-1.5321 Y2.9559
N13735 X-1.535 Y2.9677
N13740 X-1.5407 Y2.9784
N13745 X-1.5488 Y2.9874
N13750 X-1.5588 Y2.9943
N13755 X-1.5701 Y2.9985
N13760 X-1.5821 Y3.
N13765 G3 X-1.6195 Y2.9812 I0.0017 J-0.05 F126.06
N13770 G1 X-1.8027 Y2.7509
N13775 G3 X-1.7471 Y2.6725 I0.0391 J-0.0311
N13780 G1 X-1.7321 Y2.6783 F126.051
N13785 X-1.7021 Y2.6899
N13790 X-1.6721 Y2.7011
N13795 X-1.6569 Y2.7068
N13800 X-1.6339 Y2.7151
N13805 X-1.6205 Y2.7208
N13810 X-1.6118 Y2.7251
N13815 X-1.603 Y2.73
N13820 X-1.5928 Y2.7365
N13825 X-1.5756 Y2.7489
N13830 X-1.5573 Y2.7637
N13835 X-1.5415 Y2.778
N13840 X-1.5293 Y2.7905
N13845 X-1.5185 Y2.8027
N13850 X-1.5094 Y2.8144
N13855 X-1.502 Y2.825
N13860 X-1.4953 Y2.8359
N13865 X-1.4895 Y2.8465
N13870 X-1.4677 Y2.8929
N13875 X-1.4667 Y2.8943
N13880 X-1.4603 Y2.906
N13885 X-1.4562 Y2.9187
N13890 X-1.4548 Y2.9319
N13895 X-1.4559 Y2.9451
N13900 X-1.4597 Y2.9579
N13905 X-1.4659 Y2.9697
N13910 X-1.4742 Y2.98
N13915 X-1.4845 Y2.9885
N13920 X-1.4962 Y2.9948
N13925 X-1.5089 Y2.9987
N13930 X-1.5221 Y3.
N13935 G3 X-1.5616 Y2.9784 I0.0017 J-0.05 F126.06
N13940 G1 X-1.6905 Y2.791
N13945 G3 X-1.6339 Y2.7151 I0.0412 J-0.0283
N13950 G1 X-1.6271 Y2.7176 F126.051
N13955 X-1.5971 Y2.7282
N13960 X-1.5821 Y2.7335
N13965 X-1.5521 Y2.7438
N13970 X-1.5282 Y2.7517
N13975 X-1.5157 Y2.7566
N13980 X-1.5083 Y2.76
N13985 X-1.4998 Y2.7645
N13990 X-1.4882 Y2.7714
N13995 X-1.4766 Y2.7793
N14000 X-1.4668 Y2.7869
N14005 X-1.4571 Y2.7952
N14010 X-1.4487 Y2.8033
N14015 X-1.4414 Y2.8111
N14020 X-1.4342 Y2.8198
N14025 X-1.4281 Y2.8281
N14030 X-1.4228 Y2.8361
N14035 X-1.4177 Y2.845
N14040 X-1.3947 Y2.8908
N14045 X-1.3916 Y2.8953
N14050 X-1.3853 Y2.9069
N14055 X-1.3814 Y2.9195
N14060 X-1.3801 Y2.9326
N14065 X-1.3813 Y2.9457
N14070 X-1.3851 Y2.9584
N14075 X-1.3913 Y2.97
N14080 X-1.3996 Y2.9802
N14085 X-1.4098 Y2.9886
N14090 X-1.4214 Y2.9949
N14095 X-1.434 Y2.9987
N14100 X-1.4472 Y3.
N14105 G3 X-1.4874 Y2.9771 I0.0017 J-0.05 F126.06
N14110 G1 X-1.5844 Y2.8268
N14115 G3 X-1.5282 Y2.7517 I0.042 J-0.0271
N14120 G1 X-1.5072 Y2.7587 F126.051
N14125 X-1.4772 Y2.7685
N14130 X-1.4405 Y2.78
N14135 X-1.4315 Y2.7834
N14140 X-1.4233 Y2.7869
N14145 X-1.4134 Y2.7919
N14150 X-1.4039 Y2.7974
N14155 X-1.3956 Y2.8028
N14160 X-1.3876 Y2.8087
N14165 X-1.3799 Y2.8151
N14170 X-1.3733 Y2.8212
N14175 X-1.367 Y2.8278
N14180 X-1.361 Y2.8348
N14185 X-1.3558 Y2.8415
N14190 X-1.3511 Y2.8484
N14195 X-1.3466 Y2.8559
N14200 X-1.3227 Y2.9013
N14205 X-1.3158 Y2.9131
N14210 X-1.3117 Y2.9261
N14215 X-1.3105 Y2.9396
N14220 X-1.3123 Y2.9531
N14225 X-1.317 Y2.9659
N14230 X-1.3244 Y2.9774
N14235 X-1.3341 Y2.9869
N14240 X-1.3457 Y2.9941
N14245 X-1.3586 Y2.9985
N14250 X-1.3722 Y3.
N14255 G3 X-1.4117 Y2.9783 I0.0017 J-0.05 F126.06
N14260 G1 X-1.4951 Y2.8565
N14265 G3 X-1.4405 Y2.78 I0.0413 J-0.0282
N14270 G1 X-1.4322 Y2.7826 F126.051
N14275 X-1.4022 Y2.7917
N14280 X-1.3722 Y2.8006
N14285 X-1.3639 Y2.803
N14290 X-1.3556 Y2.8059
N14295 X-1.3473 Y2.8093
N14300 X-1.3387 Y2.8134
N14305 X-1.331 Y2.8177
N14310 X-1.3239 Y2.8221
N14315 X-1.3166 Y2.8273
N14320 X-1.31 Y2.8325
N14325 X-1.3043 Y2.8377
N14330 X-1.2986 Y2.8434
N14335 X-1.2931 Y2.8495
N14340 X-1.2884 Y2.8554
N14345 X-1.2843 Y2.8612
N14350 X-1.2801 Y2.8678
N14355 X-1.2554 Y2.9127
N14360 X-1.2489 Y2.9229
N14365 X-1.2449 Y2.9342
N14370 X-1.2436 Y2.9462
N14375 X-1.2449 Y2.9582
N14380 X-1.2488 Y2.9695
N14385 X-1.2552 Y2.9797
N14390 X-1.2637 Y2.9883
N14395 X-1.2739 Y2.9947
N14400 X-1.2852 Y2.9987
N14405 X-1.2972 Y3.
N14410 G3 X-1.3341 Y2.9817 I0.0017 J-0.05 F126.06
N14415 G1 X-1.415 Y2.8831
N14420 G3 X-1.3639 Y2.803 I0.0387 J-0.0317
N14425 G1 X-1.3572 Y2.805 F126.051
N14430 X-1.3272 Y2.8135
N14435 X-1.2972 Y2.8219
N14440 X-1.2927 Y2.8232
N14445 X-1.2853 Y2.8256
N14450 X-1.2769 Y2.8289
N14455 X-1.2694 Y2.8324
N14460 X-1.2626 Y2.836
N14465 X-1.2556 Y2.8402
N14470 X-1.2491 Y2.8447
N14475 X-1.2433 Y2.8491
N14480 X-1.238 Y2.8538
N14485 X-1.2325 Y2.8591
N14490 X-1.2277 Y2.8643
N14495 X-1.2235 Y2.8694
N14500 X-1.2194 Y2.8749
N14505 X-1.1921 Y2.917
N14510 X-1.1865 Y2.9285
N14515 X-1.1837 Y2.941
N14520 X-1.184 Y2.9537
N14525 X-1.1873 Y2.9661
N14530 X-1.1934 Y2.9773
N14535 X-1.202 Y2.9868
N14540 X-1.2125 Y2.994
N14545 X-1.2245 Y2.9985
N14550 X-1.2372 Y3.
N14555 G3 X-1.3491 Y2.8596 I0.0041 J-0.118 F126.06
N14560 X-1.2927 Y2.8232 I0.0456 J0.0088
N14565 G1 X-1.2797 Y2.8267 F126.051
N14570 X-1.2522 Y2.834
N14575 X-1.2372 Y2.838
N14580 X-1.2226 Y2.8417
N14585 X-1.2165 Y2.8436
N14590 X-1.2104 Y2.8459
N14595 X-1.2041 Y2.8487
N14600 X-1.1983 Y2.8516
N14605 X-1.1931 Y2.8547
N14610 X-1.1879 Y2.8581
N14615 X-1.1826 Y2.862
N14620 X-1.1779 Y2.866
N14625 X-1.1735 Y2.8701
N14630 X-1.1694 Y2.8745
N14635 X-1.1652 Y2.8793
N14640 X-1.1616 Y2.8841
N14645 X-1.1359 Y2.9226
N14650 X-1.1305 Y2.9332
N14655 X-1.1278 Y2.9448
N14660 X-1.1279 Y2.9567
N14665 X-1.1309 Y2.9683
N14670 X-1.1365 Y2.9788
N14675 X-1.1444 Y2.9876
N14680 X-1.1543 Y2.9944
N14685 X-1.1654 Y2.9986
N14690 X-1.1772 Y3.
N14695 G3 X-1.2884 Y2.9076 I0.0041 J-0.118 F126.06
N14700 X-1.2226 Y2.8417 I0.0539 J-0.012
N14705 G1 X-1.2072 Y2.8457 F126.051
N14710 X-1.1772 Y2.8532
N14715 X-1.1628 Y2.8567
N14720 X-1.1566 Y2.8586
N14725 X-1.1509 Y2.8606
N14730 X-1.1454 Y2.8629
N14735 X-1.14 Y2.8656
N14740 X-1.1348 Y2.8686
N14745 X-1.1298 Y2.8719
N14750 X-1.125 Y2.8755
N14755 X-1.1204 Y2.8794
N14760 X-1.1161 Y2.8835
N14765 X-1.1121 Y2.888
N14770 X-1.1083 Y2.8926
N14775 X-1.1074 Y2.894
N14780 X-1.1008 Y2.9056
N14785 X-1.0966 Y2.9182
N14790 X-1.095 Y2.9315
N14795 X-1.0961 Y2.9448
N14800 X-1.0998 Y2.9576
N14805 X-1.1059 Y2.9694
N14810 X-1.1142 Y2.9798
N14815 X-1.1245 Y2.9884
N14820 X-1.1362 Y2.9948
N14825 X-1.149 Y2.9987
N14830 X-1.1622 Y3.
N14835 G3 X-1.2364 Y2.9047 I0.0027 J-0.0787 F126.06
N14840 X-1.1628 Y2.8567 I0.061 J0.0132
N14845 G1 X-1.1322 Y2.8641 F126.051
N14850 X-1.1147 Y2.8682
N14855 X-1.109 Y2.8698
N14860 X-1.1034 Y2.872
N14865 X-1.098 Y2.8747
N14870 X-1.093 Y2.878
N14875 X-1.0883 Y2.8817
N14880 X-1.084 Y2.8858
N14885 X-1.08 Y2.8903
N14890 X-1.0514 Y2.9282
N14895 X-1.0459 Y2.9377
N14900 X-1.0429 Y2.9483
N14905 X-1.0426 Y2.9593
N14910 X-1.045 Y2.9701
N14915 X-1.0499 Y2.98
N14920 X-1.0571 Y2.9883
N14925 X-1.0661 Y2.9947
N14930 X-1.0763 Y2.9986
N14935 X-1.0872 Y3.
N14940 G3 X-1.1571 Y2.8907 I0.0027 J-0.0787 F126.06
N14945 X-1.1147 Y2.8682 I0.035 J0.0148
N14950 G1 X-1.0993 Y2.8717 F126.051
N14955 X-1.0872 Y2.8745
N14960 X-1.0723 Y2.8778
N14965 X-1.0653 Y2.8797
N14970 X-1.0596 Y2.8816
N14975 X-1.054 Y2.884
N14980 X-1.0487 Y2.8868
N14985 X-1.0436 Y2.8899
N14990 X-1.0388 Y2.8934
N14995 X-1.0342 Y2.8974
N15000 X-1.0311 Y2.9004
N15005 X-1.0233 Y2.9101
N15010 X-1.0177 Y2.9213
N15015 X-1.0146 Y2.9334
N15020 X-1.0141 Y2.9458
N15025 X-1.0163 Y2.9581
N15030 X-1.0211 Y2.9696
N15035 X-1.0282 Y2.9799
N15040 X-1.0373 Y2.9884
N15045 X-1.048 Y2.9947
N15050 X-1.0599 Y2.9987
N15055 X-1.0723 Y3.
N15060 G3 X-1.1233 Y2.9788 I0.0027 J-0.0787 F126.06
N15065 X-1.0723 Y2.8778 I0.0403 J-0.043
N15070 G1 X-1.0573 Y2.8811 F126.051
N15075 X-1.0313 Y2.8867
N15080 X-1.0255 Y2.8883
N15085 X-1.0199 Y2.8904
N15090 X-1.0146 Y2.8932
N15095 X-1.0097 Y2.8966
N15100 X-1.0051 Y2.9005
N15105 X-1.001 Y2.9049
N15110 X-0.9942 Y2.9161
N15115 X-0.99 Y2.9285
N15120 X-0.9887 Y2.9416
N15125 X-0.9903 Y2.9546
N15130 X-0.9948 Y2.967
N15135 X-1.0018 Y2.9781
N15140 X-1.0112 Y2.9873
N15145 X-1.0223 Y2.9942
N15150 X-1.0347 Y2.9985
N15155 X-1.0478 Y3.
N15160 X-1.0518 Y2.9996 F126.06
N15165 X-1.0558 Y2.9988
N15170 G3 X-1.0313 Y2.8867 I0.0144 J-0.0556
N15175 G1 X-1.0123 Y2.8908 F126.051
N15180 X-1.002 Y2.8929
N15185 X-0.9962 Y2.8944
N15190 X-0.9907 Y2.8968
N15195 X-0.9856 Y2.9
N15200 X-0.981 Y2.9038
N15205 X-0.9736 Y2.9133
N15210 X-0.9683 Y2.9242
N15215 X-0.9655 Y2.9359
N15220 X-0.9652 Y2.9479
N15225 X-0.9675 Y2.9598
N15230 X-0.9722 Y2.9708
N15235 X-0.9791 Y2.9807
N15240 X-0.988 Y2.9888
N15245 X-0.9984 Y2.9949
N15250 X-1.0098 Y2.9987
N15255 X-1.0218 Y3.
N15260 X-1.0247 Y2.9997 F126.06
N15265 X-1.0276 Y2.9992
N15270 X-1.0304 Y2.9983
N15275 G3 X-1.002 Y2.8929 I0.0192 J-0.0513
N15280 G1 X-0.9823 Y2.897 F126.051
N15285 X-0.9777 Y2.8979
N15290 X-0.9719 Y2.8994
N15295 X-0.9665 Y2.9018
N15300 X-0.9614 Y2.905
N15305 X-0.9568 Y2.9089
N15310 X-0.9493 Y2.919
N15315 X-0.9444 Y2.9305
N15320 X-0.9422 Y2.9429
N15325 X-0.943 Y2.9554
N15330 X-0.9466 Y2.9674
N15335 X-0.9529 Y2.9783
N15340 X-0.9615 Y2.9874
N15345 X-0.972 Y2.9943
N15350 X-0.9837 Y2.9985
N15355 X-0.9962 Y3.
N15360 X-0.999 Y2.9998 F126.06
N15365 X-1.0017 Y2.9992
N15370 X-1.0044 Y2.9984
N15375 G3 X-0.9777 Y2.8979 I0.0182 J-0.049
N15380 G1 X-0.9673 Y2.9 F126.051
N15385 X-0.9604 Y2.9017
N15390 X-0.9563 Y2.9032
N15395 X-0.9523 Y2.9052
N15400 X-0.9451 Y2.9098
N15405 X-0.9415 Y2.9129
N15410 X-0.9379 Y2.9167
N15415 X-0.9373 Y2.9175
N15420 X-0.9324 Y2.9246
N15425 X-0.9291 Y2.9317
N15430 X-0.9269 Y2.9392
N15435 X-0.926 Y2.9467
N15440 X-0.9261 Y2.9542
N15445 X-0.9264 Y2.9554
N15450 X-0.9278 Y2.9595 Z-0.3934 F126.06
N15455 X-0.9292 Y2.9634 Z-0.3925
N15460 X-0.9305 Y2.9672 Z-0.3911
N15465 X-0.9325 Y2.9702 Z-0.3892
N15470 X-0.9343 Y2.973 Z-0.3868
N15475 X-0.936 Y2.9755 Z-0.384
N15480 X-0.9374 Y2.9776 Z-0.3809
N15485 X-0.9388 Y2.9791 Z-0.3776
N15490 X-0.94 Y2.9803 Z-0.3741
N15495 X-0.9408 Y2.9812 Z-0.3704
N15500 X-0.9413 Y2.9817 Z-0.3666
N15505 X-0.9415 Y2.9819 Z-0.3628
N15510 G0 Z0.2
N15515 G1 X-3.7157 Y2.0446 F650.
N15520 G0 Z-0.2937
N15525 G1 Z-0.3437 F126.06
N15530 X-3.7159 Y2.0443 Z-0.3493
N15535 X-3.7164 Y2.0435 Z-0.3548
N15540 X-3.7172 Y2.0422 Z-0.3602
N15545 X-3.7183 Y2.0403 Z-0.3654
N15550 X-3.7196 Y2.038 Z-0.3703
N15555 X-3.7213 Y2.0352 Z-0.3749
N15560 X-3.7232 Y2.032 Z-0.3791
N15565 X-3.7254 Y2.0284 Z-0.3828
N15570 X-3.7277 Y2.0245 Z-0.386
N15575 X-3.7302 Y2.0203 Z-0.3887
N15580 X-3.7328 Y2.0158 Z-0.3909
N15585 X-3.7356 Y2.0112 Z-0.3924
N15590 X-3.7384 Y2.0064 Z-0.3934
N15595 X-3.7413 Y2.0016 Z-0.3937
N15600 G3 X-3.75 Y1.972 I0.0536 J-0.0318
N15605 G1 Y1.852 F126.051
N15610 X-3.7498 Y1.8488
N15615 X-3.7043 Y1.8252
N15620 X-3.6578 Y1.8037
N15625 X-3.6103 Y1.7843
N15630 X-3.562 Y1.7671
N15635 X-3.513 Y1.7522
N15640 X-3.4632 Y1.7397
N15645 X-3.4129 Y1.7299
N15650 X-3.3621 Y1.7227
N15655 X-3.3116 Y1.7184
N15660 X-3.2621 Y1.717
N15665 X-3.2138 Y1.7184
N15670 X-3.2075 Y1.7189
N15675 X-3.1886 Y1.7219
N15680 X-3.1703 Y1.7277
N15685 X-3.1531 Y1.7361
N15690 X-3.1373 Y1.7469
N15695 X-3.1233 Y1.7599
N15700 X-3.0968 Y1.7882
N15705 X-3.0786 Y1.807
N15710 X-3.0641 Y1.822
N15715 X-3.0493 Y1.837
N15720 X-3.0218 Y1.8644
N15725 X-3.0018 Y1.8838
N15730 G3 X-3.0429 Y1.9683 I-0.0359 J0.0348 F126.06
N15735 G1 X-3.7052 Y1.9
N15740 G3 X-3.75 Y1.852 I0.0051 J-0.0497
N15745 G1 Y1.732 F126.051
N15750 X-3.7499 Y1.7304
N15755 X-3.7041 Y1.7073
N15760 X-3.6573 Y1.6866
N15765 X-3.6094 Y1.6682
N15770 X-3.5607 Y1.6521
N15775 X-3.5113 Y1.6384
N15780 X-3.4613 Y1.6272
N15785 X-3.4108 Y1.6184
N15790 X-3.3632 Y1.6127
N15795 X-3.328 Y1.6104
N15800 X-3.3154 Y1.6103
N15805 X-3.2966 Y1.6116
N15810 X-3.2782 Y1.6155
N15815 X-3.2605 Y1.622
N15820 X-3.244 Y1.6311
N15825 X-3.229 Y1.6424
N15830 X-3.2157 Y1.6558
N15835 X-3.2018 Y1.6721
N15840 X-3.1868 Y1.6893
N15845 X-3.1718 Y1.7064
N15850 X-3.1624 Y1.717
N15855 X-3.1488 Y1.732
N15860 X-3.1352 Y1.747
N15865 X-3.1233 Y1.7599
N15870 G3 X-3.1668 Y1.8423 I-0.0378 J0.0328 F126.06
N15875 G1 X-3.7058 Y1.7799
N15880 G3 X-3.75 Y1.732 I0.0057 J-0.0497
N15885 G1 Y1.6188 F126.051
N15890 X-3.7499 Y1.6172
N15895 X-3.7052 Y1.5944
N15900 X-3.6583 Y1.5737
N15905 X-3.6103 Y1.5555
N15910 X-3.5615 Y1.5399
N15915 X-3.5119 Y1.5267
N15920 X-3.4702 Y1.5181
N15925 X-3.4389 Y1.5134
N15930 X-3.4111 Y1.5109
N15935 X-3.4002 Y1.5105
N15940 X-3.3827 Y1.5111
N15945 X-3.3655 Y1.514
N15950 X-3.3488 Y1.5192
N15955 X-3.3329 Y1.5266
N15960 X-3.3182 Y1.536
N15965 X-3.3049 Y1.5474
N15970 X-3.2932 Y1.5604
N15975 X-3.2762 Y1.5821
N15980 X-3.2642 Y1.5971
N15985 X-3.2397 Y1.6271
N15990 X-3.2318 Y1.6367
N15995 X-3.2157 Y1.6558
N16000 G3 X-3.2626 Y1.7364 I-0.0391 J0.0312 F126.06
N16005 G1 X-3.7078 Y1.6665
N16010 G3 X-3.75 Y1.6188 I0.0078 J-0.0494
N16015 G1 Y1.5071 F126.051
N16020 X-3.7499 Y1.5055
N16025 X-3.7077 Y1.4838
N16030 X-3.6638 Y1.4643
N16035 X-3.621 Y1.448
N16040 X-3.5802 Y1.4351
N16045 X-3.5466 Y1.4265
N16050 X-3.5193 Y1.4212
N16055 X-3.4951 Y1.4179
N16060 X-3.4725 Y1.416
N16065 X-3.4696
N16070 X-3.4515 Y1.4168
N16075 X-3.4338 Y1.4201
N16080 X-3.4167 Y1.4258
N16085 X-3.4005 Y1.4339
N16090 X-3.3856 Y1.4441
N16095 X-3.3723 Y1.4563
N16100 X-3.3608 Y1.4702
N16105 X-3.3517 Y1.4828
N16110 X-3.345 Y1.4921
N16115 X-3.3217 Y1.5233
N16120 X-3.3113 Y1.5371
N16125 X-3.2997 Y1.5521
N16130 X-3.2932 Y1.5604
N16135 G3 X-3.3449 Y1.6385 I-0.0405 J0.0294 F126.06
N16140 G1 X-3.7113 Y1.5541
N16145 G3 X-3.75 Y1.5071 I0.0112 J-0.0487
N16150 G1 Y1.4021 F126.051
N16155 X-3.7498 Y1.3989
N16160 X-3.7172 Y1.3815
N16165 X-3.6842 Y1.3662
N16170 X-3.6519 Y1.3534
N16175 X-3.6238 Y1.344
N16180 X-3.5981 Y1.337
N16185 X-3.5754 Y1.3323
N16190 X-3.5551 Y1.3291
N16195 X-3.5351 Y1.3272
N16200 X-3.5331 Y1.3271
N16205 X-3.5141 Y1.3278
N16210 X-3.4954 Y1.3312
N16215 X-3.4774 Y1.3372
N16220 X-3.4605 Y1.3459
N16225 X-3.4451 Y1.3569
N16230 X-3.4314 Y1.37
N16235 X-3.4197 Y1.385
N16240 X-3.4083 Y1.4021
N16245 X-3.3967 Y1.4191
N16250 X-3.3817 Y1.4408
N16255 X-3.3773 Y1.4471
N16260 X-3.3608 Y1.4702
N16265 G3 X-3.418 Y1.5454 I-0.0416 J0.0277 F126.06
N16270 G1 X-3.7156 Y1.4479
N16275 G3 X-3.75 Y1.4021 I0.0156 J-0.0475
N16280 G1 Y1.2971 F126.051
N16285 X-3.7499 Y1.2955
N16290 X-3.7243 Y1.2824
N16295 X-3.6985 Y1.2709
N16300 X-3.6759 Y1.2623
N16305 X-3.6542 Y1.2554
N16310 X-3.6344 Y1.2504
N16315 X-3.6158 Y1.2468
N16320 X-3.5979 Y1.2443
N16325 X-3.581 Y1.2429
N16330 X-3.5627 Y1.2438
N16335 X-3.5447 Y1.2475
N16340 X-3.5275 Y1.2537
N16345 X-3.5114 Y1.2625
N16350 X-3.4968 Y1.2735
N16355 X-3.4839 Y1.2866
N16360 X-3.4732 Y1.3015
N16365 X-3.4666 Y1.3121
N16370 X-3.4567 Y1.328
N16375 X-3.438 Y1.3571
N16380 X-3.4283 Y1.3721
N16385 X-3.4197 Y1.385
N16390 G3 X-3.4842 Y1.4562 I-0.0426 J0.0262 F126.06
N16395 G1 X-3.7219 Y1.3403
N16400 G3 X-3.75 Y1.2971 I0.0219 J-0.0449
N16405 G1 Y1.2072 F126.051
N16410 X-3.7499 Y1.2056
N16415 X-3.731 Y1.1957
N16420 X-3.7139 Y1.1881
N16425 X-3.6962 Y1.1813
N16430 X-3.6806 Y1.1763
N16435 X-3.6641 Y1.172
N16440 X-3.6495 Y1.1691
N16445 X-3.6339 Y1.1669
N16450 X-3.6199 Y1.1657
N16455 X-3.6028 Y1.1665
N16460 X-3.586 Y1.17
N16465 X-3.5699 Y1.1761
N16470 X-3.5549 Y1.1845
N16475 X-3.5415 Y1.1952
N16480 X-3.5298 Y1.2078
N16485 X-3.5203 Y1.2221
N16490 X-3.5017 Y1.2542
N16495 X-3.4939 Y1.2672
N16500 X-3.4849 Y1.2821
N16505 X-3.4744 Y1.2995
N16510 X-3.4732 Y1.3015
N16515 G3 X-3.5442 Y1.3679 I-0.0435 J0.0247 F126.06
N16520 G1 X-3.7275 Y1.2472
N16525 G3 X-3.75 Y1.2072 I0.0275 J-0.0418
N16530 G1 Y1.1322 F126.051
N16535 X-3.7498 Y1.129
N16540 X-3.7374 Y1.1222
N16545 X-3.7241 Y1.1159
N16550 X-3.712 Y1.111
N16555 X-3.699 Y1.1065
N16560 X-3.6868 Y1.1031
N16565 X-3.6746 Y1.1005
N16570 X-3.6568 Y1.099
N16575 X-3.6389 Y1.1003
N16580 X-3.6215 Y1.1043
N16585 X-3.6049 Y1.111
N16590 X-3.5895 Y1.1202
N16595 X-3.5757 Y1.1316
N16600 X-3.5639 Y1.145
N16605 X-3.5543 Y1.1601
N16610 X-3.5452 Y1.1772
N16615 X-3.5287 Y1.2072
N16620 X-3.5203 Y1.2221
N16625 G3 X-3.597 Y1.2832 I-0.0444 J0.023 F126.06
N16630 G1 X-3.7323 Y1.1686
N16635 G3 X-3.75 Y1.1322 I0.0323 J-0.0382
N16640 G1 Y1.064 F126.051
N16645 X-3.7499 Y1.0624
N16650 X-3.7404 Y1.0574
N16655 X-3.7312 Y1.0532
N16660 X-3.7209 Y1.0493
N16665 X-3.7112 Y1.0461
N16670 X-3.7014 Y1.0435
N16675 X-3.6842 Y1.0415
N16680 X-3.6668 Y1.0423
N16685 X-3.6498 Y1.0459
N16690 X-3.6337 Y1.0523
N16695 X-3.6188 Y1.0612
N16700 X-3.6055 Y1.0724
N16705 X-3.5942 Y1.0856
N16710 X-3.5853 Y1.1005
N16715 X-3.5767 Y1.1177
N16720 X-3.5691 Y1.1322
N16725 X-3.5612 Y1.1472
N16730 X-3.5543 Y1.1601
N16735 G3 X-3.6375 Y1.2143 I-0.0449 J0.022 F126.06
N16740 G1 X-3.7383 Y1.0944
N16745 G3 X-3.75 Y1.064 I0.0383 J-0.0322
N16750 G1 Y1.0122 F126.051
N16755 X-3.7498 Y1.009
N16760 X-3.7447 Y1.006
N16765 X-3.7394 Y1.0031
N16770 X-3.734 Y1.0005
N16775 X-3.7285 Y0.9981
N16780 X-3.7226 Y0.9958
N16785 X-3.7069 Y0.9921
N16790 X-3.6907 Y0.9913
N16795 X-3.6747 Y0.9934
N16800 X-3.6593 Y0.9983
N16805 X-3.6451 Y1.006
N16810 X-3.6325 Y1.0161
N16815 X-3.6219 Y1.0283
N16820 X-3.6137 Y1.0422
N16825 G3 X-3.6328 Y1.0886 I-0.0321 J0.0139 F126.06
N16830 X-3.75 Y1.0122 I-0.0318 J-0.0793
N16835 G1 Y0.9822 F126.051
N16840 X-3.7496 Y0.9672
N16845 X-3.7488 Y0.9631
N16850 X-3.7485 Y0.9619
N16855 X-3.7476 Y0.9614
N16860 X-3.7341 Y0.955
N16865 X-3.7197 Y0.9513
N16870 X-3.7049 Y0.9503
N16875 X-3.6901 Y0.9521
N16880 X-3.676 Y0.9566
N16885 X-3.6629 Y0.9636
N16890 X-3.6513 Y0.973
N16895 X-3.6417 Y0.9843
N16900 X-3.6343 Y0.9972
N16905 G3 X-3.6508 Y1.0386 I-0.0296 J0.0121 F126.06
N16910 X-3.7488 Y0.9631 I-0.0288 J-0.064
N16915 G1 X-3.7481 Y0.9597 F126.051
N16920 X-3.7453 Y0.9522
N16925 X-3.7416 Y0.9457
N16930 X-3.7385 Y0.9415
N16935 X-3.7346 Y0.9372
N16940 X-3.7306 Y0.9337
N16945 X-3.7266 Y0.9309
N16950 X-3.7191 Y0.9269
N16955 X-3.7116 Y0.9244
N16960 X-3.7041 Y0.9231
N16965 X-3.6966 Y0.923
N16970 X-3.6891 Y0.924
N16975 X-3.6816 Y0.9262
N16980 X-3.6742 Y0.9299
N16985 X-3.6704 Y0.9323
N16990 X-3.6667 Y0.9353
N16995 X-3.6645 Y0.9372
N17000 X-3.6611 Y0.941
N17005 X-3.6583 Y0.9447
N17010 X-3.6541 Y0.9522
N17015 X-3.6476 Y0.9672
N17020 X-3.641 Y0.9822
N17025 X-3.6354 Y0.9949
N17030 X-3.6217 Y1.0253
N17035 X-3.6066 Y1.0572
N17040 X-3.5993 Y1.0722
N17045 X-3.5853 Y1.1005
N17050 X-3.584 Y1.1046 Z-0.3934 F126.06
N17055 X-3.5828 Y1.1086 Z-0.3925
N17060 X-3.5816 Y1.1124 Z-0.3911
N17065 X-3.5813 Y1.1155 Z-0.3895
N17070 X-3.5811 Y1.1184 Z-0.3875
N17075 X-3.5809 Y1.1211 Z-0.3853
N17080 X-3.5811 Y1.1239 Z-0.3822
N17085 X-3.5814 Y1.1263 Z-0.3788
N17090 X-3.5815 Y1.1282 Z-0.375
N17095 X-3.5817 Y1.1296 Z-0.3711
N17100 X-3.5818 Y1.1304 Z-0.367
N17105 Y1.1307 Z-0.3628
N17110 G0 Z0.2
N17115 G1 X2.9644 Y-2.4873 F650.
N17120 G0 Z0.1
N17125 S7640
N17130 G3 X2.9619 Y-2.4667 Z0.0486 I0.2344 J0.0385 F126.06
N17135 X2.9613 Y-2.446 Z-0.0028 I0.2368 J0.018
N17140 X2.9624 Y-2.4253 Z-0.0542 I0.2375 J-0.0028
N17145 X2.9654 Y-2.4048 Z-0.1055 I0.2363 J-0.0234
N17150 X2.9701 Y-2.3846 Z-0.1569 I0.2334 J-0.044
N17155 X2.9765 Y-2.3649 Z-0.2083 I0.2287 J-0.0641
N17160 X2.9847 Y-2.3459 Z-0.2597 I0.2222 J-0.0838
N17165 X2.9945 Y-2.3276 Z-0.3111 I0.2141 J-0.1029
N17170 X3.0058 Y-2.3103 Z-0.3625 I0.2043 J-0.1211
N17175 X3.4363 Y-2.4488 Z-0.3937 I0.193 J-0.1385
N17180 X2.9613 I-0.2375 J0.
N17185 X3.4363 I0.2375 J0.
N17190 S7639
N17195 G1 X3.4364 Y-2.4359 F126.051
N17200 X3.4409 Y-2.3849
N17205 X3.4432 Y-2.3793
N17210 X3.445 Y-2.3736
N17215 X3.4464 Y-2.3678
N17220 X3.4475 Y-2.3619
N17225 X3.4482 Y-2.3559
N17230 X3.4487 Y-2.3499
N17235 X3.4488 Y-2.3439
N17240 X3.4487 Y-2.3379
N17245 X3.4483 Y-2.3319
N17250 X3.4476 Y-2.326
N17255 X3.4468 Y-2.32
N17260 X3.4457 Y-2.3141
N17265 X3.4444 Y-2.3083
N17270 X3.4429 Y-2.3025
N17275 X3.4412 Y-2.2967
N17280 X3.4393 Y-2.291
N17285 X3.4372 Y-2.2854
N17290 X3.4349 Y-2.2798
N17295 X3.4325 Y-2.2744
N17300 X3.4299 Y-2.2689
N17305 X3.4271 Y-2.2636
N17310 X3.4242 Y-2.2584
N17315 X3.4212 Y-2.2532
N17320 X3.418 Y-2.2481
N17325 X3.4146 Y-2.2431
N17330 X3.4112 Y-2.2382
N17335 X3.4076 Y-2.2334
N17340 X3.4039 Y-2.2287
N17345 X3.4 Y-2.2241
N17350 X3.3961 Y-2.2196
N17355 X3.392 Y-2.2152
N17360 X3.3878 Y-2.2109
N17365 X3.3835 Y-2.2067
N17370 X3.3791 Y-2.2026
N17375 X3.3747 Y-2.1986
N17380 X3.3701 Y-2.1947
N17385 X3.3654 Y-2.1909
N17390 X3.3607 Y-2.1873
N17395 X3.3558 Y-2.1837
N17400 X3.3509 Y-2.1803
N17405 X3.3459 Y-2.177
N17410 X3.3409 Y-2.1738
N17415 X3.3357 Y-2.1707
N17420 X3.3305 Y-2.1677
N17425 X3.3252 Y-2.1648
N17430 X3.3199 Y-2.162
N17435 X3.3145 Y-2.1594
N17440 X3.3091 Y-2.1569
N17445 X3.3036 Y-2.1545
N17450 X3.298 Y-2.1522
N17455 X3.2924 Y-2.1501
N17460 X3.2868 Y-2.148
N17465 X3.2811 Y-2.1461
N17470 X3.2754 Y-2.1443
N17475 X3.2696 Y-2.1426
N17480 X3.2638 Y-2.1411
N17485 X3.258 Y-2.1396
N17490 X3.2521 Y-2.1383
N17495 X3.2463 Y-2.1371
N17500 X3.2404 Y-2.136
N17505 X3.2344 Y-2.1351
N17510 X3.2285 Y-2.1342
N17515 X3.2225 Y-2.1335
N17520 X3.2166 Y-2.1329
N17525 X3.2106 Y-2.1325
N17530 X3.2046 Y-2.1321
N17535 X3.1986 Y-2.1319
N17540 X3.1926 Y-2.1318
N17545 X3.1866
N17550 X3.1806 Y-2.1319
N17555 X3.1746 Y-2.1322
N17560 X3.1686 Y-2.1325
N17565 X3.1626 Y-2.133
N17570 X3.1567 Y-2.1336
N17575 X3.1507 Y-2.1343
N17580 X3.1448 Y-2.1352
N17585 X3.1388 Y-2.1361
N17590 X3.1329 Y-2.1372
N17595 X3.1271 Y-2.1384
N17600 X3.1212 Y-2.1397
N17605 X3.1154 Y-2.1411
N17610 X3.1096 Y-2.1426
N17615 X3.1038 Y-2.1443
N17620 X3.0981 Y-2.146
N17625 X3.0924 Y-2.1479
N17630 X3.0867 Y-2.1498
N17635 X3.0811 Y-2.1519
N17640 X3.0755 Y-2.1541
N17645 X3.0699 Y-2.1564
N17650 X3.0644 Y-2.1588
N17655 X3.059 Y-2.1613
N17660 X3.0536 Y-2.1639
N17665 X3.0482 Y-2.1667
N17670 X3.0429 Y-2.1695
N17675 X3.0377 Y-2.1724
N17680 X3.0325 Y-2.1754
N17685 X3.0274 Y-2.1785
N17690 X3.0223 Y-2.1817
N17695 X3.0173 Y-2.185
N17700 X3.0124 Y-2.1885
N17705 X3.0075 Y-2.192
N17710 X3.0027 Y-2.1955
N17715 X2.998 Y-2.1992
N17720 X2.9933 Y-2.203
N17725 X2.9887 Y-2.2069
N17730 X2.9842 Y-2.2108
N17735 X2.9797 Y-2.2148
N17740 X2.9754 Y-2.2189
N17745 X2.9711 Y-2.2231
N17750 X2.9669 Y-2.2274
N17755 X2.9627 Y-2.2318
N17760 X2.9587 Y-2.2362
N17765 X2.9547 Y-2.2407
N17770 X2.9509 Y-2.2453
N17775 X2.9471 Y-2.25
N17780 X2.9434 Y-2.2547
N17785 X2.9398 Y-2.2595
N17790 X2.9363 Y-2.2643
N17795 X2.9328 Y-2.2693
N17800 X2.9295 Y-2.2743
N17805 X2.9263 Y-2.2793
N17810 X2.9231 Y-2.2844
N17815 X2.9201 Y-2.2896
N17820 X2.9171 Y-2.2948
N17825 X2.9143 Y-2.3001
N17830 X2.9115 Y-2.3054
N17835 X2.9089 Y-2.3108
N17840 X2.9064 Y-2.3163
N17845 X2.9039 Y-2.3217
N17850 X2.9016 Y-2.3273
N17855 X2.8993 Y-2.3328
N17860 X2.8972 Y-2.3384
N17865 X2.8952 Y-2.3441
N17870 X2.8933 Y-2.3498
N17875 X2.8915 Y-2.3555
N17880 X2.8898 Y-2.3612
N17885 X2.8882 Y-2.367
N17890 X2.8867 Y-2.3728
N17895 X2.8853 Y-2.3787
N17900 X2.884 Y-2.3846
N17905 X2.8829 Y-2.3904
N17910 X2.8818 Y-2.3963
N17915 X2.8809 Y-2.4023
N17920 X2.8801 Y-2.4082
N17925 X2.8794 Y-2.4142
N17930 X2.8788 Y-2.4201
N17935 X2.8783 Y-2.4261
N17940 X2.8779 Y-2.4321
N17945 X2.8777 Y-2.4381
N17950 X2.8775 Y-2.4441
N17955 Y-2.4501
N17960 Y-2.4561
N17965 X2.8777 Y-2.4621
N17970 X2.878 Y-2.4681
N17975 X2.8784 Y-2.4741
N17980 X2.879 Y-2.4801
N17985 X2.8796 Y-2.486
N17990 X2.8803 Y-2.492
N17995 X2.8812 Y-2.4979
N18000 X2.8822 Y-2.5038
N18005 X2.8832 Y-2.5097
N18010 X2.8844 Y-2.5156
N18015 X2.8857 Y-2.5215
N18020 X2.8871 Y-2.5273
N18025 X2.8887 Y-2.5331
N18030 X2.8903 Y-2.5389
N18035 X2.892 Y-2.5446
N18040 X2.8939 Y-2.5504
N18045 X2.8958 Y-2.556
N18050 X2.8978 Y-2.5617
N18055 X2.9 Y-2.5673
N18060 X2.9023 Y-2.5728
N18065 X2.9046 Y-2.5783
N18070 X2.9071 Y-2.5838
N18075 X2.9097 Y-2.5892
N18080 X2.9123 Y-2.5946
N18085 X2.9151 Y-2.5999
N18090 X2.918 Y-2.6052
N18095 X2.9209 Y-2.6104
N18100 X2.924 Y-2.6156
N18105 X2.9272 Y-2.6207
N18110 X2.9304 Y-2.6257
N18115 X2.9338 Y-2.6307
N18120 X2.9372 Y-2.6356
N18125 X2.9407 Y-2.6405
N18130 X2.9444 Y-2.6452
N18135 X2.9481 Y-2.65
N18140 X2.9519 Y-2.6546
N18145 X2.9558 Y-2.6592
N18150 X2.9597 Y-2.6637
N18155 X2.9638 Y-2.6681
N18160 X2.9679 Y-2.6724
N18165 X2.9721 Y-2.6767
N18170 X2.9764 Y-2.6809
N18175 X2.9808 Y-2.685
N18180 X2.9852 Y-2.689
N18185 X2.9898 Y-2.693
N18190 X2.9943 Y-2.6969
N18195 X2.999 Y-2.7006
N18200 X3.0037 Y-2.7043
N18205 X3.0086 Y-2.7079
N18210 X3.0134 Y-2.7114
N18215 X3.0184 Y-2.7148
N18220 X3.0234 Y-2.7181
N18225 X3.0284 Y-2.7214
N18230 X3.0335 Y-2.7245
N18235 X3.0387 Y-2.7275
N18240 X3.0439 Y-2.7305
N18245 X3.0492 Y-2.7333
N18250 X3.0546 Y-2.7361
N18255 X3.0599 Y-2.7387
N18260 X3.0654 Y-2.7412
N18265 X3.0709 Y-2.7437
N18270 X3.0764 Y-2.746
N18275 X3.082 Y-2.7483
N18280 X3.0876 Y-2.7504
N18285 X3.0932 Y-2.7524
N18290 X3.0989 Y-2.7543
N18295 X3.1046 Y-2.7561
N18300 X3.1104 Y-2.7578
N18305 X3.1162 Y-2.7594
N18310 X3.122 Y-2.7609
N18315 X3.1278 Y-2.7623
N18320 X3.1337 Y-2.7636
N18325 X3.1396 Y-2.7647
N18330 X3.1455 Y-2.7658
N18335 X3.1514 Y-2.7667
N18340 X3.1573 Y-2.7676
N18345 X3.1633 Y-2.7683
N18350 X3.1693 Y-2.7689
N18355 X3.1752 Y-2.7694
N18360 X3.1812 Y-2.7698
N18365 X3.1872 Y-2.77
N18370 X3.1932 Y-2.7702
N18375 X3.1992
N18380 X3.2052
N18385 X3.2112 Y-2.77
N18390 X3.2172 Y-2.7697
N18395 X3.2232 Y-2.7693
N18400 X3.2292 Y-2.7688
N18405 X3.2351 Y-2.7682
N18410 X3.2411 Y-2.7674
N18415 X3.247 Y-2.7666
N18420 X3.253 Y-2.7656
N18425 X3.2589 Y-2.7646
N18430 X3.2647 Y-2.7634
N18435 X3.2706 Y-2.7621
N18440 X3.2764 Y-2.7607
N18445 X3.2822 Y-2.7592
N18450 X3.288 Y-2.7576
N18455 X3.2938 Y-2.7559
N18460 X3.2995 Y-2.754
N18465 X3.3052 Y-2.7521
N18470 X3.3108 Y-2.7501
N18475 X3.3164 Y-2.7479
N18480 X3.322 Y-2.7457
N18485 X3.3275 Y-2.7433
N18490 X3.333 Y-2.7409
N18495 X3.3384 Y-2.7383
N18500 X3.3438 Y-2.7357
N18505 X3.3491 Y-2.7329
N18510 X3.3544 Y-2.7301
N18515 X3.3596 Y-2.7271
N18520 X3.3648 Y-2.7241
N18525 X3.3699 Y-2.7209
N18530 X3.3749 Y-2.7177
N18535 X3.3799 Y-2.7143
N18540 X3.3849 Y-2.7109
N18545 X3.3897 Y-2.7074
N18550 X3.3945 Y-2.7038
N18555 X3.3992 Y-2.7001
N18560 X3.4039 Y-2.6963
N18565 X3.4085 Y-2.6924
N18570 X3.413 Y-2.6885
N18575 X3.4174 Y-2.6844
N18580 X3.4218 Y-2.6803
N18585 X3.4261 Y-2.6761
N18590 X3.4303 Y-2.6718
N18595 X3.4344 Y-2.6675
N18600 X3.4384 Y-2.663
N18605 X3.4424 Y-2.6585
N18610 X3.4463 Y-2.6539
N18615 X3.45 Y-2.6493
N18620 X3.4537 Y-2.6446
N18625 X3.4573 Y-2.6398
N18630 X3.4609 Y-2.6349
N18635 X3.4643 Y-2.63
N18640 X3.4676 Y-2.625
N18645 X3.4709 Y-2.6199
N18650 X3.474 Y-2.6148
N18655 X3.4771 Y-2.6097
N18660 X3.48 Y-2.6044
N18665 X3.4829 Y-2.5992
N18670 X3.4856 Y-2.5938
N18675 X3.4883 Y-2.5885
N18680 X3.4909 Y-2.5831
N18685 X3.496 Y-2.5722
N18690 X3.4985 Y-2.5667
N18695 X3.5009 Y-2.5612
N18700 X3.5033 Y-2.5557
N18705 X3.5057 Y-2.5502
N18710 X3.508 Y-2.5447
N18715 X3.5102 Y-2.5391
N18720 X3.5124 Y-2.5335
N18725 X3.5146 Y-2.5279
N18730 X3.5166 Y-2.5223
N18735 X3.5187 Y-2.5167
N18740 X3.5206 Y-2.511
N18745 X3.5225 Y-2.5053
N18750 X3.5243 Y-2.4996
N18755 X3.5261 Y-2.4938
N18760 X3.5277 Y-2.4881
N18765 X3.5293 Y-2.4823
N18770 X3.5309 Y-2.4765
N18775 X3.5323 Y-2.4707
N18780 X3.5337 Y-2.4648
N18785 X3.5349 Y-2.4589
N18790 X3.5361 Y-2.4531
N18795 X3.5372 Y-2.4472
N18800 X3.5382 Y-2.4413
N18805 X3.5391 Y-2.4353
N18810 X3.54 Y-2.4294
N18815 X3.5407 Y-2.4234
N18820 X3.5413 Y-2.4175
N18825 X3.5418 Y-2.4115
N18830 X3.5423 Y-2.4055
N18835 X3.5426 Y-2.3995
N18840 X3.5428 Y-2.3935
N18845 X3.5429 Y-2.3875
N18850 X3.543 Y-2.3815
N18855 X3.5429 Y-2.3755
N18860 X3.5427 Y-2.3695
N18865 X3.5424 Y-2.3635
N18870 X3.542 Y-2.3575
N18875 X3.5415 Y-2.3516
N18880 X3.5409 Y-2.3456
N18885 X3.5401 Y-2.3396
N18890 X3.5393 Y-2.3337
N18895 X3.5384 Y-2.3278
N18900 X3.5373 Y-2.3219
N18905 X3.5362 Y-2.316
N18910 X3.5349 Y-2.3101
N18915 X3.5335 Y-2.3043
N18920 X3.5321 Y-2.2984
N18925 X3.5305 Y-2.2927
N18930 X3.5288 Y-2.2869
N18935 X3.527 Y-2.2812
N18940 X3.5251 Y-2.2755
N18945 X3.5231 Y-2.2698
N18950 X3.521 Y-2.2642
N18955 X3.5188 Y-2.2586
N18960 X3.5165 Y-2.2531
N18965 X3.5141 Y-2.2476
N18970 X3.5115 Y-2.2421
N18975 X3.5089 Y-2.2367
N18980 X3.5062 Y-2.2314
N18985 X3.5034 Y-2.2261
N18990 X3.5005 Y-2.2208
N18995 X3.4975 Y-2.2156
N19000 X3.4944 Y-2.2105
N19005 X3.4913 Y-2.2054
N19010 X3.488 Y-2.2004
N19015 X3.4846 Y-2.1954
N19020 X3.4812 Y-2.1905
N19025 X3.4776 Y-2.1857
N19030 X3.474 Y-2.1809
N19035 X3.4703 Y-2.1762
N19040 X3.4665 Y-2.1715
N19045 X3.4626 Y-2.1669
N19050 X3.4587 Y-2.1624
N19055 X3.4547 Y-2.158
N19060 X3.4505 Y-2.1536
N19065 X3.4464 Y-2.1493
N19070 X3.4421 Y-2.1451
N19075 X3.4378 Y-2.1409
N19080 X3.4334 Y-2.1368
N19085 X3.4289 Y-2.1328
N19090 X3.4243 Y-2.1289
N19095 X3.4197 Y-2.1251
N19100 X3.4151 Y-2.1213
N19105 X3.4103 Y-2.1176
N19110 X3.4055 Y-2.114
N19115 X3.4007 Y-2.1105
N19120 X3.3958 Y-2.1071
N19125 X3.3908 Y-2.1037
N19130 X3.3857 Y-2.1005
N19135 X3.3807 Y-2.0973
N19140 X3.3755 Y-2.0942
N19145 X3.3703 Y-2.0912
N19150 X3.3651 Y-2.0882
N19155 X3.3598 Y-2.0854
N19160 X3.3545 Y-2.0826
N19165 X3.3491 Y-2.08
N19170 X3.3437 Y-2.0774
N19175 X3.3382 Y-2.0749
N19180 X3.3327 Y-2.0725
N19185 X3.3272 Y-2.0702
N19190 X3.3216 Y-2.068
N19195 X3.316 Y-2.0659
N19200 X3.3103 Y-2.0639
N19205 X3.3047 Y-2.0619
N19210 X3.2989 Y-2.0601
N19215 X3.2932 Y-2.0584
N19220 X3.2874 Y-2.0567
N19225 X3.2816 Y-2.0551
N19230 X3.2758 Y-2.0537
N19235 X3.27 Y-2.0523
N19240 X3.2641 Y-2.051
N19245 X3.2582 Y-2.0498
N19250 X3.2523 Y-2.0487
N19255 X3.2464 Y-2.0477
N19260 X3.2405 Y-2.0468
N19265 X3.2346 Y-2.046
N19270 X3.2286 Y-2.0452
N19275 X3.2226 Y-2.0446
N19280 X3.2167 Y-2.0441
N19285 X3.2107 Y-2.0436
